;FLAVOR:Marlin
;TIME:25080
;Filament used: 22.4184m
;Layer height: 0.2
;MINX:72.901
;MINY:8.516
;MINZ:0.24
;MAXX:148.165
;MAXY:211.507
;MAXZ:18.09
;Generated with Cura_SteamEngine main
M82 ;absolute extrusion mode
; Ender 3 Custom Start G-code
G92 E0 ; Reset Extruder
G28 ; Home all axes
M104 S175 ; Start heating up the nozzle most of the way
M190 S60 ; Start heating the bed, wait until target temperature reached
M109 S200 ; Finish heating the nozzle
G1 Z2.0 F3000 ; Move Z Axis up little to prevent scratching of Heat Bed
G1 X0.1 Y20 Z0.3 F5000.0 ; Move to start position
G1 X0.1 Y200.0 Z0.3 F1500.0 E15 ; Draw the first line
G1 X0.4 Y200.0 Z0.3 F5000.0 ; Move to side a little
G1 X0.4 Y20 Z0.3 F1500.0 E30 ; Draw the second line
G92 E0 ; Reset Extruder
G1 Z2.0 F3000 ; Move Z Axis up little to prevent scratching of Heat Bed
G1 X5 Y20 Z0.3 F5000.0 ; Move over to prevent blob squish
G92 E0
G92 E0
G1 F1500 E-6.5
;LAYER_COUNT:85
;LAYER:-6
M107
G0 F9000 X73.236 Y23.745 Z0.24
;TYPE:SUPPORT-INTERFACE
G1 F1500 E0
G1 F1125 X73.057 Y24.71 E0.07834
G1 X72.948 Y25.702 E0.15801
G1 X72.901 Y26.849 E0.24964
G1 X72.901 Y195.892 E13.74339
G1 X72.908 Y196.288 E13.775
G1 X72.989 Y197.448 E13.86782
G1 X73.133 Y198.417 E13.94602
G1 X73.361 Y199.462 E14.0314
G1 X73.682 Y200.557 E14.12249
G1 X74.1 Y201.63 E14.21441
G1 X74.521 Y202.527 E14.2935
G1 X75.084 Y203.516 E14.38435
G1 X75.624 Y204.333 E14.46252
G1 X76.278 Y205.183 E14.54813
G1 X77.056 Y206.038 E14.64041
G1 X77.705 Y206.663 E14.71233
G1 X78.577 Y207.396 E14.80326
G1 X79.464 Y208.032 E14.89039
G1 X80.43 Y208.612 E14.98033
G1 X81.3 Y209.059 E15.0584
G1 X82.285 Y209.479 E15.14388
G1 X83.296 Y209.822 E15.2291
G1 X84.403 Y210.106 E15.32033
G1 X85.369 Y210.284 E15.39874
G1 X86.507 Y210.405 E15.49009
G1 X87.491 Y210.441 E15.56869
G1 X113.442 Y210.441 E17.64021
G1 X113.913 Y210.435 E17.67781
G1 X114.363 Y210.442 E17.71374
G1 X122.391 Y210.442 E18.35457
G1 X123.59 Y210.394 E18.45035
G1 X125.335 Y210.251 E18.59011
G1 X126.43 Y210.117 E18.67817
G1 X127.478 Y209.91 E18.76344
G1 X128.937 Y209.563 E18.88316
G1 X130.183 Y209.215 E18.98642
G1 X131.127 Y208.864 E19.06682
G1 X132.468 Y208.314 E19.18252
G1 X133.655 Y207.77 E19.28674
G1 X134.545 Y207.271 E19.36819
G1 X135.952 Y206.413 E19.49974
G1 X137.057 Y205.676 E19.60577
G1 X137.928 Y204.983 E19.69461
G1 X139.052 Y204.023 E19.81261
G1 X140.003 Y203.137 E19.91636
G1 X140.736 Y202.334 E20.00315
G1 X141.655 Y201.25 E20.11659
G1 X142.412 Y200.288 E20.21431
G1 X142.995 Y199.416 E20.29804
G1 X143.882 Y197.97 E20.43345
G1 X144.489 Y196.875 E20.53339
G1 X144.932 Y195.897 E20.61909
G1 X145.525 Y194.448 E20.74407
G1 X145.912 Y193.384 E20.83444
G1 X146.217 Y192.271 E20.92656
G1 X146.567 Y190.809 E21.04657
G1 X146.788 Y189.682 E21.13824
G1 X146.917 Y188.574 E21.22728
G1 X147.053 Y186.872 E21.36358
G1 X147.098 Y185.766 E21.45194
G1 X147.099 Y24.438 E34.32984
G1 X147.078 Y23.423 E34.41087
G1 X146.982 Y22.35 E34.49687
G1 X146.813 Y21.315 E34.58058
G1 X146.544 Y20.184 E34.67338
G1 X146.216 Y19.169 E34.75853
G1 X145.807 Y18.168 E34.84484
G1 X145.292 Y17.144 E34.93634
G1 X144.813 Y16.33 E35.01173
G1 X144.196 Y15.435 E35.09851
G1 X143.525 Y14.604 E35.18376
G1 X142.796 Y13.822 E35.2691
G1 X142.004 Y13.091 E35.35514
G1 X141.112 Y12.388 E35.4458
G1 X140.379 Y11.884 E35.5168
G1 X139.369 Y11.29 E35.61034
G1 X138.422 Y10.828 E35.69445
G1 X137.421 Y10.425 E35.78058
G1 X136.422 Y10.111 E35.86417
G1 X135.45 Y9.877 E35.94398
G1 X134.342 Y9.69 E36.03368
G1 X133.252 Y9.592 E36.12104
G1 X132.114 Y9.581 E36.21188
G1 X131.064 Y9.646 E36.29586
G1 X130.078 Y9.774 E36.37522
G1 X129.03 Y9.99 E36.46064
G1 X127.996 Y10.283 E36.54643
G1 X126.93 Y10.681 E36.63726
G1 X126.106 Y11.051 E36.70936
G1 X125.07 Y11.603 E36.80306
G1 X124.523 Y11.858 E36.85124
G1 X123.885 Y12.069 E36.90488
G1 X123.177 Y12.202 E36.96238
G1 X122.521 Y12.243 E37.01485
G1 X114.358 Y12.242 E37.66646
G1 X113.887 Y12.249 E37.70406
G1 X113.438 Y12.243 E37.7399
G1 X106.945 Y12.245 E38.2582
G1 X105.479 Y12.322 E38.37538
G1 X104.512 Y12.459 E38.45335
G1 X103.452 Y12.684 E38.53984
G1 X102.487 Y12.96 E38.61996
G1 X101.575 Y13.141 E38.69418
G1 X100.925 Y13.17 E38.74612
G1 X100.232 Y13.117 E38.8016
G1 X99.563 Y12.978 E38.85614
G1 X98.16 Y12.59 E38.97234
G1 X97.216 Y12.415 E39.04898
G1 X96.142 Y12.29 E39.13529
G1 X95.009 Y12.244 E39.2258
G1 X87.45 Y12.243 E39.8292
G1 X87.054 Y12.25 E39.86081
G1 X85.895 Y12.331 E39.95355
G1 X84.923 Y12.475 E40.03199
G1 X83.803 Y12.72 E40.12351
G1 X82.699 Y13.058 E40.21567
G1 X81.712 Y13.442 E40.30021
G1 X80.824 Y13.859 E40.37852
G1 X79.826 Y14.426 E40.47014
G1 X79.007 Y14.968 E40.54854
G1 X78.146 Y15.631 E40.63528
G1 X77.304 Y16.396 E40.72609
G1 X76.677 Y17.047 E40.79824
G1 X75.945 Y17.918 E40.88906
G1 X75.318 Y18.795 E40.97512
G1 X74.73 Y19.772 E41.06614
G1 X74.284 Y20.639 E41.14397
G1 X73.897 Y21.546 E41.22269
G1 X73.522 Y22.634 E41.31455
G1 X73.236 Y23.745 E41.40613
G1 X73.623 Y23.843
G1 X146.697 Y96.917 E49.65535
G0 F9000 X146.697 Y99.18
G1 F1125 X73.341 Y25.824 E57.93641
G0 F9000 X73.299 Y28.044
G1 F1125 X146.697 Y101.442 E66.22221
G0 F9000 X146.697 Y103.705
G1 F1125 X73.299 Y30.307 E74.50801
G0 F9000 X73.299 Y32.57
G1 F1125 X146.697 Y105.968 E82.79381
G0 F9000 X146.697 Y108.231
G1 F1125 X73.299 Y34.832 E91.07967
G0 F9000 X73.299 Y37.095
G1 F1125 X146.697 Y110.493 E99.36547
G0 F9000 X146.697 Y112.756
G1 F1125 X73.299 Y39.358 E107.65127
G0 F9000 X73.299 Y41.621
G1 F1125 X146.697 Y115.019 E115.93707
G0 F9000 X146.697 Y117.282
G1 F1125 X73.299 Y43.883 E124.22293
G0 F9000 X73.299 Y46.146
G1 F1125 X146.697 Y119.544 E132.50873
G0 F9000 X146.697 Y121.807
G1 F1125 X73.299 Y48.409 E140.79453
G0 F9000 X73.299 Y50.671
G1 F1125 X146.697 Y124.07 E149.08038
G0 F9000 X146.697 Y126.333
G1 F1125 X73.299 Y52.934 E157.36624
G0 F9000 X73.299 Y55.197
G1 F1125 X146.697 Y128.595 E165.65204
G0 F9000 X146.697 Y130.858
G1 F1125 X73.299 Y57.46 E173.93784
G0 F9000 X73.299 Y59.722
G1 F1125 X146.697 Y133.121 E182.2237
G0 F9000 X146.697 Y135.384
G1 F1125 X73.299 Y61.985 E190.50956
G0 F9000 X73.299 Y64.248
G1 F1125 X146.697 Y137.646 E198.79536
G0 F9000 X146.697 Y139.909
G1 F1125 X73.299 Y66.511 E207.08116
G0 F9000 X73.299 Y68.773
G1 F1125 X146.697 Y142.172 E215.36701
G0 F9000 X146.697 Y144.435
G1 F1125 X73.299 Y71.036 E223.65287
G0 F9000 X73.299 Y73.299
G1 F1125 X146.697 Y146.697 E231.93867
G0 F9000 X146.697 Y148.96
G1 F1125 X73.299 Y75.562 E240.22447
G0 F9000 X73.299 Y77.824
G1 F1125 X146.697 Y151.223 E248.51033
G0 F9000 X146.697 Y153.486
G1 F1125 X73.299 Y80.087 E256.79619
G0 F9000 X73.299 Y82.35
G1 F1125 X146.697 Y155.748 E265.08199
G0 F9000 X146.697 Y158.011
G1 F1125 X73.299 Y84.613 E273.36779
G0 F9000 X73.299 Y86.875
G1 F1125 X146.697 Y160.274 E281.65364
G0 F9000 X146.697 Y162.536
G1 F1125 X73.299 Y89.138 E289.93945
G0 F9000 X73.299 Y91.401
G1 F1125 X146.697 Y164.799 E298.22525
G0 F9000 X146.697 Y167.062
G1 F1125 X73.299 Y93.664 E306.51105
G0 F9000 X73.299 Y95.926
G1 F1125 X146.697 Y169.325 E314.7969
G0 F9000 X146.697 Y171.587
G1 F1125 X73.299 Y98.189 E323.0827
G0 F9000 X73.299 Y100.452
G1 F1125 X146.697 Y173.85 E331.3685
G0 F9000 X146.697 Y176.113
G1 F1125 X73.299 Y102.715 E339.65431
G0 F9000 X73.299 Y104.977
G1 F1125 X146.697 Y178.376 E347.94016
G0 F9000 X146.697 Y180.638
G1 F1125 X73.299 Y107.24 E356.22596
G0 F9000 X73.299 Y109.503
G1 F1125 X146.697 Y182.901 E364.51176
G0 F9000 X146.697 Y185.164
G1 F1125 X73.299 Y111.766 E372.79756
G0 F9000 X73.299 Y114.028
G1 F1125 X146.614 Y187.343 E381.07399
G0 F9000 X146.417 Y189.409
G1 F1125 X73.299 Y116.291 E389.32819
G0 F9000 X73.299 Y118.554
G1 F1125 X146.039 Y191.294 E397.53971
G0 F9000 X145.576 Y193.093
G1 F1125 X73.299 Y120.816 E405.69896
G0 F9000 X73.299 Y123.079
G1 F1125 X144.969 Y194.749 E413.78969
G0 F9000 X144.293 Y196.336
G1 F1125 X73.299 Y125.342 E421.8041
G0 F9000 X73.299 Y127.605
G1 F1125 X143.508 Y197.813 E429.72985
G0 F9000 X142.647 Y199.216
G1 F1125 X73.299 Y129.867 E437.5585
G0 F9000 X73.299 Y132.13
G1 F1125 X141.706 Y200.537 E445.28088
G0 F9000 X140.683 Y201.777
G1 F1125 X73.299 Y134.393 E452.88777
G0 F9000 X73.299 Y136.656
G1 F1125 X139.603 Y202.96 E460.37273
G0 F9000 X138.417 Y204.037
G1 F1125 X73.299 Y138.918 E467.72387
G0 F9000 X73.299 Y141.181
G1 F1125 X137.182 Y205.064 E474.93554
G0 F9000 X135.852 Y205.997
G1 F1125 X73.299 Y143.444 E481.99706
G0 F9000 X73.299 Y145.707
G1 F1125 X134.45 Y206.858 E488.90031
G0 F9000 X132.971 Y207.641
G1 F1125 X73.299 Y147.969 E495.63661
G0 F9000 X73.299 Y150.232
G1 F1125 X131.388 Y208.322 E502.19425
G0 F9000 X129.729 Y208.925
G1 F1125 X73.299 Y152.495 E508.56456
G0 F9000 X73.299 Y154.758
G1 F1125 X127.931 Y209.389 E514.73183
G0 F9000 X126.038 Y209.76
G1 F1125 X73.299 Y157.02 E520.68552
G0 F9000 X73.299 Y159.283
G1 F1125 X123.976 Y209.96 E526.40638
G0 F9000 X121.794 Y210.041
G1 F1125 X73.299 Y161.546 E531.88091
G0 F9000 X73.299 Y163.809
G1 F1125 X119.531 Y210.041 E537.09998
G0 F9000 X117.268 Y210.041
G1 F1125 X73.299 Y166.071 E542.06364
G0 F9000 X73.299 Y168.334
G1 F1125 X115.005 Y210.041 E546.77183
G0 F9000 X112.741 Y210.039
G1 F1125 X73.299 Y170.597 E551.22438
G0 F9000 X73.299 Y172.86
G1 F1125 X110.479 Y210.039 E555.42153
G0 F9000 X108.216 Y210.039
G1 F1125 X73.299 Y175.122 E559.36326
G0 F9000 X73.299 Y177.385
G1 F1125 X105.953 Y210.039 E563.04953
G0 F9000 X103.69 Y210.039
G1 F1125 X73.299 Y179.648 E566.48032
G0 F9000 X73.299 Y181.91
G1 F1125 X101.428 Y210.039 E569.65577
G0 F9000 X99.165 Y210.039
G1 F1125 X73.299 Y184.173 E572.57575
G0 F9000 X73.299 Y186.436
G1 F1125 X96.902 Y210.039 E575.24026
G0 F9000 X94.639 Y210.039
G1 F1125 X73.299 Y188.699 E577.6493
G0 F9000 X73.299 Y190.961
G1 F1125 X92.377 Y210.039 E579.80299
G0 F9000 X90.114 Y210.039
G1 F1125 X73.299 Y193.224 E581.70121
G0 F9000 X73.299 Y195.487
G1 F1125 X87.851 Y210.039 E583.34397
G0 F9000 X85.437 Y209.888
G1 F1125 X73.462 Y197.913 E584.69581
G0 F9000 X74.282 Y200.996
G1 F1125 X82.363 Y209.076 E585.60801
G1 F1500 E579.10801
G0 F9000 X81.84 Y210.444
G0 X83.09 Y210.869
G0 X85.117 Y211.321
G0 X86.443 Y211.468
G0 X122.511 Y211.504
G0 X125.449 Y211.31
G0 X127.719 Y210.948
G0 X130.615 Y210.188
G0 X133.018 Y209.236
G0 X134.239 Y208.663
G0 X136.657 Y207.227
G0 X137.79 Y206.454
G0 X139.807 Y204.777
G0 X140.846 Y203.793
G0 X142.582 Y201.799
G0 X143.889 Y199.993
G0 X145.387 Y197.452
G0 X146.52 Y194.826
G0 X147.201 Y192.719
G0 X147.853 Y189.741
G0 X148.116 Y186.933
G0 X148.129 Y186.581
G0 X148.165 Y94.654
G0 X146.697 Y94.654
G1 F1500 E585.60801
G1 F1125 X74.131 Y22.088 E593.79988
G0 F9000 X74.804 Y20.498
G1 F1125 X146.697 Y92.391 E601.91579
G0 F9000 X146.697 Y90.129
G1 F1125 X75.626 Y19.057 E609.93895
G0 F9000 X76.595 Y17.763
G1 F1125 X146.697 Y87.866 E617.85273
G0 F9000 X146.697 Y85.603
G1 F1125 X77.684 Y16.59 E625.64351
G0 F9000 X78.906 Y15.549
G1 F1125 X146.697 Y83.341 E633.2964
G0 F9000 X146.697 Y81.078
G1 F1125 X80.259 Y14.639 E640.79655
G0 F9000 X81.748 Y13.866
G1 F1125 X146.697 Y78.815 E648.12856
G0 F9000 X146.697 Y76.552
G1 F1125 X83.405 Y13.26 E655.27351
G0 F9000 X85.241 Y12.833
G1 F1125 X146.697 Y74.29 E662.21125
G0 F9000 X146.697 Y72.027
G1 F1125 X87.316 Y12.645 E668.91474
G0 F9000 X89.576 Y12.643
G1 F1125 X146.697 Y69.764 E675.36306
G0 F9000 X146.697 Y67.501
G1 F1125 X91.839 Y12.643 E681.5559
G0 F9000 X94.102 Y12.643
G1 F1125 X146.697 Y65.239 E687.49334
G0 F9000 X146.697 Y62.976
G1 F1125 X96.45 Y12.729 E693.16565
G0 F9000 X99.306 Y13.322
G1 F1125 X146.697 Y60.713 E698.51556
G0 F9000 X146.697 Y58.45
G1 F1125 X101.759 Y13.512 E703.58855
G0 F9000 X103.576 Y13.066
G1 F1125 X146.697 Y56.188 E708.45647
G0 F9000 X146.697 Y53.925
G1 F1125 X105.496 Y12.723 E713.10766
G0 F9000 X107.68 Y12.645
G1 F1125 X146.697 Y51.662 E717.51223
G0 F9000 X146.697 Y49.399
G1 F1125 X109.942 Y12.644 E721.66145
G0 F9000 X112.204 Y12.643
G1 F1125 X146.697 Y47.137 E725.55538
G0 F9000 X146.697 Y44.874
G1 F1125 X114.465 Y12.641 E729.19406
G0 F9000 X116.727 Y12.641
G1 F1125 X146.697 Y42.611 E732.57733
G0 F9000 X146.697 Y40.348
G1 F1125 X118.99 Y12.641 E735.70514
G0 F9000 X121.253 Y12.641
G1 F1125 X146.697 Y38.086 E738.57753
G0 F9000 X146.697 Y35.823
G1 F1125 X123.434 Y12.56 E741.20366
G0 F9000 X125.145 Y12.008
G1 F1125 X146.697 Y33.56 E743.63664
G0 F9000 X146.697 Y31.297
G1 F1125 X126.646 Y11.246 E745.90017
G0 F9000 X128.281 Y10.618
G1 F1125 X146.697 Y29.035 E747.97918
G0 F9000 X146.697 Y26.772
G1 F1125 X130.102 Y10.177 E749.85257
G0 F9000 X132.169 Y9.981
G1 F1125 X146.697 Y24.509 E751.49262
G0 F9000 X146.533 Y22.082
G1 F1125 X134.588 Y10.137 E752.84107
G0 F9000 X137.671 Y10.958
M104 S200
G1 F1125 X145.715 Y19.002 E753.74915
G1 F1500 E747.24915
G0 F300 X145.715 Y19.002 Z0.54
G0 F9000 X147.072 Y18.45
G0 X146.221 Y16.624
G0 X145.103 Y14.874
G0 X144.254 Y13.823
G0 X142.785 Y12.363
G0 X141.736 Y11.524
G0 X139.966 Y10.405
G0 X138.755 Y9.815
G0 X136.805 Y9.114
G0 X135.496 Y8.8
G0 X133.432 Y8.54
G0 X132.078 Y8.516
G0 X85.68 Y11.287
G0 X83.622 Y11.669
G0 X82.341 Y12.055
G0 X80.781 Y12.719
G0 X79.418 Y13.427
G0 X79.895 Y14.857
;TIME_ELAPSED:527.033835
;LAYER:-5
;TYPE:SUPPORT
G1 F1500 E753.74915
G1 F1125 X75.519 Y19.232 E754.36658
G1 F1500 E747.86658
G0 F9000 X74.504 Y18.103
G0 X75.775 Y16.459
G0 X76.698 Y15.502
G0 X78.299 Y14.169
G0 X79.222 Y15.303
G1 F1500 E754.36658
G1 F1125 X78.358 Y15.977 E754.47592
G1 X77.576 Y16.689 E754.58144
G1 X76.982 Y17.305 E754.66683
G1 X76.315 Y18.097 E754.77015
G1 X75.652 Y19.011 E754.88281
G1 X75.09 Y19.943 E754.99141
G1 X74.679 Y20.742 E755.08106
G1 X74.245 Y21.745 E755.19011
G1 X74.154 Y22.011 E755.21816
G1 X82.668 Y13.497 E756.41958
G1 X82.92 Y13.4 E756.44652
G1 X83.992 Y13.085 E756.55801
G1 X84.64 Y12.94 E756.62426
G1 X73.596 Y23.984 E758.18269
G1 X73.454 Y24.755 E758.26091
G1 X73.36 Y25.634 E758.34912
G1 X86.29 Y12.704 E760.17368
G1 X87.07 Y12.65 E760.2517
G1 X87.767 Y12.641 E760.32125
G1 X73.299 Y27.109 E762.36284
G1 X73.299 Y28.523 E762.50393
G1 X89.181 Y12.641 E764.74505
G1 X90.595 Y12.641 E764.88614
G1 X73.299 Y29.938 E767.32687
G1 X73.299 Y31.352 E767.46796
G1 X92.009 Y12.642 E770.10814
G1 X93.423 Y12.642 E770.24923
G1 X73.299 Y32.766 E773.08894
G1 X73.299 Y34.18 E773.23003
G1 X94.837 Y12.642 E776.26928
G1 X96.203 Y12.69 E776.40566
G1 X73.299 Y35.595 E779.63773
G1 X73.299 Y37.009 E779.77882
G1 X97.446 Y12.862 E783.18623
G1 X98.087 Y12.981 E783.25128
G1 X98.598 Y13.123 E783.3042
G1 X73.299 Y38.423 E786.87423
G1 X73.299 Y39.837 E787.01532
G1 X99.717 Y13.419 E790.74319
G1 X100.161 Y13.512 E790.78845
G1 X100.971 Y13.579 E790.86955
G1 X73.299 Y41.251 E794.77437
G1 X73.299 Y42.666 E794.91555
G1 X102.63 Y13.334 E799.05455
G1 X103.537 Y13.072 E799.14875
G1 X104.513 Y12.866 E799.24828
G1 X73.299 Y44.08 E803.65291
G1 X73.299 Y45.494 E803.794
G1 X106.105 Y12.688 E808.42328
G1 X106.943 Y12.645 E808.50701
G1 X107.563 Y12.644 E808.56887
G1 X73.299 Y46.908 E813.40389
G1 X73.299 Y48.322 E813.54498
G1 X108.978 Y12.643 E818.57967
G1 X110.393 Y12.643 E818.72086
G1 X73.299 Y49.737 E823.95523
G1 X73.299 Y51.151 E824.09632
G1 X111.808 Y12.642 E829.53035
G1 X113.223 Y12.641 E829.67154
G1 X73.299 Y52.565 E835.30525
G1 X73.299 Y53.979 E835.44634
G1 X114.637 Y12.641 E841.27958
G1 X116.051 Y12.641 E841.42067
G1 X73.299 Y55.394 E847.45351
G1 X73.299 Y56.808 E847.5946
G1 X117.465 Y12.641 E853.82697
G1 X118.88 Y12.641 E853.96816
G1 X73.299 Y58.222 E860.40013
G1 X73.299 Y59.636 E860.54122
G1 X120.294 Y12.641 E867.17272
G1 X121.708 Y12.641 E867.31381
G1 X73.299 Y61.05 E874.14484
G1 X73.299 Y62.465 E874.28603
G1 X123.147 Y12.617 E881.32012
G1 X123.973 Y12.458 E881.40405
G1 X124.669 Y12.232 E881.47707
G1 X125.194 Y11.984 E881.535
G1 X73.299 Y63.879 E888.85795
G1 X73.299 Y65.293 E888.99904
G1 X127.812 Y10.78 E896.69141
G1 X128.204 Y10.639 E896.73298
G1 X129.123 Y10.38 E896.82825
G1 X129.758 Y10.248 E896.89297
G1 X73.299 Y66.707 E904.85994
G1 X73.299 Y68.121 E905.00103
G1 X131.396 Y10.024 E913.19914
G1 X132.114 Y9.98 E913.27092
G1 X132.847 Y9.987 E913.34406
G1 X73.299 Y69.536 E921.747
G1 X73.299 Y70.95 E921.88809
G1 X134.182 Y10.067 E930.47934
G1 X135.391 Y10.272 E930.60169
G1 X73.299 Y72.364 E939.36355
G1 X73.299 Y73.778 E939.50464
G1 X136.518 Y10.559 E948.42552
