;FLAVOR:Marlin
;TIME:4561
;Filament used: 3.29604m
;Layer height: 0.2
;MINX:88.129
;MINY:52.218
;MINZ:0.2
;MAXX:159.789
;MAXY:131.863
;MAXZ:5
;Generated with Cura_SteamEngine main
M82 ;absolute extrusion mode
; Ender 3 Custom Start G-code
G92 E0 ; Reset Extruder
G28 ; Home all axes
M104 S175 ; Start heating up the nozzle most of the way
M190 S60 ; Start heating the bed, wait until target temperature reached
M109 S200 ; Finish heating the nozzle
G1 Z2.0 F3000 ; Move Z Axis up little to prevent scratching of Heat Bed
G1 X0.1 Y20 Z0.3 F5000.0 ; Move to start position
G1 X0.1 Y200.0 Z0.3 F1500.0 E15 ; Draw the first line
G1 X0.4 Y200.0 Z0.3 F5000.0 ; Move to side a little
G1 X0.4 Y20 Z0.3 F1500.0 E30 ; Draw the second line
G92 E0 ; Reset Extruder
G1 Z2.0 F3000 ; Move Z Axis up little to prevent scratching of Heat Bed
G1 X5 Y20 Z0.3 F5000.0 ; Move over to prevent blob squish
G92 E0
G92 E0
G1 F1500 E-6.5
;LAYER_COUNT:25
;LAYER:0
M107
;MESH:brackettest_3.STL
G0 F6000 X99.097 Y106.876 Z0.2
;TYPE:WALL-INNER
G1 F1500 E0
G1 F1200 X98.559 Y106.805 E0.01805
G1 X98.057 Y106.652 E0.0355
G1 X97.599 Y106.421 E0.05256
G1 X97.168 Y106.104 E0.07036
G1 X96.801 Y105.722 E0.08798
G1 X96.508 Y105.288 E0.1054
G1 X96.293 Y104.808 E0.12289
G1 X96.161 Y104.306 E0.14015
G1 X96.115 Y103.775 E0.15788
G1 X96.165 Y103.233 E0.17598
G1 X96.295 Y102.735 E0.1931
G1 X96.528 Y102.232 E0.21154
G1 X96.804 Y101.823 E0.22795
G1 X97.172 Y101.443 E0.24554
G1 X97.583 Y101.138 E0.26257
G1 X98.064 Y100.895 E0.28049
G1 X98.555 Y100.743 E0.29759
G1 X99.085 Y100.675 E0.31536
G1 X99.61 Y100.697 E0.33284
G1 X100.109 Y100.806 E0.34982
G1 X100.625 Y101.012 E0.3683
G1 X101.072 Y101.289 E0.38579
G1 X101.453 Y101.625 E0.40269
G1 X101.763 Y102.006 E0.41903
G1 X102.042 Y102.487 E0.43752
G1 X102.212 Y102.969 E0.45452
G1 X102.303 Y103.478 E0.47172
G1 X102.311 Y104.024 E0.48988
G1 X102.221 Y104.557 E0.50786
G1 X102.044 Y105.057 E0.5255
G1 X101.791 Y105.508 E0.5427
G1 X101.458 Y105.923 E0.5604
G1 X101.063 Y106.27 E0.57788
G1 X100.609 Y106.549 E0.59561
G1 X100.113 Y106.745 E0.61335
G1 X99.604 Y106.851 E0.63064
G1 X99.097 Y106.876 E0.64752
G0 F6000 X99.557 Y106.454
;TYPE:WALL-OUTER
G1 F1200 X99.097 Y106.472 E0.66283
G1 X98.646 Y106.415 E0.67795
G1 X98.222 Y106.284 E0.69271
G1 X97.822 Y106.085 E0.70757
G1 X97.432 Y105.801 E0.72362
G1 X97.105 Y105.457 E0.7394
G1 X96.852 Y105.077 E0.75459
G1 X96.677 Y104.688 E0.76878
G1 X96.554 Y104.217 E0.78497
G1 X96.518 Y103.76 E0.80021
G1 X96.554 Y103.333 E0.81447
G1 X96.669 Y102.885 E0.82985
G1 X96.858 Y102.461 E0.84529
G1 X97.126 Y102.066 E0.86117
G1 X97.423 Y101.758 E0.8754
G1 X97.785 Y101.487 E0.89044
G1 X98.228 Y101.263 E0.90695
G1 X98.622 Y101.141 E0.92067
G1 X99.088 Y101.078 E0.93631
G1 X99.576 Y101.099 E0.95255
G1 X99.995 Y101.19 E0.96681
G1 X100.416 Y101.355 E0.98185
G1 X100.827 Y101.605 E0.99785
G1 X101.167 Y101.905 E1.01293
G1 X101.447 Y102.251 E1.02774
G1 X101.675 Y102.653 E1.04311
G1 X101.829 Y103.085 E1.05836
G1 X101.907 Y103.53 E1.07339
G1 X101.91 Y103.98 E1.08836
G1 X101.836 Y104.438 E1.10379
G1 X101.67 Y104.905 E1.12027
G1 X101.446 Y105.299 E1.13535
G1 X101.157 Y105.655 E1.1506
G1 X100.837 Y105.937 E1.16478
G1 X100.416 Y106.195 E1.18121
G1 X100.011 Y106.355 E1.19569
G1 X99.557 Y106.454 E1.21115
G1 F1500 E-5.28885
G0 F6000 X99.451 Y106.959
G0 X99.491 Y107.907
G0 X99.924 Y116.096
;TYPE:WALL-INNER
G1 F1500 E1.21115
G1 F1200 X99.763 Y116.052 E1.2167
G1 X99.609 Y115.956 E1.22273
G1 X99.493 Y115.823 E1.2286
G1 X99.4 Y115.597 E1.23673
G1 X99.4 Y108.479 E1.47348
G1 X99.448 Y108.264 E1.4808
G1 X99.609 Y108.044 E1.48987
G1 X99.785 Y107.939 E1.49669
G1 X100 Y107.9 E1.50395
G1 X107.086 Y107.899 E1.73964
G1 X107.242 Y107.687 E1.74839
G1 X107.612 Y107.304 E1.7661
G1 X108.055 Y106.971 E1.78454
G1 X108.564 Y106.699 E1.80373
G1 X109.115 Y106.509 E1.82312
G1 X109.734 Y106.411 E1.84396
G1 X110.294 Y106.412 E1.86259
G1 X110.86 Y106.503 E1.88165
G1 X111.415 Y106.687 E1.9011
G1 X111.921 Y106.955 E1.92014
G1 X112.379 Y107.296 E1.93914
G1 X112.749 Y107.677 E1.9568
G1 X112.913 Y107.9 E1.96601
G1 X120.075 Y107.902 E2.20422
G1 X120.359 Y108.019 E2.21443
G1 X120.49 Y108.152 E2.22064
G1 X120.6 Y108.4 E2.22966
G1 X120.6 Y115.537 E2.46704
G1 X120.515 Y115.81 E2.47655
G1 X120.392 Y115.956 E2.4829
G1 X120.078 Y116.096 E2.49434
G1 X99.924 Y116.096 E3.16466
G0 F6000 X99.847 Y115.63
;TYPE:WALL-OUTER
G1 F1200 X99.804 Y115.544 E3.16786
G1 X99.8 Y108.452 E3.40374
G1 X99.869 Y108.348 E3.40789
G1 X99.96 Y108.303 E3.41127
G1 X107.296 Y108.299 E3.65526
G1 X107.509 Y107.99 E3.66775
G1 X107.889 Y107.596 E3.68595
G1 X108.283 Y107.299 E3.70236
G1 X108.736 Y107.06 E3.7194
G1 X109.248 Y106.889 E3.73735
G1 X109.746 Y106.811 E3.75412
G1 X110.258 Y106.81 E3.77115
G1 X110.766 Y106.892 E3.78826
G1 X111.255 Y107.056 E3.80542
G1 X111.709 Y107.294 E3.82247
G1 X112.127 Y107.61 E3.83989
G1 X112.462 Y107.955 E3.85589
G1 X112.703 Y108.3 E3.86989
G1 X120.025 Y108.3 E4.11342
G1 X120.12 Y108.339 E4.11683
G1 X120.196 Y108.457 E4.1215
G1 X120.196 Y115.544 E4.35722
G1 X120.106 Y115.671 E4.36239
G1 X120.026 Y115.699 E4.36521
G1 X99.974 Y115.699 E5.03214
G1 X99.847 Y115.63 E5.03695
G1 F1500 E-1.46305
G0 F6000 X100.101 Y116.201
G0 X101.111 Y116.281
G0 X106.888 Y121.42
G0 X109.344 Y125.483
;TYPE:WALL-INNER
G1 F1500 E5.03695
G1 F1200 X108.839 Y125.325 E5.05455
G1 X108.381 Y125.097 E5.07157
G1 X107.948 Y124.777 E5.08947
G1 X107.586 Y124.401 E5.10683
G1 X107.29 Y123.964 E5.12439
G1 X107.088 Y123.513 E5.14083
G1 X106.943 Y122.972 E5.15945
G1 X106.9 Y122.432 E5.17747
G1 X106.943 Y121.921 E5.19453
G1 X107.074 Y121.418 E5.21182
G1 X107.29 Y120.936 E5.22938
G1 X107.586 Y120.499 E5.24694
G1 X107.949 Y120.122 E5.26434
G1 X108.368 Y119.811 E5.2817
G1 X108.849 Y119.569 E5.29961
G1 X109.36 Y119.416 E5.31735
G1 X109.867 Y119.35 E5.33436
G1 X110.392 Y119.372 E5.35183
G1 X110.897 Y119.481 E5.36902
G1 X111.391 Y119.676 E5.38668
G1 X111.846 Y119.955 E5.40443
G1 X112.242 Y120.305 E5.42201
G1 X112.571 Y120.713 E5.43944
G1 X112.826 Y121.169 E5.45682
G1 X113.002 Y121.666 E5.47436
G1 X113.082 Y122.13 E5.49002
G1 X113.09 Y122.23 E5.49335
G1 X113.092 Y122.703 E5.50908
G1 X112.998 Y123.241 E5.52725
G1 X112.826 Y123.731 E5.54452
G1 X112.573 Y124.183 E5.56175
G1 X112.248 Y124.586 E5.57897
G1 X111.846 Y124.945 E5.5969
G1 X111.399 Y125.22 E5.61435
G1 X110.892 Y125.42 E5.63248
G1 X110.393 Y125.528 E5.64946
G1 X109.876 Y125.55 E5.66667
G1 X109.344 Y125.483 E5.68451
G0 F6000 X109.413 Y125.086
;TYPE:WALL-OUTER
G1 F1200 X109.011 Y124.962 E5.6985
G1 X108.604 Y124.76 E5.71361
G1 X108.224 Y124.484 E5.72923
G1 X107.908 Y124.159 E5.74431
G1 X107.634 Y123.752 E5.76063
G1 X107.458 Y123.359 E5.77495
G1 X107.338 Y122.907 E5.7905
G1 X107.3 Y122.435 E5.80625
G1 X107.336 Y122.009 E5.82047
G1 X107.449 Y121.567 E5.83565
G1 X107.634 Y121.148 E5.85088
G1 X107.908 Y120.741 E5.8672
G1 X108.227 Y120.414 E5.88239
G1 X108.596 Y120.144 E5.8976
G1 X109.01 Y119.938 E5.91298
G1 X109.404 Y119.816 E5.9267
G1 X109.87 Y119.753 E5.94234
G1 X110.358 Y119.774 E5.95858
G1 X110.793 Y119.87 E5.9734
G1 X111.198 Y120.03 E5.98788
G1 X111.619 Y120.288 E6.00431
G1 X111.939 Y120.57 E6.01849
G1 X112.245 Y120.95 E6.03472
G1 X112.452 Y121.318 E6.04876
G1 X112.617 Y121.784 E6.06521
G1 X112.69 Y122.231 E6.08027
G1 X112.692 Y122.655 E6.09437
G1 X112.618 Y123.113 E6.1098
G1 X112.452 Y123.58 E6.12629
G1 X112.247 Y123.946 E6.14024
G1 X111.954 Y124.315 E6.15591
G1 X111.62 Y124.611 E6.17076
G1 X111.229 Y124.854 E6.18607
G1 X110.762 Y125.039 E6.20277
G1 X110.355 Y125.127 E6.21662
G1 X109.879 Y125.147 E6.23247
G1 X109.413 Y125.086 E6.2481
G1 F1500 E-0.2519
G0 F6000 X109.264 Y125.564
G0 X109.806 Y125.723
G0 X109.947 Y131.252
G0 X109.449 Y131.463
;TYPE:WALL-INNER
G1 F1500 E6.2481
G1 F1200 X111.656 Y131.406 E6.32153
G1 X113.847 Y131.123 E6.39501
G1 X115.987 Y130.617 E6.46815
G1 X118.086 Y129.888 E6.54205
G1 X120.09 Y128.95 E6.61565
G1 X121.983 Y127.813 E6.68909
G1 X123.75 Y126.491 E6.76249
G1 X125.378 Y124.984 E6.83627
G1 X126.836 Y123.325 E6.90973
G1 X128.117 Y121.523 E6.98327
G1 X129.205 Y119.599 E7.05678
G1 X130.091 Y117.573 E7.13033
G1 X130.768 Y115.455 E7.20429
G1 X131.215 Y113.303 E7.27739
G1 X131.442 Y111.098 E7.35112
G1 X131.467 Y110.137 E7.38309
G1 X131.471 Y110 E7.38765
G1 X131.442 Y108.904 E7.42412
G1 X131.215 Y106.695 E7.49797
G1 X130.765 Y104.545 E7.57103
G1 X130.091 Y102.424 E7.64505
G1 X129.205 Y100.401 E7.71851
G1 X128.116 Y98.475 E7.7921
G1 X126.834 Y96.673 E7.86565
G1 X125.376 Y95.014 E7.93911
G1 X123.75 Y93.509 E8.0128
G1 X121.983 Y92.187 E8.0862
G1 X120.09 Y91.05 E8.15965
G1 X118.086 Y90.112 E8.23324
G1 X115.987 Y89.383 E8.30715
G1 X113.847 Y88.878 E8.38028
G1 X111.656 Y88.594 E8.45376
G1 X109.449 Y88.537 E8.52719
G1 X107.245 Y88.707 E8.60071
G1 X105.07 Y89.104 E8.67425
G1 X102.961 Y89.719 E8.74732
G1 X100.9 Y90.555 E8.82129
G1 X98.947 Y91.595 E8.89488
G1 X97.112 Y92.827 E8.96839
G1 X95.417 Y94.243 E9.04185
G1 X93.872 Y95.827 E9.11545
G1 X92.501 Y97.561 E9.18897
G1 X91.315 Y99.425 E9.26245
G1 X90.326 Y101.403 E9.33601
G1 X89.544 Y103.485 E9.40998
G1 X88.984 Y105.609 E9.48304
G1 X88.643 Y107.795 E9.55662
G1 X88.529 Y110.002 E9.63013
G1 X88.643 Y112.205 E9.7035
G1 X88.984 Y114.39 E9.77705
G1 X89.544 Y116.515 E9.85014
G1 X90.326 Y118.597 E9.92411
G1 X91.314 Y120.574 E9.99762
G1 X92.501 Y122.439 E10.07115
G1 X93.872 Y124.173 E10.14467
G1 X95.417 Y125.757 E10.21827
G1 X97.112 Y127.173 E10.29173
G1 X98.947 Y128.405 E10.36524
G1 X100.9 Y129.445 E10.43883
G1 X102.961 Y130.281 E10.5128
G1 X105.07 Y130.896 E10.58587
G1 X107.245 Y131.293 E10.65941
G1 X109.449 Y131.463 E10.73293
G0 F6000 X109.439 Y131.863
;TYPE:WALL-OUTER
G1 F1200 X111.687 Y131.806 E10.80772
G1 X113.919 Y131.517 E10.88258
G1 X116.099 Y131.001 E10.95709
G1 X118.237 Y130.259 E11.03236
G1 X120.278 Y129.304 E11.10731
G1 X122.207 Y128.145 E11.18216
G1 X124.006 Y126.799 E11.25689
G1 X125.665 Y125.264 E11.33206
G1 X127.15 Y123.573 E11.40691
G1 X128.455 Y121.738 E11.48181
G1 X129.563 Y119.778 E11.55669
G1 X130.466 Y117.715 E11.63159
G1 X131.156 Y115.557 E11.70695
G1 X131.611 Y113.365 E11.78141
G1 X131.842 Y111.124 E11.85634
G1 X131.867 Y110.147 E11.88884
G1 X131.871 Y110 E11.89373
G1 X131.842 Y108.878 E11.93106
G1 X131.611 Y106.633 E12.00613
G1 X131.153 Y104.443 E12.08054
G1 X130.466 Y102.283 E12.15593
G1 X129.563 Y100.222 E12.23077
G1 X128.454 Y98.26 E12.30573
G1 X127.148 Y96.425 E12.38064
G1 X125.663 Y94.734 E12.45549
G1 X124.006 Y93.201 E12.53058
G1 X122.207 Y91.855 E12.6053
G1 X120.278 Y90.696 E12.68015
G1 X118.237 Y89.741 E12.7551
G1 X116.099 Y88.999 E12.83037
G1 X113.919 Y88.484 E12.90487
G1 X111.687 Y88.194 E12.97973
G1 X109.439 Y88.137 E13.05453
G1 X107.193 Y88.31 E13.12945
G1 X104.978 Y88.714 E13.20434
G1 X102.829 Y89.341 E13.27879
G1 X100.73 Y90.192 E13.35413
G1 X98.741 Y91.251 E13.42907
G1 X96.872 Y92.507 E13.50397
G1 X95.145 Y93.949 E13.5788
G1 X93.571 Y95.563 E13.65378
G1 X92.175 Y97.329 E13.72866
G1 X90.967 Y99.227 E13.80348
G1 X89.959 Y101.243 E13.87845
G1 X89.162 Y103.363 E13.95378
G1 X88.592 Y105.527 E14.02821
G1 X88.245 Y107.754 E14.10318
G1 X88.129 Y110.002 E14.17804
G1 X88.245 Y112.246 E14.25278
G1 X88.592 Y114.472 E14.32771
G1 X89.162 Y116.637 E14.40217
G1 X89.959 Y118.757 E14.4775
G1 X90.966 Y120.772 E14.55242
G1 X92.175 Y122.671 E14.6273
G1 X93.571 Y124.437 E14.70217
G1 X95.145 Y126.051 E14.77715
G1 X96.872 Y127.493 E14.85199
G1 X98.741 Y128.749 E14.92688
G1 X100.73 Y129.808 E15.00183
G1 X102.829 Y130.659 E15.07716
G1 X104.978 Y131.286 E15.15162
G1 X107.193 Y131.69 E15.2265
G1 X109.439 Y131.863 E15.30143
G1 F1500 E8.80143
G0 F6000 X109.445 Y131.564
G0 X111.67 Y131.588
G0 X119.622 Y106.842
G0 X120.121 Y106.805
;TYPE:WALL-INNER
G1 F1500 E15.30143
G1 F1200 X119.626 Y106.654 E15.31864
G1 X119.158 Y106.419 E15.33606
G1 X118.733 Y106.104 E15.35365
G1 X118.368 Y105.727 E15.37111
G1 X118.072 Y105.288 E15.38872
G1 X117.856 Y104.807 E15.40625
G1 X117.725 Y104.306 E15.42348
G1 X117.68 Y103.777 E15.44113
G1 X117.724 Y103.244 E15.45892
G1 X117.86 Y102.738 E15.47635
G1 X117.885 Y102.678 E15.47851
G1 X118.09 Y102.235 E15.49475
G1 X118.381 Y101.811 E15.51185
G1 X118.731 Y101.446 E15.52867
G1 X119.141 Y101.145 E15.54559
G1 X119.629 Y100.894 E15.56384
G1 X120.145 Y100.741 E15.58174
G1 X120.648 Y100.675 E15.59861
G1 X121.176 Y100.697 E15.61619
G1 X121.697 Y100.814 E15.63395
G1 X122.173 Y101.001 E15.65096
G1 X122.601 Y101.264 E15.66767
G1 X123.023 Y101.627 E15.68618
G1 X123.349 Y102.034 E15.70353
G1 X123.609 Y102.494 E15.7211
G1 X123.785 Y103 E15.73892
G1 X123.873 Y103.506 E15.756
G1 X123.874 Y104.028 E15.77336
G1 X123.783 Y104.555 E15.79115
G1 X123.608 Y105.056 E15.8088
G1 X123.355 Y105.508 E15.82603
G1 X123.028 Y105.913 E15.84334
G1 X122.644 Y106.255 E15.86045
G1 X122.178 Y106.547 E15.87874
G1 X121.68 Y106.742 E15.89652
G1 X121.175 Y106.853 E15.91372
G1 X120.66 Y106.875 E15.93087
G1 X120.121 Y106.805 E15.94894
G0 F6000 X120.209 Y106.415
;TYPE:WALL-OUTER
G1 F1200 X119.793 Y106.287 E15.96342
G1 X119.357 Y106.068 E15.97965
G1 X118.985 Y105.789 E15.99511
G1 X118.69 Y105.484 E16.00923
G1 X118.416 Y105.077 E16.02555
G1 X118.231 Y104.658 E16.04078
G1 X118.118 Y104.217 E16.05592
G1 X118.082 Y103.76 E16.07117
G1 X118.118 Y103.332 E16.08545
G1 X118.236 Y102.874 E16.10119
G1 X118.25 Y102.842 E16.10235
G1 X118.423 Y102.458 E16.11635
G1 X118.683 Y102.073 E16.13181
G1 X118.995 Y101.751 E16.14672
G1 X119.359 Y101.48 E16.16181
G1 X119.792 Y101.263 E16.17792
G1 X120.186 Y101.141 E16.19164
G1 X120.652 Y101.078 E16.20728
G1 X121.14 Y101.099 E16.22353
G1 X121.567 Y101.192 E16.23806
G1 X121.98 Y101.355 E16.25283
G1 X122.401 Y101.613 E16.26925
G1 X122.721 Y101.895 E16.28344
G1 X123.027 Y102.275 E16.29967
G1 X123.234 Y102.643 E16.31371
G1 X123.396 Y103.095 E16.32968
G1 X123.47 Y103.523 E16.34412
G1 X123.474 Y103.98 E16.35933
G1 X123.4 Y104.438 E16.37476
G1 X123.234 Y104.905 E16.39124
G1 X123.029 Y105.271 E16.40519
G1 X122.735 Y105.641 E16.42091
G1 X122.394 Y105.942 E16.43604
G1 X121.98 Y106.195 E16.45218
G1 X121.561 Y106.36 E16.46715
G1 X121.14 Y106.451 E16.48148
G1 X120.661 Y106.472 E16.49743
G1 X120.209 Y106.415 E16.51258
G0 F6000 X120.028 Y107.152
;TYPE:SKIN
G1 F1215.2 X119.471 Y106.98 E16.53173
G1 F1200 X118.95 Y106.714 E16.55118
G1 X118.475 Y106.357 E16.57095
G1 X118.097 Y105.965 E16.58906
G1 X117.766 Y105.482 E16.60853
G1 X117.512 Y104.916 E16.62917
G1 X117.366 Y104.347 E16.64871
G1 X117.318 Y103.798 E16.66703
G1 X117.367 Y103.187 E16.68742
G1 X117.517 Y102.631 E16.70658
G1 X117.756 Y102.087 E16.72634
G1 X118.069 Y101.618 E16.74509
G1 X118.483 Y101.185 E16.76502
G1 X118.943 Y100.842 E16.7841
G1 X119.481 Y100.568 E16.80418
G1 X120.056 Y100.387 E16.82423
G1 X120.625 Y100.315 E16.84331
G1 X121.237 Y100.342 E16.86368
G1 X121.782 Y100.461 E16.88224
G1 X122.351 Y100.686 E16.90259
G1 X122.845 Y100.993 E16.92193
G1 X123.295 Y101.392 E16.94194
G1 X123.664 Y101.855 E16.96163
G1 X123.928 Y102.326 E16.97959
G1 X124.135 Y102.913 E17.00029
G1 X124.233 Y103.484 E17.01956
G1 X124.232 Y104.08 E17.03938
G1 X124.137 Y104.63 E17.05795
G1 X123.927 Y105.229 E17.07906
G1 X123.634 Y105.741 E17.09868
G1 X123.295 Y106.157 E17.11653
G1 X122.867 Y106.537 E17.13556
G1 X122.325 Y106.876 E17.15683
G1 X121.805 Y107.081 E17.17542
G1 X121.226 Y107.21 E17.19515
G1 F1203 X120.672 Y107.235 E17.21354
G1 F1230.8 X120.197 Y107.172 E17.22908
G1 F1243.5 X120.028 Y107.152 E17.23455
G1 F1500 E10.73455
G0 F6000 X119.995 Y106.874
G0 X118.665 Y106.279
G0 X101.222 Y106.372
G0 X99.076 Y107.236
G1 F1500 E17.23455
G1 F1200 X98.478 Y107.158 E17.2546
G1 X97.932 Y106.99 E17.2736
G1 X97.411 Y106.729 E17.29298
G1 X96.922 Y106.368 E17.3132
G1 X96.532 Y105.964 E17.33188
G1 X96.186 Y105.451 E17.35246
G1 X95.945 Y104.905 E17.37231
G1 X95.802 Y104.347 E17.39147
G1 X95.754 Y103.757 E17.41116
G1 X95.807 Y103.188 E17.43016
G1 X95.95 Y102.641 E17.44897
G1 X96.184 Y102.101 E17.46854
G1 X96.506 Y101.616 E17.4879
G1 X96.94 Y101.165 E17.50872
G1 X97.388 Y100.835 E17.52723
G1 X97.961 Y100.546 E17.54857
G1 X98.468 Y100.392 E17.5662
G1 X99.062 Y100.315 E17.58612
G1 X99.668 Y100.341 E17.60629
G1 X100.208 Y100.457 E17.62466
G1 X100.794 Y100.693 E17.64567
