;FLAVOR:Marlin
;TIME:1025
;Filament used: 0.522504m
;Layer height: 0.2
;MINX:90.539
;MINY:90.554
;MINZ:0.24
;MAXX:129.455
;MAXY:129.452
;MAXZ:18.09
;Generated with Cura_SteamEngine main
M82 ;absolute extrusion mode
; Ender 3 Custom Start G-code
G92 E0 ; Reset Extruder
G28 ; Home all axes
M104 S175 ; Start heating up the nozzle most of the way
M190 S60 ; Start heating the bed, wait until target temperature reached
M109 S200 ; Finish heating the nozzle
G1 Z2.0 F3000 ; Move Z Axis up little to prevent scratching of Heat Bed
G1 X0.1 Y20 Z0.3 F5000.0 ; Move to start position
G1 X0.1 Y200.0 Z0.3 F1500.0 E15 ; Draw the first line
G1 X0.4 Y200.0 Z0.3 F5000.0 ; Move to side a little
G1 X0.4 Y20 Z0.3 F1500.0 E30 ; Draw the second line
G92 E0 ; Reset Extruder
G1 Z2.0 F3000 ; Move Z Axis up little to prevent scratching of Heat Bed
G1 X5 Y20 Z0.3 F5000.0 ; Move over to prevent blob squish
G92 E0
G92 E0
G1 F1500 E-6.5
;LAYER_COUNT:85
;LAYER:-6
M107
G0 F9000 X95.904 Y98.181 Z0.24
;TYPE:SUPPORT-INTERFACE
G1 F1500 E0
G1 F1125 X95.241 Y99.028 E0.08586
G1 X94.947 Y99.436 E0.126
G1 X94.41 Y100.229 E0.20245
G1 X93.894 Y101.124 E0.28492
G1 X93.608 Y101.663 E0.33363
G1 X93.184 Y102.545 E0.41174
G1 X92.833 Y103.402 E0.48567
G1 X92.652 Y103.891 E0.52729
G1 X92.351 Y104.813 E0.60471
G1 X92.058 Y105.961 E0.69929
G1 X91.975 Y106.347 E0.7308
G1 X91.787 Y107.393 E0.81564
G1 X91.679 Y108.401 E0.89656
G1 X91.637 Y108.975 E0.9425
G1 X91.604 Y109.874 E1.01431
G1 X91.634 Y110.947 E1.1
G1 X91.673 Y111.541 E1.14752
G1 X91.772 Y112.502 E1.22463
G1 X91.95 Y113.527 E1.30768
G1 X92.058 Y114.038 E1.34937
G1 X92.285 Y114.959 E1.42509
G1 X92.622 Y116.026 E1.51441
G1 X92.8 Y116.518 E1.55617
G1 X93.13 Y117.337 E1.62666
G1 X93.612 Y118.346 E1.71592
G1 X93.861 Y118.822 E1.7588
G1 X94.333 Y119.645 E1.83453
G1 X94.961 Y120.59 E1.9251
G1 X95.274 Y121.021 E1.96762
G1 X95.82 Y121.723 E2.03861
G1 X96.629 Y122.63 E2.13563
G1 X97.007 Y123.017 E2.17881
G1 X97.593 Y123.585 E2.24396
G1 X98.439 Y124.305 E2.33263
G1 X98.887 Y124.656 E2.37806
G1 X99.616 Y125.188 E2.4501
G1 X100.532 Y125.766 E2.53656
G1 X101.005 Y126.046 E2.58044
G1 X101.908 Y126.527 E2.66211
G1 X102.837 Y126.939 E2.74323
G1 X103.391 Y127.165 E2.79099
G1 X104.209 Y127.464 E2.86051
G1 X105.261 Y127.77 E2.94797
G1 X105.797 Y127.905 E2.99209
G1 X106.812 Y128.119 E3.07489
G1 X107.773 Y128.257 E3.15239
G1 X108.298 Y128.314 E3.19455
G1 X109.32 Y128.389 E3.27635
G1 X110.372 Y128.389 E3.36032
G1 X110.883 Y128.371 E3.40114
G1 X111.864 Y128.305 E3.47962
G1 X112.995 Y128.146 E3.57079
G1 X113.386 Y128.078 E3.60247
G1 X114.402 Y127.867 E3.6853
G1 X115.461 Y127.565 E3.77321
G1 X115.953 Y127.405 E3.8145
G1 X116.908 Y127.051 E3.89581
G1 X117.853 Y126.632 E3.97832
G1 X118.241 Y126.442 E4.01281
G1 X119.197 Y125.934 E4.09923
G1 X120.087 Y125.381 E4.18287
G1 X120.526 Y125.083 E4.22522
G1 X121.309 Y124.516 E4.30239
G1 X122.065 Y123.882 E4.38115
G1 X122.474 Y123.517 E4.42491
G1 X123.18 Y122.839 E4.50304
G1 X123.848 Y122.102 E4.58244
G1 X124.202 Y121.687 E4.62598
G1 X124.857 Y120.855 E4.71051
G1 X125.421 Y120.02 E4.79094
G1 X125.729 Y119.531 E4.83707
G1 X126.239 Y118.645 E4.91868
G1 X126.657 Y117.796 E4.99422
G1 X126.872 Y117.32 E5.03591
G1 X127.262 Y116.374 E5.11759
G1 X127.585 Y115.387 E5.20049
G1 X127.747 Y114.826 E5.2471
G1 X127.959 Y113.989 E5.31602
G1 X128.179 Y112.782 E5.41396
G1 X128.248 Y112.273 E5.45496
G1 X128.39 Y110.668 E5.58358
G1 X128.39 Y109.688 E5.66181
G1 X128.39 Y109.506 E5.67633
G1 X128.374 Y109.167 E5.70342
G1 X128.238 Y107.638 E5.82596
G1 X128.162 Y107.115 E5.86814
G1 X128.023 Y106.31 E5.93335
G1 X127.76 Y105.222 E6.0227
G1 X127.61 Y104.689 E6.0669
G1 X127.327 Y103.815 E6.14024
G1 X126.916 Y102.782 E6.22898
G1 X126.69 Y102.271 E6.27358
G1 X126.259 Y101.39 E6.35187
G1 X125.683 Y100.394 E6.44371
G1 X125.432 Y99.997 E6.48121
G1 X124.965 Y99.3 E6.54818
G1 X124.281 Y98.413 E6.63759
G1 X123.929 Y97.99 E6.68152
G1 X123.198 Y97.185 E6.76832
G1 X122.45 Y96.463 E6.8513
G1 X122.074 Y96.127 E6.89155
G1 X121.354 Y95.522 E6.96662
G1 X120.501 Y94.901 E7.05085
G1 X120.09 Y94.625 E7.09037
G1 X119.157 Y94.046 E7.17802
G1 X118.265 Y93.571 E7.25869
G1 X117.845 Y93.366 E7.29599
G1 X116.91 Y92.951 E7.37765
G1 X116.006 Y92.619 E7.45453
G1 X115.488 Y92.449 E7.49804
G1 X114.488 Y92.158 E7.58118
G1 X113.403 Y91.927 E7.66973
G1 X113.003 Y91.857 E7.70215
G1 X111.988 Y91.709 E7.78402
G1 X110.898 Y91.631 E7.87126
G1 X110.424 Y91.614 E7.90912
G1 X109.407 Y91.612 E7.9903
G1 X108.338 Y91.684 E8.07582
G1 X107.854 Y91.735 E8.11467
G1 X106.959 Y91.858 E8.18679
G1 X105.843 Y92.087 E8.27773
G1 X105.328 Y92.213 E8.32005
G1 X104.323 Y92.502 E8.40352
G1 X103.336 Y92.86 E8.48733
G1 X102.942 Y93.019 E8.52125
G1 X102.092 Y93.391 E8.59531
G1 X101.044 Y93.938 E8.68968
G1 X100.585 Y94.202 E8.73194
G1 X99.775 Y94.704 E8.80801
G1 X98.866 Y95.362 E8.89759
G1 X98.477 Y95.666 E8.937
G1 X97.778 Y96.252 E9.00981
G1 X97.001 Y96.993 E9.09551
G1 X96.579 Y97.426 E9.14378
G1 X95.904 Y98.181 E9.22462
G0 F9000 X96.194 Y98.457
G1 F1125 X121.537 Y123.8 E12.08556
G0 F9000 X122.722 Y122.722
G1 F1125 X97.278 Y97.278 E14.9579
G0 F9000 X98.462 Y96.199
G1 F1125 X123.802 Y121.539 E17.81849
G0 F9000 X124.78 Y120.254
G1 F1125 X99.744 Y95.218 E20.64477
G0 F9000 X101.135 Y94.347
G1 F1125 X125.651 Y118.863 E23.41235
G0 F9000 X126.413 Y117.362
G1 F1125 X102.639 Y93.588 E26.09617
G0 F9000 X104.263 Y92.949
G1 F1125 X127.049 Y115.735 E28.66845
G0 F9000 X127.55 Y113.973
G1 F1125 X106.032 Y92.456 E31.09753
G0 F9000 X107.964 Y92.125
G1 F1125 X127.867 Y112.028 E33.34435
G0 F9000 X127.989 Y109.887
G1 F1125 X110.115 Y92.013 E35.36212
G0 F9000 X112.562 Y92.197
G1 F1125 X127.805 Y107.44 E37.08288
G0 F9000 X127.127 Y104.5
G1 F1125 X115.503 Y92.875 E38.39516
G1 F1500 E31.89516
G0 F9000 X116.358 Y91.614
G0 X118.297 Y92.401
G0 X119.179 Y92.863
G0 X120.595 Y93.682
G0 X119.817 Y94.926
G1 F1500 E38.39516
G1 F1125 X125.079 Y100.189 E38.98923
G1 F1500 E32.48923
G0 F9000 X126.592 Y99.84
G0 X127.656 Y101.824
G0 X128.331 Y103.464
G0 X129.031 Y105.922
G0 X129.315 Y107.692
G0 X129.455 Y109.489
G0 X129.435 Y110.957
G0 X129.208 Y113.09
G0 X128.769 Y115.129
G0 X128.223 Y116.834
G0 X127.185 Y119.135
G0 X126.312 Y120.606
G0 X125.025 Y122.362
G0 X123.868 Y123.655
G0 X122.392 Y124.978
G0 X121.139 Y125.953
G0 X120.255 Y124.781
G1 F1500 E38.98923
G1 F1125 X95.219 Y99.745 E41.81551
G0 F9000 X94.347 Y101.136
G1 F1125 X118.866 Y125.654 E44.58337
G0 F9000 X117.359 Y126.41
G1 F1125 X93.584 Y102.635 E47.2673
G0 F9000 X92.95 Y104.264
G1 F1125 X115.739 Y127.052 E49.83987
G0 F9000 X113.97 Y127.547
G1 F1125 X92.452 Y106.029 E52.269
G0 F9000 X92.126 Y107.966
G1 F1125 X112.036 Y127.876 E54.51662
G0 F9000 X109.886 Y127.988
G1 F1125 X92.01 Y110.112 E56.53461
G0 F9000 X92.185 Y112.55
G1 F1125 X107.439 Y127.804 E58.25662
G0 F9000 X104.505 Y127.132
G1 F1125 X92.876 Y115.503 E59.5694
G1 F1500 E53.0694
G0 F9000 X91.615 Y116.369
G0 X92.237 Y117.951
G0 X93.422 Y120.197
G0 X94.929 Y119.819
M104 S200
G1 F1500 E59.5694
G1 F1125 X100.178 Y125.068 E60.16195
G1 F1500 E53.66195
G0 F300 X100.178 Y125.068 Z0.54
G0 F9000 X99.399 Y126.315
G0 X101.533 Y127.525
G0 X104.02 Y128.522
G0 X106.47 Y129.14
G0 X108.25 Y129.379
G0 X110.444 Y129.452
G0 X112.103 Y129.347
G0 X114.548 Y128.923
G0 X116.305 Y128.408
G0 X118.308 Y127.596
G0 X119.735 Y126.853
G0 X121.849 Y125.44
G0 X123.252 Y124.245
G0 X124.77 Y122.665
G0 X125.582 Y121.641
G0 X126.64 Y120.086
G0 X125.461 Y119.196
;TIME_ELAPSED:51.388663
;LAYER:-5
;TYPE:SUPPORT
G1 F1500 E60.16195
G1 F1125 X119.204 Y125.454 E61.04495
G1 X119.87 Y125.044 E61.12299
G1 X120.302 Y124.749 E61.17519
G1 X121.055 Y124.206 E61.26782
G1 X121.802 Y123.578 E61.36519
G1 X122.2 Y123.223 E61.41841
G1 X122.839 Y122.611 E61.50669
G1 X123.542 Y121.843 E61.61058
G1 X123.901 Y121.422 E61.66579
G1 X124.537 Y120.615 E61.76831
G1 X125.082 Y119.807 E61.86556
G1 X125.394 Y119.314 E61.92378
G1 X125.82 Y118.579 E62.00854
G1 X126.345 Y117.519 E62.12657
G1 X126.537 Y117.087 E62.17374
G1 X126.798 Y116.446 E62.2428
G1 X116.446 Y126.798 E63.70358
G1 X115.812 Y127.029 E63.77091
G1 X115.352 Y127.178 E63.81916
G1 X114.373 Y127.457 E63.92073
G1 X127.446 Y114.384 E65.76547
G1 X127.569 Y113.892 E65.81607
G1 X127.797 Y112.618 E65.94521
G1 X112.62 Y127.796 E68.08692
G1 X111.824 Y127.907 E68.16712
G1 X111.041 Y127.96 E68.24542
G1 X127.965 Y111.036 E70.63358
G1 X127.989 Y110.529 E70.68423
G1 X127.989 Y109.598 E70.77712
G1 X109.599 Y127.988 E73.37215
G1 X109.337 Y127.987 E73.39829
G1 X108.265 Y127.907 E73.50556
G1 X127.892 Y108.28 E76.27514
G1 X127.841 Y107.693 E76.33393
G1 X127.738 Y107.021 E76.40176
G1 X107.007 Y127.752 E79.32713
G1 X105.84 Y127.504 E79.44618
G1 X127.501 Y105.843 E82.50278
G1 X127.373 Y105.325 E82.55602
G1 X127.2 Y104.73 E82.61785
G1 X104.728 Y127.202 E85.78889
G1 X104.46 Y127.124 E85.81674
G1 X103.674 Y126.842 E85.90006
G1 X126.839 Y103.677 E89.16889
G1 X126.543 Y102.931 E89.24898
G1 X126.428 Y102.674 E89.27707
G1 X102.674 Y126.427 E92.62894
G1 X102.016 Y126.13 E92.70098
G1 X101.717 Y125.971 E92.73477
G1 X125.972 Y101.715 E96.15748
G1 X125.462 Y100.811 E96.26105
G1 X100.807 Y125.466 E99.74013
G1 X99.937 Y124.922 E99.84252
G1 X124.914 Y99.945 E103.36704
G1 X124.633 Y99.525 E103.41746
G1 X124.322 Y99.123 E103.46818
G1 X99.117 Y124.328 E107.02488
G1 X98.692 Y123.994 E107.07881
G1 X98.338 Y123.693 E107.12518
G1 X123.695 Y98.335 E110.70339
G1 X123.025 Y97.591 E110.80329
G1 X97.591 Y123.025 E114.39231
G1 X97.287 Y122.73 E114.43457
G1 X96.886 Y122.316 E114.49208
G1 X122.316 Y96.886 E118.08053
G1 X121.804 Y96.421 E118.14954
G1 X121.567 Y96.221 E118.18049
G1 X96.216 Y121.572 E121.75779
G1 X95.593 Y120.78 E121.85833
G1 X120.778 Y95.595 E125.41221
G1 X120.289 Y95.24 E125.4725
G1 X119.949 Y95.011 E125.51341
G1 X95.012 Y119.947 E129.03221
G1 X94.76 Y119.573 E129.07721
G1 X94.47 Y119.075 E129.13472
G1 X119.086 Y94.459 E132.6083
G1 X118.163 Y93.968 E132.71262
G1 X93.967 Y118.164 E136.12693
G1 X93.51 Y117.207 E136.23275
G1 X117.202 Y93.515 E139.57595
G1 X116.886 Y93.373 E139.61052
G1 X116.19 Y93.113 E139.68465
G1 X93.109 Y116.193 E142.94156
G1 X93.002 Y115.898 E142.97287
G1 X92.755 Y115.133 E143.05308
G1 X115.129 Y92.759 E146.2103
G1 X114.392 Y92.545 E146.28687
G1 X114.011 Y92.464 E146.32574
G1 X92.462 Y114.012 E149.36646
G1 X92.341 Y113.445 E149.42431
G1 X92.236 Y112.824 E149.48716
G1 X112.827 Y92.233 E152.39277
G1 X111.945 Y92.107 E152.48167
G1 X111.567 Y92.079 E152.51949
G1 X92.078 Y111.568 E155.2696
G1 X92.034 Y110.94 E155.33241
G1 X92.012 Y110.219 E155.40439
G1 X110.218 Y92.013 E157.97345
G1 X109.419 Y92.01 E158.05318
G1 X108.763 Y92.054 E158.11878
G1 X92.053 Y108.764 E160.47674
G1 X92.076 Y108.45 E160.50816
G1 X92.173 Y107.526 E160.60086
G1 X92.236 Y107.167 E160.63723
G1 X107.173 Y92.23 E162.745
G1 X106.935 Y92.263 E162.76898
G1 X105.929 Y92.474 E162.87154
G1 X105.377 Y92.612 E162.92831
G1 X92.62 Y105.369 E164.72846
G1 X92.737 Y104.908 E164.77592
G1 X92.997 Y104.115 E164.85919
G1 X93.206 Y103.543 E164.91996
G1 X93.327 Y103.248 E164.95177
G1 X103.25 Y93.325 E166.35201
G1 X102.257 Y93.755 E166.45999
G1 X101.236 Y94.287 E166.57486
G1 X100.8 Y94.539 E166.62511
G1 X100.334 Y94.827 E166.67977
G1 X94.803 Y100.357 E167.46018
G1 X95.27 Y99.67 E167.54307
G1 X95.64 Y99.16 E167.60594
G1 X96.199 Y98.449 E167.69619
G1 X96.87 Y97.698 E167.79668
G1 X97.283 Y97.273 E167.85581
G1 X98.023 Y96.566 E167.95793
G1 X98.718 Y95.984 E168.04838
G1 X99.109 Y95.678 E168.09792
G1 X100.052 Y95.001 E168.21375
G1 F1500 E161.71375
G0 F300 X100.052 Y95.001 Z0.74
G0 F9000 X99.282 Y93.756
G0 X101.477 Y92.506
G0 X103.078 Y91.82
G0 X105.058 Y91.182
G0 X106.787 Y90.807
G0 X109.27 Y90.554
G0 X111.008 Y90.572
G0 X113.174 Y90.805
G0 X114.872 Y91.16
G0 X117.298 Y91.96
G0 X118.806 Y92.652
G0 X120.673 Y93.732
G0 X122.113 Y94.768
G0 X123.956 Y96.437
G0 X124.283 Y96.808
G0 X125.728 Y98.539
G0 X124.633 Y99.525
;TIME_ELAPSED:111.392112
;LAYER:-4
;TYPE:SUPPORT-INTERFACE
G1 F1500 E168.21375
G1 X123.959 Y98.652 E168.25043
G1 X123.627 Y98.253 E168.2677
G1 X122.904 Y97.456 E168.30349
G1 X122.261 Y96.834 E168.33324
G1 X121.804 Y96.421 E168.35373
G1 X121.105 Y95.833 E168.38411
G1 X120.289 Y95.24 E168.41766
G1 X119.811 Y94.921 E168.43677
G1 X125.077 Y100.187 E168.68447
G1 X125.41 Y100.719 E168.70534
G1 X125.896 Y101.571 E168.73797
G1 X118.441 Y94.117 E169.08861
G1 X118.086 Y93.928 E169.10198
G1 X117.663 Y93.723 E169.11762
G1 X117.334 Y93.575 E169.12961
G1 X126.426 Y102.667 E169.55727
G1 X126.543 Y102.931 E169.56688
G1 X126.821 Y103.627 E169.59181
G1 X116.376 Y93.183 E170.08308
G1 X115.868 Y92.993 E170.10112
G1 X115.5 Y92.872 E170.11401
G1 X127.126 Y104.499 E170.66088
G1 X127.221 Y104.793 E170.67116
G1 X127.368 Y105.306 E170.68891
G1 X114.695 Y92.633 E171.28501
G1 X114.392 Y92.545 E171.2955
G1 X113.947 Y92.451 E171.31063
G1 X127.569 Y106.073 E171.95137
G1 X127.692 Y106.762 E171.97464
G1 X113.233 Y92.302 E172.65477
G1 X112.935 Y92.249 E172.66484
G1 X112.56 Y92.196 E172.67744
G1 X127.805 Y107.44 E173.39449
G1 X127.841 Y107.693 E173.40299
G1 X127.876 Y108.077 E173.41582
G1 X111.903 Y92.104 E174.16714
G1 X111.293 Y92.06 E174.18748
G1 X127.931 Y108.697 E174.97006
G1 X127.98 Y109.313 E174.99061
G1 X110.692 Y92.024 E175.80381
G1 X110.115 Y92.013 E175.823
G1 X127.989 Y109.887 E176.66374
G1 X127.989 Y110.453 E176.68257
G1 X109.538 Y92.002 E177.55044
G1 X109.009 Y92.039 E177.56808
G1 X127.962 Y110.991 E178.45955
G1 X127.915 Y111.51 E178.47688
G1 X108.479 Y92.074 E179.39109
G1 X107.963 Y92.124 E179.40833
G1 X127.876 Y112.037 E180.34498
G1 X127.809 Y112.536 E180.36173
G1 X107.464 Y92.191 E181.31869
G1 X106.967 Y92.259 E181.33538
G1 X127.728 Y113.021 E182.31193
G1 X127.641 Y113.499 E182.32809
G1 X106.498 Y92.355 E183.32262
G1 X106.03 Y92.454 E183.33853
G1 X127.55 Y113.973 E184.35074
G1 X127.436 Y114.425 E184.36625
G1 X105.573 Y92.562 E185.39461
G1 X105.129 Y92.684 E185.40993
G1 X127.318 Y114.873 E186.45363
G1 X127.189 Y115.31 E186.46879
G1 X104.691 Y92.812 E187.52702
G1 X104.25 Y92.937 E187.54227
G1 X127.049 Y115.735 E188.61464
G1 X126.91 Y116.162 E188.62958
G1 X103.847 Y93.099 E189.71439
G1 X103.434 Y93.251 E189.72903
G1 X126.749 Y116.567 E190.82571
G1 X126.586 Y116.969 E190.84014
G1 X103.032 Y93.415 E191.94805
G1 X102.639 Y93.588 E191.96233
G1 X126.415 Y117.364 E193.08068
G1 X126.232 Y117.747 E193.0948
G1 X102.246 Y93.761 E194.22303
G1 X101.874 Y93.955 E194.23698
G1 X126.045 Y118.125 E195.37389
G1 X125.857 Y118.504 E195.38796
G1 X101.503 Y94.149 E196.53352
G1 X101.134 Y94.346 E196.54743
G1 X125.654 Y118.866 E197.70078
G1 X125.447 Y119.224 E197.71453
G1 X100.776 Y94.554 E198.87496
G1 X100.427 Y94.77 E198.88861
G1 X125.23 Y119.573 E200.05527
G1 X125.009 Y119.918 E200.06889
G1 X100.077 Y94.986 E201.24162
G1 X99.747 Y95.221 E201.25509
G1 X124.781 Y120.255 E202.43262
G1 X124.552 Y120.592 E202.44617
G1 X99.417 Y95.458 E203.62842
G1 X99.088 Y95.694 E203.64188
G1 X124.305 Y120.911 E204.82801
G1 X124.055 Y121.227 E204.84142
G1 X98.772 Y95.943 E206.03067
G1 X98.462 Y96.199 E206.04405
G1 X123.802 Y121.539 E207.23596
G1 X123.542 Y121.845 E207.24932
G1 X98.154 Y96.457 E208.44349
G1 X97.857 Y96.725 E208.4568
G1 X123.271 Y122.139 E209.65219
G1 X123.001 Y122.435 E209.66552
G1 X97.568 Y97.002 E210.86181
G1 X97.278 Y97.278 E210.87512
G1 X122.722 Y122.722 E212.07193
G1 X122.433 Y122.999 E212.08525
G1 X96.999 Y97.565 E213.28158
G1 X96.726 Y97.857 E213.29488
G1 X122.142 Y123.274 E214.49039
G1 X121.844 Y123.541 E214.5037
G1 X96.459 Y98.157 E215.69771
G1 X96.193 Y98.456 E215.71102
G1 X121.538 Y123.8 E216.90315
G1 X121.23 Y124.059 E216.91653
G1 X95.944 Y98.772 E218.10593
G1 X95.695 Y99.089 E218.11934
G1 X120.914 Y124.308 E219.30556
G1 X120.585 Y124.545 E219.31905
G1 X95.455 Y99.414 E220.50111
G1 X95.218 Y99.744 E220.51463
G1 X120.255 Y124.781 E221.69229
G1 X119.919 Y125.01 E221.70581
G1 X94.99 Y100.081 E222.8784
G1 X94.761 Y100.418 E222.89195
G1 X119.571 Y125.227 E224.05891
G1 X119.221 Y125.443 E224.07259
G1 X94.553 Y100.776 E225.23287
G1 X94.347 Y101.135 E225.24664
G1 X118.87 Y125.658 E226.40013
G1 X118.5 Y125.854 E226.41405
G1 X94.145 Y101.499 E227.55964
G1 X93.951 Y101.87 E227.57356
G1 X118.129 Y126.049 E228.71085
