;FLAVOR:Marlin
;TIME:21580
;Filament used: 13.6167m
;Layer height: 0.2
;MINX:19.023
;MINY:69.728
;MINZ:0.24
;MAXX:203.116
;MAXY:147.754
;MAXZ:48.09
;Generated with Cura_SteamEngine main
M82 ;absolute extrusion mode
; Ender 3 Custom Start G-code
G92 E0 ; Reset Extruder
G28 ; Home all axes
M104 S175 ; Start heating up the nozzle most of the way
M190 S60 ; Start heating the bed, wait until target temperature reached
M109 S200 ; Finish heating the nozzle
G1 Z2.0 F3000 ; Move Z Axis up little to prevent scratching of Heat Bed
G1 X0.1 Y20 Z0.3 F5000.0 ; Move to start position
G1 X0.1 Y200.0 Z0.3 F1500.0 E15 ; Draw the first line
G1 X0.4 Y200.0 Z0.3 F5000.0 ; Move to side a little
G1 X0.4 Y20 Z0.3 F1500.0 E30 ; Draw the second line
G92 E0 ; Reset Extruder
G1 Z2.0 F3000 ; Move Z Axis up little to prevent scratching of Heat Bed
G1 X5 Y20 Z0.3 F5000.0 ; Move over to prevent blob squish
G92 E0
G92 E0
G1 F1500 E-6.5
;LAYER_COUNT:235
;LAYER:-6
M107
G0 F9000 X28.003 Y80.401 Z0.24
;TYPE:SUPPORT-INTERFACE
G1 F1500 E0
G1 F1125 X27.157 Y80.877 E0.07749
G1 X26.25 Y81.47 E0.16399
G1 X25.346 Y82.162 E0.25486
G1 X24.546 Y82.881 E0.34073
G1 X23.806 Y83.646 E0.42569
G1 X23.07 Y84.544 E0.51837
G1 X22.504 Y85.338 E0.5962
G1 X21.95 Y86.246 E0.68111
G1 X21.43 Y87.272 E0.77293
G1 X21.046 Y88.179 E0.85155
G1 X20.706 Y89.183 E0.93616
G1 X20.422 Y90.287 E1.02716
G1 X20.244 Y91.257 E1.10588
G1 X20.127 Y92.312 E1.19061
G1 X20.088 Y93.392 E1.27688
G1 X20.089 Y98.433 E1.67927
G1 X20.096 Y98.827 E1.71073
G1 X20.177 Y99.986 E1.80347
G1 X20.321 Y100.958 E1.88191
G1 X20.566 Y102.078 E1.97343
G1 X20.904 Y103.182 E2.06559
G1 X21.288 Y104.169 E2.15013
G1 X21.674 Y104.99 E2.22255
G1 X22.227 Y105.988 E2.31362
G1 X22.827 Y106.894 E2.40037
G1 X23.33 Y107.545 E2.46604
G1 X23.599 Y107.93 E2.50353
G1 X23.935 Y108.54 E2.55912
G1 X24.175 Y109.151 E2.61152
G1 X24.344 Y109.798 E2.6649
G1 X24.432 Y110.472 E2.71916
G1 X24.432 Y111.183 E2.77591
G1 X24.349 Y111.837 E2.82853
G1 X24.178 Y112.5 E2.88319
G1 X23.918 Y113.153 E2.93929
G1 X23.598 Y113.73 E2.99196
G1 X23.05 Y114.654 E3.07772
G1 X22.616 Y115.535 E3.15611
G1 X22.211 Y116.519 E3.24105
G1 X21.886 Y117.513 E3.32453
G1 X21.603 Y118.64 E3.41729
G1 X21.44 Y119.624 E3.4969
G1 X21.329 Y120.76 E3.58802
G1 X21.31 Y121.787 E3.67001
G1 X21.396 Y126.805 E4.07063
G1 X21.414 Y127.316 E4.11144
G1 X21.515 Y128.433 E4.20097
G1 X21.707 Y129.558 E4.29207
G1 X21.935 Y130.513 E4.37044
G1 X22.262 Y131.528 E4.45557
G1 X22.701 Y132.6 E4.54804
G1 X23.138 Y133.491 E4.62725
G1 X23.659 Y134.381 E4.70957
G1 X24.268 Y135.268 E4.79546
G1 X24.945 Y136.116 E4.88208
G1 X25.66 Y136.886 E4.96596
G1 X26.444 Y137.616 E5.05147
G1 X27.271 Y138.278 E5.13603
G1 X28.155 Y138.888 E5.22176
G1 X29.153 Y139.466 E5.31382
G1 X29.948 Y139.858 E5.38458
G1 X30.948 Y140.27 E5.47091
G1 X32.032 Y140.622 E5.56189
G1 X33.07 Y140.875 E5.64717
G1 X34.202 Y141.058 E5.73871
G1 X35.182 Y141.149 E5.81727
G1 X36.202 Y141.168 E5.89871
G1 X41.039 Y141.088 E6.28487
G1 X41.729 Y141.065 E6.33998
G1 X41.968 Y141.069 E6.35906
G1 X156.741 Y139.086 E15.5221
G1 X157.278 Y139.104 E15.56499
G1 X157.943 Y139.203 E15.61866
G1 X158.615 Y139.392 E15.67438
G1 X159.225 Y139.651 E15.72728
G1 X159.833 Y140.006 E15.78348
G1 X160.36 Y140.411 E15.83654
G1 X161.125 Y141.076 E15.91745
G1 X162.308 Y142.011 E16.03782
G1 X163.182 Y142.586 E16.12133
G1 X164.702 Y143.508 E16.26324
G1 X165.988 Y144.207 E16.38008
G1 X166.948 Y144.625 E16.46366
G1 X168.557 Y145.259 E16.60171
G1 X169.969 Y145.738 E16.72073
G1 X170.988 Y145.989 E16.8045
G1 X172.708 Y146.346 E16.94472
G1 X174.183 Y146.579 E17.06392
G1 X175.195 Y146.648 E17.14489
G1 X177.1 Y146.709 E17.29704
G1 X178.45 Y146.688 E17.40481
G1 X179.47 Y146.584 E17.48666
G1 X181.309 Y146.331 E17.63484
G1 X182.691 Y146.071 E17.74709
G1 X183.783 Y145.764 E17.83764
G1 X185.464 Y145.226 E17.97852
G1 X186.762 Y144.74 E18.08916
G1 X187.67 Y144.308 E18.16943
G1 X189.239 Y143.496 E18.31045
G1 X190.534 Y142.745 E18.42995
G1 X191.385 Y142.146 E18.51302
G1 X192.86 Y141.026 E18.66086
G1 X193.928 Y140.13 E18.77214
G1 X194.643 Y139.417 E18.85274
G1 X195.943 Y138.02 E19.00507
G1 X196.827 Y136.974 E19.11439
G1 X197.461 Y136.075 E19.2022
G1 X198.385 Y134.665 E19.33677
G1 X199.145 Y133.373 E19.45642
G1 X199.635 Y132.34 E19.54769
G1 X200.332 Y130.723 E19.68824
G1 X200.807 Y129.46 E19.79595
G1 X201.09 Y128.461 E19.87884
G1 X201.505 Y126.767 E20.01806
G1 X201.792 Y125.291 E20.13809
G1 X201.898 Y124.282 E20.21907
G1 X202.02 Y122.53 E20.35926
G1 X202.034 Y121.845 E20.41395
G1 X202.052 Y121.018 E20.47998
G1 X201.974 Y119.865 E20.57223
G1 X201.805 Y118.228 E20.7036
G1 X201.583 Y116.764 E20.8218
G1 X201.317 Y115.671 E20.91159
G1 X200.869 Y114.068 E21.04445
G1 X200.411 Y112.685 E21.16075
G1 X199.995 Y111.718 E21.24478
G1 X199.238 Y110.121 E21.38585
G1 X199.151 Y109.951 E21.4011
G1 X198.913 Y109.436 E21.44638
G1 X198.704 Y108.805 E21.49944
G1 X198.569 Y108.098 E21.5569
G1 X198.528 Y107.418 E21.61128
G1 X198.57 Y106.757 E21.66415
G1 X198.703 Y106.066 E21.72032
G1 X198.904 Y105.455 E21.77166
G1 X199.433 Y104.118 E21.88644
G1 X199.761 Y103.018 E21.97807
G1 X200.204 Y101.318 E22.1183
G1 X200.488 Y99.974 E22.22795
G1 X200.619 Y98.907 E22.31376
G1 X200.764 Y97.206 E22.45004
G1 X200.823 Y95.691 E22.57106
G1 X200.767 Y94.589 E22.65914
G1 X200.61 Y92.793 E22.80305
G1 X200.428 Y91.443 E22.91179
G1 X200.206 Y90.442 E22.99364
G1 X199.76 Y88.731 E23.13478
G1 X199.343 Y87.392 E23.24673
G1 X198.92 Y86.35 E23.3365
G1 X198.192 Y84.748 E23.47696
G1 X197.514 Y83.426 E23.59556
G1 X196.973 Y82.564 E23.6768
G1 X195.985 Y81.108 E23.81725
G1 X195.079 Y79.902 E23.93766
G1 X194.33 Y79.069 E24.02708
G1 X193.098 Y77.798 E24.16838
G1 X192.085 Y76.847 E24.27929
G1 X191.25 Y76.188 E24.3642
G1 X189.868 Y75.175 E24.50098
G1 X188.618 Y74.35 E24.62053
G1 X187.734 Y73.867 E24.70094
G1 X186.025 Y73.019 E24.85323
G1 X184.76 Y72.465 E24.96347
G1 X183.826 Y72.15 E25.04215
G1 X182.126 Y71.638 E25.18388
G1 X180.652 Y71.271 E25.30513
G1 X179.574 Y71.103 E25.39222
G1 X177.897 Y70.901 E25.52705
G1 X176.421 Y70.792 E25.64519
G1 X175.358 Y70.807 E25.73005
G1 X173.638 Y70.894 E25.86753
G1 X172.154 Y71.038 E25.98654
G1 X171.058 Y71.244 E26.07556
G1 X169.43 Y71.61 E26.20876
G1 X167.969 Y72.009 E26.32965
G1 X166.939 Y72.396 E26.41749
G1 X165.247 Y73.1 E26.56377
G1 X164.037 Y73.672 E26.67061
G1 X163.066 Y74.235 E26.7602
G1 X161.644 Y75.132 E26.89441
G1 X160.424 Y75.987 E27.01333
G1 X159.681 Y76.609 E27.09068
G1 X158.788 Y77.41 E27.18644
G1 X158.385 Y77.735 E27.22776
G1 X157.807 Y78.105 E27.28255
G1 X157.177 Y78.402 E27.33814
G1 X156.562 Y78.605 E27.38984
G1 X155.862 Y78.739 E27.44673
G1 X155.215 Y78.781 E27.49849
G1 X40.349 Y78.783 E36.66759
G1 X39.898 Y78.791 E36.7036
G1 X39.469 Y78.783 E36.73785
G1 X34.634 Y78.782 E37.1238
G1 X34.238 Y78.789 E37.15541
G1 X33.081 Y78.87 E37.24799
G1 X32.032 Y79.025 E37.33264
G1 X30.913 Y79.28 E37.42425
G1 X29.957 Y79.569 E37.50398
G1 X28.896 Y79.982 E37.59486
G1 X28.003 Y80.401 E37.6736
G0 F9000 X28.545 Y80.588
G1 F1125 X87.832 Y139.875 E44.36643
G0 F9000 X85.608 Y139.913
G1 F1125 X27.092 Y81.397 E50.97222
G0 F9000 X25.771 Y82.34
G1 F1125 X83.384 Y139.952 E57.47602
G0 F9000 X81.159 Y139.99
G1 F1125 X24.583 Y83.415 E63.86275
G0 F9000 X23.524 Y84.618
G1 F1125 X78.935 Y140.029 E70.11802
G0 F9000 X76.711 Y140.067
G1 F1125 X22.596 Y85.953 E76.22693
G0 F9000 X21.802 Y87.421
G1 F1125 X74.486 Y140.106 E82.17441
G0 F9000 X72.262 Y140.144
G1 F1125 X21.171 Y89.053 E87.94201
G0 F9000 X20.721 Y90.866
G1 F1125 X70.038 Y140.183 E93.50934
G0 F9000 X67.813 Y140.221
G1 F1125 X20.505 Y92.913 E98.84987
G0 F9000 X20.487 Y95.158
G1 F1125 X65.589 Y140.259 E103.94132
G0 F9000 X63.365 Y140.298
G1 F1125 X20.487 Y97.42 E108.78176
G0 F9000 X20.561 Y99.757
G1 F1125 X61.14 Y140.336 E113.36267
G0 F9000 X58.916 Y140.374
G1 F1125 X21.144 Y102.603 E117.62664
G1 F1500 E111.12664
G0 F9000 X19.901 Y103.54
G0 X20.722 Y105.467
G0 X21.304 Y106.505
G0 X22.475 Y108.18
G0 X23.806 Y107.528
G1 F1500 E117.62664
G1 F1125 X56.692 Y140.413 E121.33904
G0 F9000 X54.467 Y140.451
G1 F1125 X24.831 Y110.815 E124.68461
G0 F9000 X24.506 Y112.753
G1 F1125 X52.243 Y140.49 E127.8158
G0 F9000 X50.019 Y140.528
G1 F1125 X23.748 Y114.258 E130.78144
G0 F9000 X22.964 Y115.737
G1 F1125 X47.794 Y140.567 E133.58447
G0 F9000 X45.57 Y140.606
G1 F1125 X22.348 Y117.383 E136.20602
G0 F9000 X21.913 Y119.211
G1 F1125 X43.346 Y140.644 E138.62557
G0 F9000 X41.123 Y140.683
G1 F1125 X21.719 Y121.28 E140.816
G0 F9000 X21.739 Y123.563
G1 F1125 X38.898 Y140.722 E142.75306
G0 F9000 X36.672 Y140.758
G1 F1125 X21.778 Y125.865 E144.43436
G0 F9000 X21.9 Y128.249
G1 F1125 X34.317 Y140.666 E145.8361
G0 F9000 X31.375 Y139.987
G1 F1125 X22.57 Y131.182 E146.83009
G1 F1500 E140.33009
G0 F9000 X20.944 Y130.906
G0 X20.627 Y129.595
G0 X20.351 Y127.376
G0 X19.023 Y98.333
G0 X19.061 Y92.337
G0 X19.207 Y91
G0 X19.659 Y88.974
G0 X20.099 Y87.684
G0 X20.971 Y85.822
G0 X21.69 Y84.646
G0 X22.956 Y83.005
G0 X23.884 Y82.042
G0 X25.501 Y80.696
G0 X26.612 Y79.962
G0 X28.114 Y79.189
G0 X29.514 Y78.599
G0 X30.148 Y79.928
G1 F1500 E146.83009
G1 F1125 X90.057 Y139.837 E153.59313
G0 F9000 X92.28 Y139.798
G1 F1125 X31.938 Y79.456 E160.40506
G0 F9000 X33.955 Y79.21
G1 F1125 X94.505 Y139.76 E167.24047
G0 F9000 X96.73 Y139.722
G1 F1125 X36.189 Y79.181 E174.07486
G0 F9000 X38.452 Y79.181
G1 F1125 X98.953 Y139.683 E180.90479
G0 F9000 X101.178 Y139.645
G1 F1125 X40.713 Y79.179 E187.73066
G0 F9000 X42.975 Y79.179
G1 F1125 X103.403 Y139.606 E194.55224
G0 F9000 X105.626 Y139.568
G1 F1125 X45.238 Y79.179 E201.36941
G0 F9000 X47.501 Y79.179
G1 F1125 X107.851 Y139.529 E208.18224
G0 F9000 X110.076 Y139.491
G1 F1125 X49.764 Y79.179 E214.99078
G0 F9000 X52.026 Y79.179
G1 F1125 X112.299 Y139.452 E221.79492
G0 F9000 X114.524 Y139.414
G1 F1125 X54.289 Y79.179 E228.59476
G0 F9000 X56.552 Y79.179
G1 F1125 X116.748 Y139.376 E235.39027
G0 F9000 X118.972 Y139.337
G1 F1125 X58.815 Y79.179 E242.18136
G0 F9000 X61.077 Y79.179
G1 F1125 X121.197 Y139.299 E248.96823
G0 F9000 X123.421 Y139.261
G1 F1125 X63.34 Y79.179 E255.75075
G0 F9000 X65.603 Y79.179
G1 F1125 X125.645 Y139.222 E262.52886
G0 F9000 X127.87 Y139.184
G1 F1125 X67.865 Y79.179 E269.30275
G0 F9000 X70.128 Y79.179
G1 F1125 X130.094 Y139.145 E276.07223
G0 F9000 X132.318 Y139.106
G1 F1125 X72.391 Y79.179 E282.83731
G0 F9000 X74.654 Y79.179
G1 F1125 X134.543 Y139.068 E289.59809
G0 F9000 X136.767 Y139.03
G1 F1125 X76.916 Y79.179 E296.35459
G0 F9000 X79.179 Y79.179
G1 F1125 X138.991 Y138.991 E303.10669
G0 F9000 X141.216 Y138.953
G1 F1125 X81.442 Y79.179 E309.85449
G0 F9000 X83.705 Y79.179
G1 F1125 X143.44 Y138.915 E316.59795
G0 F9000 X145.664 Y138.876
G1 F1125 X85.967 Y79.179 E323.33707
G0 F9000 X88.23 Y79.179
G1 F1125 X147.889 Y138.838 E330.07189
G0 F9000 X150.113 Y138.8
G1 F1125 X90.493 Y79.179 E336.80237
G0 F9000 X92.756 Y79.179
G1 F1125 X152.337 Y138.761 E343.52844
G0 F9000 X154.562 Y138.723
G1 F1125 X95.018 Y79.179 E350.25028
G0 F9000 X97.281 Y79.179
G1 F1125 X156.788 Y138.686 E356.96795
G0 F9000 X160.016 Y139.652
G1 F1125 X99.544 Y79.179 E363.7946
G0 F9000 X101.807 Y79.179
G1 F1125 X166.713 Y144.086 E371.12181
G0 F9000 X170.297 Y145.407
G1 F1125 X104.069 Y79.179 E378.5982
G0 F9000 X106.332 Y79.179
G1 F1125 X173.165 Y146.012 E386.14289
G0 F9000 X175.678 Y146.262
G1 F1125 X108.595 Y79.179 E393.7158
G0 F9000 X110.858 Y79.179
G1 F1125 X177.973 Y146.294 E401.29232
G0 F9000 X180.042 Y146.1
G1 F1125 X113.12 Y79.179 E408.84699
G0 F9000 X115.383 Y79.179
G1 F1125 X181.997 Y145.793 E416.36696
G0 F9000 X183.803 Y145.336
G1 F1125 X117.646 Y79.179 E423.83533
G0 F9000 X119.909 Y79.179
G1 F1125 X185.51 Y144.78 E431.24094
G0 F9000 X187.118 Y144.126
G1 F1125 X122.171 Y79.179 E438.57272
G0 F9000 X124.434 Y79.179
G1 F1125 X188.62 Y143.365 E445.81859
G0 F9000 X190.068 Y142.551
G1 F1125 X126.697 Y79.179 E452.97251
G0 F9000 X128.96 Y79.179
G1 F1125 X191.406 Y141.625 E460.02196
G0 F9000 X192.688 Y140.645
G1 F1125 X131.222 Y79.179 E466.96077
G0 F9000 X133.485 Y79.179
G1 F1125 X193.899 Y139.593 E473.78082
G0 F9000 X195.007 Y138.438
G1 F1125 X135.748 Y79.179 E480.47049
G0 F9000 X138.01 Y79.179
G1 F1125 X196.075 Y137.243 E487.02531
G0 F9000 X197.052 Y135.958
G1 F1125 X140.273 Y79.179 E493.43502
G0 F9000 X142.536 Y79.179
G1 F1125 X197.952 Y134.595 E499.69085
G0 F9000 X198.795 Y133.175
G1 F1125 X144.799 Y79.179 E505.78639
G0 F9000 X147.061 Y79.179
G1 F1125 X199.507 Y131.625 E511.70695
G0 F9000 X200.167 Y130.022
G1 F1125 X149.324 Y79.179 E517.44654
G0 F9000 X151.587 Y79.179
G1 F1125 X200.715 Y128.307 E522.99254
G0 F9000 X201.152 Y126.482
G1 F1125 X153.85 Y79.179 E528.33245
G0 F9000 X156.044 Y79.111
G1 F1125 X201.468 Y124.535 E533.46031
G0 F9000 X201.62 Y122.424
G1 F1125 X157.763 Y78.567 E538.41126
G0 F9000 X159.113 Y77.655
G1 F1125 X201.59 Y120.131 E543.20638
G0 F9000 X201.301 Y117.579
G1 F1125 X160.318 Y76.597 E547.83284
G0 F9000 X161.621 Y75.637
G1 F1125 X200.608 Y114.624 E552.23403
G0 F9000 X199.179 Y110.932
G1 F1125 X162.998 Y74.751 E556.31845
G0 F9000 X164.435 Y73.925
G1 F1125 X198.14 Y107.63 E560.12336
G0 F9000 X198.419 Y105.646
G1 F1125 X165.994 Y73.222 E563.78372
G0 F9000 X167.607 Y72.572
G1 F1125 X199.045 Y104.01 E567.33271
G0 F9000 X199.547 Y102.249
G1 F1125 X169.345 Y72.047 E570.74218
G0 F9000 X171.187 Y71.627
G1 F1125 X199.983 Y100.423 E573.99292
G0 F9000 X200.257 Y98.434
G1 F1125 X173.164 Y71.341 E577.05141
G0 F9000 X175.296 Y71.21
G1 F1125 X200.398 Y96.312 E579.88514
G0 F9000 X200.309 Y93.961
G1 F1125 X177.631 Y71.282 E582.44528
G0 F9000 X180.22 Y71.608
G1 F1125 X200.007 Y91.395 E584.67901
G0 F9000 X199.22 Y88.346
G1 F1125 X183.277 Y72.402 E586.47885
G0 F9000 X187.172 Y74.035
M104 S200
G1 F1125 X197.591 Y84.454 E587.65504
G1 F1500 E581.15504
G0 F300 X197.591 Y84.454 Z0.54
G0 F9000 X199.102 Y84.184
G0 X200.349 Y87.051
G0 X201.24 Y90.196
G0 X201.493 Y91.368
G0 X201.835 Y94.604
G0 X203.116 Y121.119
G0 X202.958 Y124.377
G0 X202.825 Y125.56
G0 X202.12 Y128.738
G0 X201.781 Y129.894
G0 X200.607 Y132.775
G0 X200.274 Y133.462
G0 X199.539 Y134.806
G0 X198.275 Y134.064
;TIME_ELAPSED:414.008893
;LAYER:-5
;TYPE:SUPPORT
G1 F1500 E587.65504
G1 F1125 X189.395 Y142.945 E588.90817
G0 F9000 X190.324 Y142.404
G1 F1125 X191.142 Y141.828 E589.008
G1 X192.542 Y140.766 E589.18334
G1 X193.658 Y139.833 E589.32848
G1 X194.348 Y139.144 E589.42577
G1 X195.649 Y137.747 E589.61625
G1 X196.508 Y136.731 E589.74901
G1 X197.125 Y135.855 E589.85592
G1 X198.091 Y134.379 E590.03193
G1 X198.793 Y133.183 E590.17031
G1 X199.268 Y132.179 E590.28114
G1 X199.667 Y131.258 E590.38129
G1 X186.526 Y144.399 E592.23562
G1 X185.319 Y144.85 E592.36419
G1 X184.351 Y145.159 E592.46558
G1 X200.525 Y128.986 E594.74784
G1 X200.703 Y128.361 E594.81268
G1 X201.014 Y127.083 E594.94392
G1 X182.374 Y145.723 E597.57422
G1 X181.232 Y145.939 E597.69019
G1 X180.665 Y146.018 E597.74732
G1 X201.39 Y125.292 E600.67191
G1 X201.499 Y124.233 E600.77813
G1 X201.534 Y123.734 E600.82805
G1 X179.043 Y146.225 E604.00177
G1 X178.428 Y146.287 E604.06345
G1 X177.551 Y146.303 E604.15097
G1 X201.625 Y122.229 E607.54807
G1 X201.652 Y121.019 E607.66883
G1 X201.637 Y120.803 E607.69044
G1 X176.159 Y146.281 E611.28566
G1 X175.314 Y146.255 E611.37001
G1 X174.805 Y146.221 E611.42091
G1 X201.533 Y119.493 E615.19252
G1 X201.398 Y118.214 E615.32085
G1 X173.539 Y146.072 E619.25199
G1 X172.787 Y145.953 E619.32796
G1 X172.336 Y145.861 E619.37388
G1 X201.221 Y116.976 E623.44987
G1 X200.944 Y115.838 E623.56673
G1 X171.165 Y145.618 E627.76894
G1 X170.025 Y145.343 E627.88596
G1 X200.638 Y114.731 E632.20571
G1 X200.485 Y114.184 E632.26239
G1 X200.307 Y113.648 E632.31874
G1 X168.976 Y144.978 E636.73981
G1 X168.671 Y144.874 E636.77197
G1 X167.949 Y144.591 E636.84934
G1 X199.94 Y112.601 E641.36355
G1 X199.635 Y111.891 E641.44065
G1 X199.505 Y111.621 E641.47055
G1 X166.94 Y144.186 E646.06583
G1 X165.956 Y143.755 E646.17302
G1 X199.05 Y110.662 E650.84287
G1 X198.595 Y109.703 E650.94878
G1 X165.047 Y143.251 E655.68277
G1 X164.166 Y142.718 E655.78551
G1 X198.26 Y108.624 E660.59654
G1 X198.172 Y108.174 E660.64229
G1 X198.118 Y107.351 E660.72459
G1 X163.29 Y142.18 E665.63926
