;FLAVOR:Marlin
;TIME:15159
;Filament used: 10.4811m
;Layer height: 0.2
;MINX:78.648
;MINY:75.072
;MINZ:0.24
;MAXX:176.357
;MAXY:173.993
;MAXZ:26.09
;Generated with Cura_SteamEngine main
M82 ;absolute extrusion mode
; Ender 3 Custom Start G-code
G92 E0 ; Reset Extruder
G28 ; Home all axes
M104 S175 ; Start heating up the nozzle most of the way
M190 S60 ; Start heating the bed, wait until target temperature reached
M109 S200 ; Finish heating the nozzle
G1 Z2.0 F3000 ; Move Z Axis up little to prevent scratching of Heat Bed
G1 X0.1 Y20 Z0.3 F5000.0 ; Move to start position
G1 X0.1 Y200.0 Z0.3 F1500.0 E15 ; Draw the first line
G1 X0.4 Y200.0 Z0.3 F5000.0 ; Move to side a little
G1 X0.4 Y20 Z0.3 F1500.0 E30 ; Draw the second line
G92 E0 ; Reset Extruder
G1 Z2.0 F3000 ; Move Z Axis up little to prevent scratching of Heat Bed
G1 X5 Y20 Z0.3 F5000.0 ; Move over to prevent blob squish
G92 E0
G92 E0
G1 F1500 E-6.5
;LAYER_COUNT:125
;LAYER:-6
M107
G0 F9000 X85.4 Y107.354 Z0.24
;TYPE:SUPPORT-INTERFACE
G1 F1500 E0
G1 F1125 X84.775 Y108.02 E0.07291
G1 X84.14 Y108.784 E0.15221
G1 X83.516 Y109.656 E0.2378
G1 X82.928 Y110.634 E0.32889
G1 X82.48 Y111.505 E0.40708
G1 X82.095 Y112.41 E0.48558
G1 X81.72 Y113.495 E0.57722
G1 X81.434 Y114.607 E0.66887
G1 X81.255 Y115.572 E0.74722
G1 X81.146 Y116.564 E0.82688
G1 X81.099 Y117.715 E0.91883
G1 X81.097 Y118.719 E0.99898
G1 X81.04 Y119.482 E1.06005
G1 X80.896 Y120.157 E1.11515
G1 X80.613 Y120.948 E1.18221
G1 X80.302 Y121.86 E1.25912
G1 X80.016 Y122.976 E1.35109
G1 X79.838 Y123.942 E1.4295
G1 X79.717 Y125.08 E1.52085
G1 X79.681 Y126.081 E1.6008
G1 X79.681 Y129.067 E1.83916
G1 X79.71 Y129.954 E1.91
G1 X79.8 Y130.935 E1.98864
G1 X79.961 Y131.906 E2.0672
G1 X80.224 Y133.022 E2.15873
G1 X80.55 Y134.038 E2.2439
G1 X80.981 Y135.093 E2.33487
G1 X81.422 Y135.988 E2.41452
G1 X81.955 Y136.897 E2.49863
G1 X82.563 Y137.78 E2.58421
G1 X83.235 Y138.617 E2.66989
G1 X83.971 Y139.411 E2.75632
G1 X110.981 Y166.42 E5.80538
G1 X111.596 Y166.995 E5.87259
G1 X112.36 Y167.631 E5.95194
G1 X113.232 Y168.255 E6.03753
G1 X114.21 Y168.843 E6.12862
G1 X115.09 Y169.295 E6.20759
G1 X116.075 Y169.713 E6.29301
G1 X117.079 Y170.053 E6.37762
G1 X118.183 Y170.337 E6.46862
G1 X119.065 Y170.5 E6.54021
G1 X120.141 Y170.625 E6.62668
G1 X121.275 Y170.672 E6.71728
G1 X121.508 Y170.673 E6.73588
G1 X122.027 Y170.7 E6.77737
G1 X122.667 Y170.803 E6.82911
G1 X123.33 Y170.997 E6.88425
G1 X123.951 Y171.268 E6.93834
G1 X124.491 Y171.546 E6.98682
G1 X125.399 Y171.932 E7.06558
G1 X126.484 Y172.307 E7.15722
G1 X127.596 Y172.593 E7.24887
G1 X128.561 Y172.772 E7.32721
G1 X129.553 Y172.881 E7.40688
G1 X130.684 Y172.928 E7.49723
G1 X133.69 Y172.929 E7.73719
G1 X134.575 Y172.899 E7.80787
G1 X135.548 Y172.81 E7.88587
G1 X136.524 Y172.648 E7.96484
G1 X137.655 Y172.381 E8.0576
G1 X138.66 Y172.057 E8.14189
G1 X139.715 Y171.626 E8.23286
G1 X140.677 Y171.147 E8.31865
G1 X141.518 Y170.654 E8.39646
G1 X142.402 Y170.045 E8.48215
G1 X143.298 Y169.318 E8.57426
G1 X144.03 Y168.64 E8.6539
G1 X171.04 Y141.628 E11.70314
G1 X171.615 Y141.013 E11.77034
G1 X172.249 Y140.252 E11.84941
G1 X172.884 Y139.363 E11.93662
G1 X173.463 Y138.399 E12.02638
G1 X173.915 Y137.519 E12.10535
G1 X174.333 Y136.534 E12.19076
G1 X174.673 Y135.53 E12.27538
G1 X174.957 Y134.426 E12.36637
G1 X175.12 Y133.544 E12.43797
G1 X175.245 Y132.47 E12.52428
G1 X175.293 Y131.32 E12.61616
G1 X175.293 Y128.501 E12.84118
G1 X175.285 Y127.883 E12.89052
G1 X175.204 Y126.73 E12.98278
G1 X175.047 Y125.658 E13.06927
G1 X174.993 Y124.999 E13.12205
G1 X175.024 Y124.305 E13.1775
G1 X175.111 Y123.466 E13.24483
G1 X175.148 Y122.467 E13.32463
G1 X175.148 Y119.482 E13.56291
G1 X175.118 Y118.593 E13.63391
G1 X175.028 Y117.612 E13.71255
G1 X174.867 Y116.641 E13.79112
G1 X174.622 Y115.608 E13.87586
G1 X174.28 Y114.514 E13.96736
G1 X173.906 Y113.588 E14.04708
G1 X173.439 Y112.628 E14.13229
G1 X172.877 Y111.654 E14.22206
G1 X172.265 Y110.765 E14.30821
G1 X171.656 Y110.005 E14.38595
G1 X170.888 Y109.168 E14.47663
G1 X143.896 Y82.176 E17.52372
G1 X143.232 Y81.554 E17.59635
G1 X142.467 Y80.917 E17.67581
G1 X141.59 Y80.288 E17.76196
G1 X140.618 Y79.704 E17.85248
G1 X139.748 Y79.257 E17.93055
G1 X138.763 Y78.837 E18.01603
G1 X137.752 Y78.494 E18.10125
G1 X136.645 Y78.21 E18.19248
G1 X135.765 Y78.047 E18.26392
G1 X134.687 Y77.922 E18.35054
G1 X133.713 Y77.88 E18.42837
G1 X133.145 Y77.826 E18.47391
G1 X132.472 Y77.683 E18.52883
G1 X131.828 Y77.455 E18.58337
G1 X130.903 Y77.064 E18.66353
G1 X129.899 Y76.724 E18.74814
G1 X128.795 Y76.44 E18.83914
G1 X127.913 Y76.277 E18.91074
G1 X126.839 Y76.152 E18.99705
G1 X125.707 Y76.106 E19.08748
G1 X122.703 Y76.105 E19.32727
G1 X121.817 Y76.134 E19.39804
G1 X120.836 Y76.224 E19.47667
G1 X119.865 Y76.385 E19.55524
G1 X118.749 Y76.648 E19.64676
G1 X117.734 Y76.975 E19.73189
G1 X116.674 Y77.408 E19.82329
G1 X115.783 Y77.846 E19.90254
G1 X114.867 Y78.383 E19.9873
G1 X113.998 Y78.982 E20.07155
G1 X113.153 Y79.657 E20.15788
G1 X112.391 Y80.364 E20.24085
G1 X85.4 Y107.354 E23.28777
G0 F9000 X85.356 Y107.983
G1 F1125 X144.738 Y167.365 E29.99133
G0 F9000 X145.869 Y166.234
G1 F1125 X86.477 Y106.842 E36.69601
G0 F9000 X87.609 Y105.711
G1 F1125 X147.001 Y165.103 E43.40069
G0 F9000 X148.132 Y163.971
G1 F1125 X88.74 Y104.579 E50.10537
G0 F9000 X89.871 Y103.448
G1 F1125 X149.263 Y162.84 E56.81006
G0 F9000 X150.395 Y161.708
G1 F1125 X91.003 Y102.316 E63.51474
G0 F9000 X92.134 Y101.185
G1 F1125 X151.526 Y160.577 E70.21942
G0 F9000 X152.657 Y159.446
G1 F1125 X93.265 Y100.054 E76.9241
G0 F9000 X94.397 Y98.922
G1 F1125 X153.789 Y158.314 E83.62878
G0 F9000 X154.92 Y157.183
G1 F1125 X95.528 Y97.791 E90.33347
G0 F9000 X96.66 Y96.66
G1 F1125 X156.052 Y156.052 E97.03815
G0 F9000 X157.183 Y154.92
G1 F1125 X97.791 Y95.528 E103.74283
G0 F9000 X98.922 Y94.397
G1 F1125 X158.314 Y153.788 E110.44746
G0 F9000 X159.445 Y152.657
G1 F1125 X100.054 Y93.265 E117.15208
G0 F9000 X101.185 Y92.134
G1 F1125 X160.576 Y151.525 E123.85665
G0 F9000 X161.708 Y150.394
G1 F1125 X102.316 Y91.003 E130.56128
G0 F9000 X103.448 Y89.871
G1 F1125 X162.839 Y149.263 E137.2659
G0 F9000 X163.97 Y148.131
G1 F1125 X104.579 Y88.74 E143.97047
G0 F9000 X105.711 Y87.609
G1 F1125 X165.102 Y147 E150.67504
G0 F9000 X166.233 Y145.869
G1 F1125 X106.842 Y86.477 E157.37967
G0 F9000 X107.973 Y85.346
G1 F1125 X167.365 Y144.737 E164.08429
G0 F9000 X168.496 Y143.606
G1 F1125 X109.105 Y84.215 E170.78886
G0 F9000 X110.236 Y83.083
G1 F1125 X169.627 Y142.474 E177.49343
G0 F9000 X170.758 Y141.342
G1 F1125 X111.367 Y81.952 E184.19795
G0 F9000 X112.499 Y80.82
G1 F1125 X171.819 Y140.141 E190.89456
G0 F9000 X172.749 Y138.808
G1 F1125 X113.685 Y79.743 E197.56227
G0 F9000 X114.988 Y78.785
G1 F1125 X173.552 Y137.348 E204.17342
G0 F9000 X174.185 Y135.719
G1 F1125 X116.436 Y77.969 E210.69268
G0 F9000 X118.029 Y77.3
G1 F1125 X174.644 Y133.914 E217.08382
G0 F9000 X174.868 Y131.876
G1 F1125 X119.802 Y76.81 E223.30014
G0 F9000 X121.792 Y76.537
G1 F1125 X174.892 Y129.637 E229.29453
G0 F9000 X174.844 Y127.327
G1 F1125 X124.023 Y76.506 E235.03164
G0 F9000 X126.311 Y76.53
G1 F1125 X174.6 Y124.819 E240.48292
G0 F9000 X174.738 Y122.695
G1 F1125 X128.931 Y76.888 E245.65401
G0 F9000 X132.375 Y78.069
G1 F1125 X174.747 Y120.441 E250.43733
G0 F9000 X174.671 Y118.103
G1 F1125 X134.92 Y78.351 E254.92482
G0 F9000 X137.746 Y78.915
G1 F1125 X174.094 Y115.263 E259.0281
G1 F1500 E252.5281
G0 F9000 X175.312 Y114.252
G0 X174.812 Y113.006
G0 X173.828 Y111.172
G0 X173.607 Y110.851
G0 X172.47 Y109.32
G0 X171.257 Y110.162
G1 F1500 E259.0281
G1 F1125 X142.856 Y81.762 E262.23419
G1 F1500 E255.73419
G0 F9000 X143.795 Y80.635
G0 X142.287 Y79.478
G0 X141.128 Y78.769
G0 X139.248 Y77.887
G0 X137.958 Y77.447
G0 X128.081 Y75.225
G0 X126.755 Y75.078
G0 X121.742 Y75.072
G0 X119.665 Y75.338
G0 X118.356 Y75.657
G0 X116.391 Y76.369
G0 X115.196 Y76.956
G0 X113.444 Y78.07
G0 X112.387 Y78.916
G0 X83.972 Y107.321
G0 X83.36 Y108.056
G0 X84.323 Y109.214
G1 F1500 E262.23419
G1 F1125 X143.601 Y168.491 E268.92595
G0 F9000 X142.387 Y169.54
G1 F1125 X83.426 Y110.579 E275.58198
G0 F9000 X82.667 Y112.083
G1 F1125 X141.048 Y170.463 E282.17247
G0 F9000 X139.57 Y171.249
G1 F1125 X82.067 Y113.745 E288.66397
G0 F9000 X81.656 Y115.597
G1 F1125 X137.929 Y171.87 E295.01655
G0 F9000 X136.107 Y172.311
G1 F1125 X81.499 Y117.703 E301.18117
G0 F9000 X81.371 Y119.838
G1 F1125 X134.049 Y172.515 E307.12786
G0 F9000 X131.797 Y172.526
G1 F1125 X80.827 Y121.556 E312.8818
G0 F9000 X80.354 Y123.346
G1 F1125 X129.477 Y172.469 E318.42723
G0 F9000 X126.691 Y171.946
G1 F1125 X80.106 Y125.361 E323.68614
G0 F9000 X80.081 Y127.598
G1 F1125 X122.95 Y170.467 E328.52557
G0 F9000 X120.456 Y170.236
G1 F1125 X80.107 Y129.887 E333.08051
G0 F9000 X80.528 Y132.571
G1 F1125 X117.774 Y169.818 E337.28522
G0 F9000 X113.856 Y168.162
M104 S200
G1 F1125 X82.175 Y136.481 E340.86164
G1 F1500 E334.36164
G0 F300 X82.175 Y136.481 Z0.54
G0 F9000 X80.91 Y137.221
G0 X79.945 Y135.38
G0 X79.232 Y133.414
G0 X78.914 Y132.106
G0 X78.648 Y130.029
G0 X78.654 Y125.016
G0 X78.801 Y123.69
G0 X80.43 Y114.215
G0 X81.029 Y112.219
G0 X81.566 Y110.954
G0 X82.566 Y109.17
G0 X83.817 Y109.929
;TIME_ELAPSED:242.107542
;LAYER:-5
;TYPE:SUPPORT
G1 F1500 E340.86164
G1 F1125 X114.906 Y78.84 E345.24864
G0 F9000 X114.223 Y79.31
G1 F1125 X113.344 Y80.023 E345.36157
G1 X112.675 Y80.644 E345.45265
G1 X85.645 Y107.673 E349.2668
G1 X85.067 Y108.293 E349.35138
G1 X84.519 Y108.952 E349.4369
G1 X83.851 Y109.873 E349.55042
G1 X83.289 Y110.804 E349.65893
G1 X82.831 Y111.694 E349.75881
G1 X82.386 Y112.775 E349.87545
G1 X117.782 Y77.379 E354.87021
G1 X118.844 Y77.037 E354.98153
G1 X119.76 Y76.815 E355.07558
G1 X81.816 Y114.759 E360.42989
G1 X81.653 Y115.616 E360.51693
G1 X81.567 Y116.422 E360.59781
G1 X121.419 Y76.57 E366.22136
G1 X121.839 Y76.532 E366.26344
G1 X122.9 Y76.504 E366.36934
G1 X81.497 Y117.906 E372.21168
G1 X81.497 Y118.718 E372.2927
G1 X81.45 Y119.367 E372.35763
G1 X124.314 Y76.504 E378.40613
G1 X125.726 Y76.506 E378.54702
G1 X80.907 Y121.324 E384.8714
G1 X80.675 Y122.007 E384.94337
G1 X80.405 Y123.057 E385.05155
G1 X80.364 Y123.281 E385.07427
G1 X127.066 Y76.58 E391.66436
G1 X127.856 Y76.671 E391.74371
G1 X128.305 Y76.755 E391.78929
G1 X80.121 Y124.939 E398.58857
G1 X80.079 Y126.099 E398.70439
G1 X80.079 Y126.395 E398.73392
G1 X129.454 Y77.02 E405.70127
G1 X129.777 Y77.103 E405.73455
G1 X130.529 Y77.359 E405.81381
G1 X80.079 Y127.809 E412.93285
G1 X80.084 Y129.218 E413.07344
G1 X131.529 Y77.774 E420.33282
G1 X132.361 Y78.068 E420.42086
G1 X132.598 Y78.119 E420.44505
G1 X80.166 Y130.551 E427.84378
G1 X80.194 Y130.864 E427.87513
G1 X80.346 Y131.785 E427.96827
G1 X133.847 Y78.284 E435.51784
G1 X134.524 Y78.309 E435.58544
G1 X135.167 Y78.378 E435.64997
G1 X80.615 Y132.93 E443.34784
G1 X80.964 Y133.996 E443.45976
G1 X136.401 Y78.558 E451.28259
G1 X137.526 Y78.848 E451.39852
G1 X81.38 Y134.994 E459.32132
G1 X81.845 Y135.943 E459.42677
G1 X138.586 Y79.202 E467.43354
G1 X139.581 Y79.621 E467.54126
G1 X82.385 Y136.817 E475.61224
G1 X82.962 Y137.654 E475.71368
G1 X140.512 Y80.104 E483.8346
G1 X141.393 Y80.638 E483.9374
G1 X83.603 Y138.428 E492.09219
G1 X84.285 Y139.16 E492.19202
G1 X142.218 Y81.227 E500.36699
G1 X142.988 Y81.871 E500.46715
G1 X84.992 Y139.867 E508.65101
G1 X85.699 Y140.574 E508.75078
G1 X143.714 Y82.559 E516.93732
G1 X144.421 Y83.266 E517.03709
G1 X86.407 Y141.281 E525.22356
G1 X87.114 Y141.988 E525.32332
G1 X145.128 Y83.973 E533.5098
G1 X145.835 Y84.68 E533.60956
G1 X87.821 Y142.695 E541.79603
G1 X88.528 Y143.402 E541.8958
G1 X146.542 Y85.388 E550.0822
G1 X147.25 Y86.095 E550.18204
G1 X89.235 Y144.109 E558.36851
G1 X89.942 Y144.816 E558.46828
G1 X147.957 Y86.802 E566.65475
G1 X148.664 Y87.509 E566.75451
G1 X90.649 Y145.523 E574.94099
G1 X91.356 Y146.231 E575.04082
G1 X149.371 Y88.216 E583.22737
G1 X150.078 Y88.923 E583.32713
G1 X92.063 Y146.938 E591.51367
G1 X92.77 Y147.645 E591.61344
G1 X150.785 Y89.63 E599.79998
G1 X151.492 Y90.337 E599.89975
G1 X93.478 Y148.352 E608.08622
G1 X94.185 Y149.059 E608.18599
G1 X152.199 Y91.044 E616.37246
G1 X152.906 Y91.752 E616.47229
G1 X94.892 Y149.766 E624.6587
G1 X95.599 Y150.473 E624.75846
G1 X153.613 Y92.459 E632.94486
G1 X154.321 Y93.166 E633.0447
G1 X96.306 Y151.18 E641.23117
G1 X97.013 Y151.887 E641.33094
G1 X155.028 Y93.873 E649.51741
G1 X155.735 Y94.58 E649.61718
G1 X97.72 Y152.595 E657.80372
G1 X98.427 Y153.302 E657.90348
G1 X156.442 Y95.287 E666.09003
G1 X157.149 Y95.994 E666.18979
G1 X99.134 Y154.009 E674.37634
G1 X99.842 Y154.716 E674.47617
G1 X157.856 Y96.701 E682.66264
G1 X158.563 Y97.408 E682.76241
G1 X100.549 Y155.423 E690.94888
G1 X101.256 Y156.13 E691.04865
G1 X159.27 Y98.116 E699.23505
G1 X159.977 Y98.823 E699.33482
G1 X101.963 Y156.837 E707.52122
G1 X102.67 Y157.544 E707.62098
G1 X160.685 Y99.53 E715.80746
G1 X161.392 Y100.237 E715.90722
G1 X103.377 Y158.251 E724.09369
G1 X104.084 Y158.959 E724.19353
G1 X162.099 Y100.944 E732.38007
G1 X162.806 Y101.651 E732.47984
G1 X104.791 Y159.666 E740.66638
G1 X105.498 Y160.373 E740.76615
G1 X163.513 Y102.358 E748.95269
G1 X164.22 Y103.065 E749.05245
G1 X106.206 Y161.08 E757.23893
G1 X106.913 Y161.787 E757.33869
G1 X164.927 Y103.772 E765.52517
G1 X165.634 Y104.479 E765.62493
G1 X107.62 Y162.494 E773.8114
G1 X108.327 Y163.201 E773.91117
G1 X166.341 Y105.187 E782.09757
G1 X167.049 Y105.894 E782.19741
G1 X109.034 Y163.908 E790.38388
G1 X109.741 Y164.615 E790.48364
G1 X167.756 Y106.601 E798.67012
G1 X168.463 Y107.308 E798.76988
G1 X110.448 Y165.322 E806.95636
G1 X111.155 Y166.03 E807.05619
G1 X169.17 Y108.015 E815.24273
G1 X169.877 Y108.722 E815.3425
G1 X111.884 Y166.715 E823.52594
G1 X112.656 Y167.358 E823.62619
G1 X170.584 Y109.429 E831.80053
G1 X171.263 Y110.165 E831.90044
G1 X113.487 Y167.941 E840.05326
G1 X114.368 Y168.473 E840.15595
G1 X171.9 Y110.942 E848.27427
G1 X172.476 Y111.78 E848.37573
G1 X115.305 Y168.951 E856.44318
G1 X116.302 Y169.368 E856.55101
G1 X173.01 Y112.66 E864.55312
G1 X173.475 Y113.609 E864.65857
G1 X117.369 Y169.716 E872.5758
G1 X118.257 Y169.944 E872.66728
G1 X118.508 Y169.991 E872.69276
G1 X173.884 Y114.614 E880.50698
G1 X174.229 Y115.684 E880.61916
G1 X119.737 Y170.176 E888.30857
G1 X120.174 Y170.226 E888.35246
G1 X121.065 Y170.262 E888.44143
G1 X174.492 Y116.835 E895.98056
G1 X174.632 Y117.676 E896.06563
G1 X174.668 Y118.073 E896.10541
G1 X122.388 Y170.354 E903.48275
G1 X122.764 Y170.413 E903.52073
G1 X123.521 Y170.634 E903.59941
G1 X174.745 Y119.411 E910.8276
G1 X174.747 Y120.823 E910.96849
G1 X124.468 Y171.102 E918.0634
G1 X125.464 Y171.52 E918.17118
G1 X174.755 Y122.229 E925.12667
G1 X174.711 Y123.437 E925.24729
G1 X174.682 Y123.716 E925.27528
G1 X126.499 Y171.899 E932.07442
G1 X127.624 Y172.188 E932.19032
G1 X174.607 Y125.205 E938.82013
G1 X174.649 Y125.715 E938.87119
G1 X174.759 Y126.468 E938.94712
G1 X128.832 Y172.395 E945.42791
G1 X129.587 Y172.482 E945.50375
G1 X130.137 Y172.504 E945.55867
G1 X174.883 Y127.758 E951.87281
G1 X174.892 Y129.163 E952.01301
G1 X131.528 Y172.527 E958.13214
G1 X132.941 Y172.528 E958.27313
G1 X174.892 Y130.577 E964.19287
G1 X174.892 Y131.3 E964.26501
G1 X174.866 Y132.018 E964.3367
G1 X134.366 Y172.517 E970.05161
G1 X135.486 Y172.413 E970.16385
G1 X135.963 Y172.334 E970.21209
G1 X174.704 Y133.594 E975.67879
G1 X174.566 Y134.344 E975.75489
G1 X174.284 Y135.427 E975.86655
G1 X137.8 Y171.911 E981.01484
G1 X138.598 Y171.65 E981.09861
G1 X139.541 Y171.264 E981.20028
G1 X140.169 Y170.957 E981.27003
G1 X173.315 Y137.811 E985.94729
G1 X173.104 Y138.223 E985.99348
G1 X172.538 Y139.158 E986.10254
G1 X171.871 Y140.079 E986.216
G1 X171.322 Y140.738 E986.30159
G1 X170.744 Y141.358 E986.38616
G1 X143.715 Y168.387 E990.20025
G1 X143.044 Y169.009 E990.29154
G1 X142.166 Y169.721 E990.40433
G1 X141.298 Y170.319 E990.50951
G1 X140.35 Y170.868 E990.61882
G1 F1500 E984.11882
G0 F300 X140.35 Y170.868 Z0.74
G0 F9000 X140.996 Y172.182
G0 X139.116 Y173.022
G0 X137.835 Y173.433
G0 X135.795 Y173.848
G0 X133.705 Y173.993
G0 X129.462 Y173.942
G0 X127.377 Y173.635
G0 X116.66 Y171.037
G0 X114.742 Y170.304
G0 X113.537 Y169.686
G0 X111.799 Y168.539
