;FLAVOR:Marlin
;TIME:10122
;Filament used: 4.77004m
;Layer height: 0.2
;MINX:88.835
;MINY:86.236
;MINZ:0.24
;MAXX:131.146
;MAXY:133.763
;MAXZ:151.09
;Generated with Cura_SteamEngine main
M82 ;absolute extrusion mode
; Ender 3 Custom Start G-code
G92 E0 ; Reset Extruder
G28 ; Home all axes
M104 S175 ; Start heating up the nozzle most of the way
M190 S60 ; Start heating the bed, wait until target temperature reached
M109 S200 ; Finish heating the nozzle
G1 Z2.0 F3000 ; Move Z Axis up little to prevent scratching of Heat Bed
G1 X0.1 Y20 Z0.3 F5000.0 ; Move to start position
G1 X0.1 Y200.0 Z0.3 F1500.0 E15 ; Draw the first line
G1 X0.4 Y200.0 Z0.3 F5000.0 ; Move to side a little
G1 X0.4 Y20 Z0.3 F1500.0 E30 ; Draw the second line
G92 E0 ; Reset Extruder
G1 Z2.0 F3000 ; Move Z Axis up little to prevent scratching of Heat Bed
G1 X5 Y20 Z0.3 F5000.0 ; Move over to prevent blob squish
G92 E0
G92 E0
G1 F1500 E-6.5
;LAYER_COUNT:750
;LAYER:-6
M107
G0 F9000 X93.677 Y92.106 Z0.24
;TYPE:SUPPORT-INTERFACE
G1 F1500 E0
G1 F1125 X92.946 Y92.975 E0.09065
G1 X92.313 Y93.86 E0.1775
G1 X91.73 Y94.83 E0.26784
G1 X91.28 Y95.705 E0.34638
G1 X90.861 Y96.69 E0.43183
G1 X90.521 Y97.693 E0.51637
G1 X90.236 Y98.803 E0.60784
G1 X90.073 Y99.684 E0.67936
G1 X89.948 Y100.76 E0.76583
G1 X89.901 Y101.909 E0.85763
G1 X89.901 Y104.383 E1.05511
G1 X89.908 Y104.78 E1.08681
G1 X89.989 Y105.937 E1.17939
G1 X90.133 Y106.91 E1.25791
G1 X90.377 Y108.026 E1.34909
G1 X90.681 Y109.035 E1.43321
G1 X90.856 Y109.871 E1.50139
G1 X90.9 Y110.536 E1.55459
G1 X90.901 Y118.152 E2.16253
G1 X90.908 Y118.548 E2.19415
G1 X90.989 Y119.703 E2.28657
G1 X91.133 Y120.678 E2.36525
G1 X91.379 Y121.803 E2.45717
G1 X91.681 Y122.811 E2.54117
G1 X92.093 Y123.872 E2.63202
G1 X92.486 Y124.709 E2.70583
G1 X93.001 Y125.639 E2.79069
G1 X93.623 Y126.587 E2.8812
G1 X94.288 Y127.451 E2.96823
G1 X95.056 Y128.296 E3.05938
G1 X95.705 Y128.923 E3.13141
G1 X96.576 Y129.655 E3.22223
G1 X97.453 Y130.282 E3.30829
G1 X98.43 Y130.87 E3.39931
G1 X99.31 Y131.322 E3.47828
G1 X100.295 Y131.74 E3.5637
G1 X101.299 Y132.08 E3.64831
G1 X102.403 Y132.364 E3.73931
G1 X103.285 Y132.527 E3.8109
G1 X104.359 Y132.652 E3.89721
G1 X105.492 Y132.699 E3.98773
G1 X106.051 Y132.7 E4.03235
G1 X106.595 Y132.69 E4.07579
G1 X107.666 Y132.613 E4.1615
G1 X108.712 Y132.462 E4.24586
G1 X109.003 Y132.408 E4.26949
G1 X109.017 Y132.419 E4.27091
G1 X109.631 Y132.325 E4.32049
G1 X110.297 Y132.321 E4.37365
G1 X110.984 Y132.402 E4.42887
G1 X111.745 Y132.542 E4.49064
G1 X112.884 Y132.663 E4.58207
G1 X113.866 Y132.698 E4.66051
G1 X114.948 Y132.692 E4.74688
G1 X116.103 Y132.611 E4.8393
G1 X117.078 Y132.467 E4.91798
G1 X118.203 Y132.221 E5.0099
G1 X119.211 Y131.918 E5.09392
G1 X120.288 Y131.5 E5.18614
G1 X121.109 Y131.114 E5.25856
G1 X122.039 Y130.599 E5.34341
G1 X122.987 Y129.976 E5.43397
G1 X123.856 Y129.308 E5.52146
G1 X124.696 Y128.544 E5.6121
G1 X125.323 Y127.895 E5.68413
G1 X126.053 Y127.026 E5.77473
G1 X126.691 Y126.134 E5.86227
G1 X127.27 Y125.17 E5.95203
G1 X127.722 Y124.29 E6.031
G1 X128.144 Y123.297 E6.11713
G1 X128.48 Y122.301 E6.20104
G1 X128.764 Y121.197 E6.29203
G1 X128.927 Y120.315 E6.36363
G1 X129.052 Y119.241 E6.44994
G1 X129.1 Y118.092 E6.54174
G1 X129.1 Y110.534 E7.14505
G1 X129.117 Y110.119 E7.1782
G1 X129.207 Y109.47 E7.23051
G1 X129.386 Y108.813 E7.28486
G1 X129.501 Y108.454 E7.31495
G1 X129.764 Y107.429 E7.39942
G1 X129.942 Y106.463 E7.47783
G1 X130.063 Y105.325 E7.56918
G1 X130.1 Y104.324 E7.64914
G1 X130.1 Y102.069 E7.82915
G1 X130.092 Y101.452 E7.8784
G1 X130.011 Y100.292 E7.97122
G1 X129.867 Y99.323 E8.04942
G1 X129.621 Y98.197 E8.14142
G1 X129.316 Y97.179 E8.22625
G1 X128.9 Y96.112 E8.31767
G1 X128.514 Y95.291 E8.39009
G1 X127.999 Y94.361 E8.47495
G1 X127.378 Y93.415 E8.56528
G1 X126.708 Y92.544 E8.653
G1 X125.944 Y91.704 E8.74364
G1 X125.295 Y91.077 E8.81567
G1 X124.426 Y90.347 E8.90626
G1 X123.548 Y89.718 E8.99248
G1 X122.57 Y89.13 E9.08357
G1 X121.69 Y88.678 E9.16254
G1 X120.705 Y88.26 E9.24795
G1 X119.701 Y87.92 E9.33257
G1 X118.597 Y87.636 E9.42356
G1 X117.715 Y87.473 E9.49516
G1 X116.641 Y87.348 E9.58147
G1 X115.509 Y87.301 E9.67191
G1 X104.45 Y87.301 E10.55469
G1 X104.054 Y87.308 E10.5863
G1 X102.894 Y87.389 E10.67912
G1 X101.925 Y87.533 E10.75732
G1 X100.879 Y87.761 E10.84278
G1 X99.79 Y88.08 E10.93336
G1 X98.712 Y88.5 E11.02571
G1 X97.891 Y88.886 E11.09813
G1 X96.961 Y89.401 E11.18299
G1 X96.01 Y90.025 E11.27378
G1 X95.152 Y90.685 E11.36019
G1 X94.304 Y91.456 E11.45168
G1 X93.677 Y92.106 E11.52377
G0 F9000 X94.298 Y92.035
G1 F1125 X127.028 Y124.765 E15.21862
G0 F9000 X126.171 Y126.171
G1 F1125 X93.243 Y93.243 E18.93581
G0 F9000 X92.335 Y94.598
G1 F1125 X125.18 Y127.443 E22.64364
G0 F9000 X124.057 Y128.583
G1 F1125 X91.554 Y96.079 E26.31292
G0 F9000 X90.933 Y97.721
G1 F1125 X122.814 Y129.602 E29.91192
G0 F9000 X121.427 Y130.478
G1 F1125 X90.503 Y99.554 E33.40289
G0 F9000 X90.312 Y101.626
G1 F1125 X119.904 Y131.218 E36.74349
G0 F9000 X118.22 Y131.796
G1 F1125 X90.3 Y103.876 E39.89534
G0 F9000 X90.444 Y106.283
G1 F1125 X116.332 Y132.171 E42.8178
G0 F9000 X114.193 Y132.295
G1 F1125 X91.131 Y109.233 E45.42124
G0 F9000 X91.299 Y111.664
G1 F1125 X111.775 Y132.14 E47.73275
G0 F9000 X109.337 Y131.965
G1 F1125 X91.299 Y113.926 E49.76909
G0 F9000 X91.299 Y116.189
G1 F1125 X107.343 Y132.233 E51.58027
G0 F9000 X105.129 Y132.282
G1 F1125 X91.306 Y118.459 E53.14073
G0 F9000 X91.621 Y121.037
G1 F1125 X102.571 Y131.987 E54.37686
G0 F9000 X99.069 Y130.747
G1 F1125 X92.836 Y124.515 E55.08044
G1 F1500 E48.58044
G0 F9000 X91.511 Y125.139
G0 X90.713 Y123.259
G0 X90.327 Y121.978
G0 X89.945 Y119.92
G0 X88.835 Y104.28
G0 X88.887 Y100.669
G0 X89.194 Y98.584
G0 X89.536 Y97.28
G0 X90.269 Y95.362
G0 X90.887 Y94.157
G0 X92.034 Y92.419
G0 X92.892 Y91.386
G0 X94.397 Y89.932
G0 X95.47 Y90.945
G1 F1500 E55.08044
G1 F1125 X127.743 Y123.217 E58.72364
G0 F9000 X128.275 Y121.487
G1 F1125 X96.783 Y89.995 E62.27873
G0 F9000 X98.222 Y89.171
G1 F1125 X128.612 Y119.561 E65.70942
G0 F9000 X128.699 Y117.385
G1 F1125 X99.813 Y88.5 E68.97026
G0 F9000 X101.592 Y88.015
G1 F1125 X128.699 Y115.122 E72.03033
G0 F9000 X128.699 Y112.859
G1 F1125 X103.581 Y87.742 E74.86581
G0 F9000 X105.802 Y87.701
G1 F1125 X128.699 Y110.597 E77.45057
G0 F9000 X129.017 Y108.653
G1 F1125 X108.065 Y87.701 E79.81581
G0 F9000 X110.328 Y87.701
G1 F1125 X129.465 Y106.838 E81.97616
G0 F9000 X129.682 Y104.792
G1 F1125 X112.591 Y87.701 E83.90554
G0 F9000 X114.853 Y87.701
G1 F1125 X129.699 Y102.546 E85.58143
G0 F9000 X129.587 Y100.172
G1 F1125 X117.236 Y87.82 E86.97577
G0 F9000 X120.184 Y88.506
M104 S200
G1 F1125 X128.904 Y97.225 E87.96011
G1 F1500 E81.46011
G0 F300 X128.904 Y97.225 Z0.54
G0 F9000 X130.271 Y96.7
G0 X129.466 Y94.814
G0 X128.819 Y93.66
G0 X127.599 Y91.956
G0 X126.703 Y90.955
G0 X125.148 Y89.562
G0 X124.043 Y88.774
G0 X122.249 Y87.768
G0 X120.985 Y87.231
G0 X118.988 Y86.632
G0 X117.672 Y86.391
G0 X115.487 Y86.236
G0 X103.81 Y86.254
G0 X101.742 Y86.483
G0 X100.427 Y86.779
G0 X98.461 Y87.45
G0 X97.243 Y88.022
G0 X95.477 Y89.101
G0 X96.223 Y90.361
;TIME_ELAPSED:69.413226
;LAYER:-5
;TYPE:SUPPORT
G1 F1500 E87.96011
G1 F1125 X95.358 Y91.036 E88.06959
G1 X94.576 Y91.746 E88.17498
G1 X93.982 Y92.362 E88.26036
G1 X93.315 Y93.155 E88.36376
G1 X92.776 Y93.899 E88.45543
G1 X96.496 Y90.18 E88.98029
G1 X97.029 Y89.826 E89.04413
G1 X98.003 Y89.273 E89.15589
G1 X98.861 Y88.869 E89.25052
G1 X99.448 Y88.641 E89.31335
G1 X91.228 Y96.861 E90.47328
G1 X90.894 Y97.835 E90.57602
G1 X90.628 Y98.876 E90.68323
G1 X101.468 Y88.036 E92.21287
G1 X101.837 Y87.954 E92.25059
G1 X102.939 Y87.787 E92.3618
G1 X103.146 Y87.772 E92.38251
G1 X90.378 Y100.54 E94.18422
G1 X90.335 Y100.935 E94.22386
G1 X90.299 Y102.033 E94.33348
G1 X104.633 Y87.699 E96.35616
G1 X106.047 Y87.699 E96.49725
G1 X90.299 Y103.447 E98.71946
G1 X90.299 Y104.276 E98.80218
G1 X90.314 Y104.846 E98.85908
G1 X107.461 Y87.699 E101.2787
G1 X108.876 Y87.699 E101.41989
G1 X90.425 Y106.15 E104.02353
G1 X90.549 Y106.966 E104.10588
G1 X90.637 Y107.352 E104.14539
G1 X110.289 Y87.7 E106.9185
G1 X111.703 Y87.7 E107.05959
G1 X90.929 Y108.474 E109.99102
G1 X91.064 Y108.921 E110.03761
G1 X91.208 Y109.609 E110.10775
G1 X113.117 Y87.7 E113.19935
G1 X114.532 Y87.7 E113.34054
G1 X91.3 Y110.932 E116.61882
G1 X91.3 Y112.346 E116.75991
G1 X115.928 Y87.718 E120.23519
G1 X116.604 Y87.745 E120.30269
G1 X117.241 Y87.819 E120.36668
G1 X91.3 Y113.76 E124.02724
G1 X91.3 Y115.174 E124.16833
G1 X118.459 Y88.015 E128.00076
G1 X119.587 Y88.302 E128.11689
G1 X91.3 Y116.589 E132.10849
G1 X91.3 Y118.003 E132.24958
G1 X120.634 Y88.669 E136.38893
G1 X121.63 Y89.087 E136.49671
G1 X91.365 Y119.352 E140.76743
G1 X91.387 Y119.668 E140.79903
G1 X91.53 Y120.602 E140.89331
G1 X122.55 Y89.581 E145.27064
G1 X123.43 Y90.116 E145.3734
G1 X91.788 Y121.758 E149.83843
G1 X92.11 Y122.849 E149.95193
G1 X124.244 Y90.716 E154.48632
G1 X125.012 Y91.362 E154.58645
G1 X92.524 Y123.85 E159.17086
G1 X92.975 Y124.813 E159.27696
G1 X125.727 Y92.061 E163.89862
G1 X126.398 Y92.804 E163.99852
G1 X93.51 Y125.692 E168.63937
G1 X94.077 Y126.539 E168.74107
G1 X127.017 Y93.599 E173.38926
G1 X127.582 Y94.448 E173.49102
G1 X94.71 Y127.32 E178.12962
G1 X95.385 Y128.059 E178.22948
G1 X128.094 Y95.351 E182.84501
G1 X128.547 Y96.312 E182.95101
G1 X96.115 Y128.744 E187.52752
G1 X96.884 Y129.39 E187.62773
G1 X128.943 Y97.331 E192.1516
G1 X129.263 Y98.425 E192.26534
G1 X97.715 Y129.973 E196.7171
G1 X98.596 Y130.505 E196.81979
G1 X129.5 Y99.601 E201.18068
G1 X129.611 Y100.327 E201.25396
G1 X129.648 Y100.868 E201.30807
G1 X99.534 Y130.982 E205.55748
G1 X100.532 Y131.398 E205.66537
G1 X129.698 Y102.232 E209.781
G1 X129.698 Y103.646 E209.92209
G1 X101.599 Y131.745 E213.88717
G1 X102.475 Y131.97 E213.97741
G1 X102.739 Y132.019 E214.0042
G1 X129.685 Y105.073 E217.80657
G1 X129.544 Y106.418 E217.94151
G1 X129.496 Y106.676 E217.9677
G1 X103.968 Y132.204 E221.56998
G1 X104.395 Y132.253 E221.61286
G1 X105.298 Y132.289 E221.70303
G1 X129.043 Y108.544 E225.05371
G1 X128.814 Y109.387 E225.14087
G1 X128.715 Y110.102 E225.2129
G1 X128.707 Y110.294 E225.23207
G1 X106.722 Y132.279 E228.33439
G1 X107.634 Y132.213 E228.42563
G1 X108.299 Y132.117 E228.49267
G1 X128.699 Y111.717 E231.37133
G1 X128.699 Y113.131 E231.51242
G1 X109.907 Y131.922 E234.16411
G1 X110.329 Y131.92 E234.20621
G1 X111.219 Y132.025 E234.29563
G1 X128.699 Y114.545 E236.76225
G1 X128.699 Y115.959 E236.90334
G1 X112.443 Y132.215 E239.19724
G1 X112.772 Y132.253 E239.23028
G1 X113.779 Y132.294 E239.33085
G1 X128.699 Y117.374 E241.43622
G1 X128.699 Y118.071 E241.50577
G1 X128.672 Y118.815 E241.58005
G1 X115.215 Y132.272 E243.47898
G1 X116.072 Y132.212 E243.5647
G1 X116.799 Y132.101 E243.63808
G1 X128.505 Y120.396 E245.28985
G1 X128.373 Y121.115 E245.3628
G1 X128.087 Y122.227 E245.47736
G1 X118.648 Y131.667 E246.80938
G1 X119.079 Y131.54 E246.85421
G1 X120.138 Y131.129 E246.96756
G1 X121.017 Y130.712 E247.06463
G1 X127.095 Y124.634 E247.92231
G1 X126.911 Y124.993 E247.96256
G1 X126.345 Y125.93 E248.07178
G1 X125.683 Y126.843 E248.18431
G1 X125.019 Y127.634 E248.28736
G1 X124.422 Y128.252 E248.3731
G1 X123.641 Y128.962 E248.47842
G1 X122.776 Y129.638 E248.58796
G1 X121.97 Y130.172 E248.68443
G1 F1500 E242.18443
G0 F300 X121.97 Y130.172 Z0.74
G0 F9000 X122.582 Y131.515
G0 X120.717 Y132.475
G0 X119.458 Y132.956
G0 X117.434 Y133.485
G0 X116.121 Y133.676
G0 X113.84 Y133.763
G0 X104.443 Y133.726
G0 X103.117 Y133.579
G0 X101.09 Y133.127
G0 X99.8 Y132.687
G0 X98.278 Y131.974
G0 X96.987 Y131.245
G0 X97.748 Y129.992
;TIME_ELAPSED:157.763475
;LAYER:-4
;TYPE:SUPPORT-INTERFACE
G1 F1500 E248.68443
G1 X93.634 Y125.878 E248.87794
G1 X94.004 Y126.429 E248.90001
G1 X94.637 Y127.24 E248.93423
G1 X95.346 Y128.022 E248.96934
G1 X95.963 Y128.616 E248.99782
G1 X96.756 Y129.283 E249.03229
G1 X97.669 Y129.945 E249.0698
G1 X98.606 Y130.51 E249.10619
G1 X99.07 Y130.748 E249.12353
G1 X92.834 Y124.513 E249.41683
G1 X92.454 Y123.702 E249.44662
G1 X92.369 Y123.482 E249.45447
G1 X100.11 Y131.222 E249.81856
G1 X100.504 Y131.388 E249.83278
G1 X101.013 Y131.56 E249.85065
G1 X92.029 Y122.576 E250.27323
G1 X91.792 Y121.773 E250.30107
G1 X101.82 Y131.801 E250.77276
G1 X102.583 Y131.998 E250.79897
G1 X91.614 Y121.029 E251.31492
G1 X91.55 Y120.741 E251.32473
G1 X91.489 Y120.338 E251.33829
G1 X103.267 Y132.117 E251.89231
G1 X103.912 Y132.197 E251.91393
G1 X91.387 Y119.671 E252.50309
G1 X91.344 Y119.063 E252.52336
G1 X104.54 Y132.259 E253.14406
G1 X105.129 Y132.282 E253.16367
G1 X91.306 Y118.459 E253.81386
G1 X91.3 Y117.887 E253.83288
G1 X105.711 Y132.298 E254.51073
G1 X106.273 Y132.294 E254.52942
G1 X91.3 Y117.321 E255.23371
G1 X91.3 Y116.756 E255.2525
G1 X106.815 Y132.271 E255.98228
G1 X107.343 Y132.233 E255.99989
G1 X91.3 Y116.19 E256.7545
G1 X91.3 Y115.624 E256.77332
G1 X107.856 Y132.18 E257.55207
G1 X108.349 Y132.108 E257.56864
G1 X91.3 Y115.059 E258.37057
G1 X91.3 Y114.493 E258.3894
G1 X108.837 Y132.03 E259.21428
G1 X109.313 Y131.941 E259.23039
G1 X91.3 Y113.927 E260.07769
G1 X91.3 Y113.361 E260.09651
G1 X109.861 Y131.922 E260.96957
G1 X110.424 Y131.92 E260.98829
G1 X91.3 Y112.796 E261.88783
G1 X91.3 Y112.23 E261.90665
G1 X111.082 Y132.012 E262.83714
G1 X111.771 Y132.136 E262.86042
G1 X91.3 Y111.664 E263.82334
G1 X91.3 Y111.099 E263.84213
G1 X112.411 Y132.21 E264.83513
G1 X112.772 Y132.253 E264.84722
G1 X113.029 Y132.262 E264.85577
G1 X91.299 Y110.532 E265.87788
G1 X91.259 Y109.927 E265.89805
G1 X113.619 Y132.286 E266.94977
G1 X113.886 Y132.298 E266.95866
G1 X114.194 Y132.296 E266.96891
G1 X91.129 Y109.231 E268.05381
G1 X91.064 Y108.921 E268.06435
G1 X90.924 Y108.46 E268.08037
G1 X114.767 Y132.303 E269.20187
G1 X115.295 Y132.265 E269.21948
G1 X90.711 Y107.682 E270.37581
G1 X90.546 Y106.951 E270.40074
G1 X115.842 Y132.247 E271.59058
G1 X116.333 Y132.172 E271.6071
G1 X90.445 Y106.284 E272.8248
G1 X90.387 Y105.901 E272.83768
G1 X90.368 Y105.642 E272.84632
G1 X116.823 Y132.097 E274.09068
G1 X117.313 Y132.021 E274.10717
G1 X90.326 Y105.034 E275.37656
G1 X90.308 Y104.761 E275.38566
G1 X90.302 Y104.444 E275.3962
G1 X117.767 Y131.909 E276.68807
G1 X118.217 Y131.794 E276.70352
G1 X90.299 Y103.876 E278.0167
G1 X90.299 Y103.31 E278.03552
G1 X118.654 Y131.665 E279.36926
G1 X119.09 Y131.535 E279.38439
G1 X90.299 Y102.744 E280.73863
G1 X90.299 Y102.179 E280.75742
G1 X119.498 Y131.377 E282.13083
G1 X119.905 Y131.219 E282.14535
G1 X90.31 Y101.623 E283.53743
G1 X90.33 Y101.078 E283.55557
G1 X120.302 Y131.05 E284.96536
G1 X120.687 Y130.869 E284.97951
G1 X90.375 Y100.557 E286.40529
G1 X90.429 Y100.046 E286.42238
G1 X121.067 Y130.683 E287.86348
G1 X121.428 Y130.479 E287.87727
G1 X90.502 Y99.553 E289.33193
G1 X90.59 Y99.075 E289.3481
G1 X121.789 Y130.274 E290.81561
G1 X122.139 Y130.059 E290.82927
G1 X90.694 Y98.614 E292.30834
G1 X90.81 Y98.164 E292.3238
G1 X122.48 Y129.833 E293.81344
G1 X122.817 Y129.605 E293.82697
G1 X90.932 Y97.72 E295.32674
G1 X91.076 Y97.299 E295.34154
G1 X123.134 Y129.357 E296.84945
G1 X123.452 Y129.109 E296.86286
G1 X91.221 Y96.877 E298.37893
G1 X91.387 Y96.479 E298.39328
G1 X123.761 Y128.852 E299.91603
G1 X124.057 Y128.583 E299.92933
G1 X91.554 Y96.08 E301.45817
G1 X91.734 Y95.694 E301.47234
G1 X124.358 Y128.318 E303.00687
G1 X124.636 Y128.03 E303.02018
G1 X91.926 Y95.32 E304.55876
G1 X92.121 Y94.949 E304.5727
G1 X124.914 Y127.743 E306.11521
G1 X125.18 Y127.443 E306.12854
G1 X92.334 Y94.597 E307.67352
G1 X92.547 Y94.244 E307.68723
G1 X125.438 Y127.135 E309.23432
G1 X125.696 Y126.827 E309.24769
G1 X92.772 Y93.903 E310.79633
G1 X93.009 Y93.575 E310.80979
G1 X125.933 Y126.499 E312.35843
G1 X126.171 Y126.171 E312.37191
G1 X93.242 Y93.242 E313.92079
G1 X93.5 Y92.935 E313.93413
G1 X126.402 Y125.836 E315.48172
G1 X126.615 Y125.484 E315.4954
G1 X93.758 Y92.627 E317.04089
G1 X94.019 Y92.322 E317.05424
G1 X126.836 Y125.139 E318.59785
G1 X127.028 Y124.766 E318.61181
G1 X94.297 Y92.034 E320.1514
G1 X94.575 Y91.747 E320.16469
G1 X127.22 Y124.392 E321.70021
G1 X127.411 Y124.017 E321.7142
G1 X94.872 Y91.478 E323.24474
G1 X95.168 Y91.208 E323.25806
G1 X127.574 Y123.614 E324.78234
