;FLAVOR:Marlin
;TIME:20860
;Filament used: 19.6481m
;Layer height: 0.2
;MINX:10.159
;MINY:6.375
;MINZ:0.24
;MAXX:204.093
;MAXY:207.393
;MAXZ:16.09
;Generated with Cura_SteamEngine main
M82 ;absolute extrusion mode
; Ender 3 Custom Start G-code
G92 E0 ; Reset Extruder
G28 ; Home all axes
M104 S175 ; Start heating up the nozzle most of the way
M190 S60 ; Start heating the bed, wait until target temperature reached
M109 S200 ; Finish heating the nozzle
G1 Z2.0 F3000 ; Move Z Axis up little to prevent scratching of Heat Bed
G1 X0.1 Y20 Z0.3 F5000.0 ; Move to start position
G1 X0.1 Y200.0 Z0.3 F1500.0 E15 ; Draw the first line
G1 X0.4 Y200.0 Z0.3 F5000.0 ; Move to side a little
G1 X0.4 Y20 Z0.3 F1500.0 E30 ; Draw the second line
G92 E0 ; Reset Extruder
G1 Z2.0 F3000 ; Move Z Axis up little to prevent scratching of Heat Bed
G1 X5 Y20 Z0.3 F5000.0 ; Move over to prevent blob squish
G92 E0
G92 E0
G1 F1500 E-6.5
;LAYER_COUNT:75
;LAYER:-6
M107
G0 F9000 X96.958 Y58.771 Z0.24
;TYPE:SUPPORT-INTERFACE
G1 F1500 E0
G1 F1125 X95.817 Y61.355 E0.22548
G1 X95.39 Y62.43 E0.31781
G1 X83.818 Y94.939 E3.07233
G1 X83.674 Y95.3 E3.10335
G1 X83.366 Y95.994 E3.16396
G1 X82.95 Y96.752 E3.23298
G1 X82.533 Y97.304 E3.2882
G1 X82.054 Y97.86 E3.34678
G1 X81.78 Y98.154 E3.37886
G1 X38.123 Y141.811 E8.30724
G1 X37.707 Y142.246 E8.35529
G1 X36.996 Y143.082 E8.44289
G1 X36.359 Y143.949 E8.52877
G1 X35.84 Y144.768 E8.60617
G1 X35.337 Y145.705 E8.69106
G1 X34.898 Y146.689 E8.77707
G1 X34.532 Y147.7 E8.8629
G1 X34.237 Y148.782 E8.95242
G1 X34.038 Y149.755 E9.0317
G1 X33.913 Y150.736 E9.11064
G1 X33.845 Y151.875 E9.20172
G1 X33.863 Y152.86 E9.28036
G1 X33.954 Y153.916 E9.36497
G1 X34.021 Y154.428 E9.40619
G1 X34.044 Y155.128 E9.46209
G1 X33.986 Y155.782 E9.5145
G1 X33.843 Y156.436 E9.56794
G1 X33.606 Y157.1 E9.62422
G1 X33.286 Y157.727 E9.68041
G1 X32.921 Y158.267 E9.73244
G1 X32.479 Y158.767 E9.78571
G1 X15.495 Y175.754 E11.70318
G1 X15.084 Y176.184 E11.75066
G1 X14.416 Y176.961 E11.83246
G1 X13.732 Y177.89 E11.92455
G1 X13.219 Y178.699 E12.00101
G1 X12.71 Y179.647 E12.0869
G1 X12.275 Y180.62 E12.17198
G1 X11.935 Y181.559 E12.2517
G1 X11.61 Y182.726 E12.3484
G1 X11.412 Y183.69 E12.42696
G1 X11.276 Y184.758 E12.5129
G1 X11.218 Y185.822 E12.59796
G1 X11.236 Y186.798 E12.67588
G1 X11.335 Y187.937 E12.76714
G1 X11.496 Y188.913 E12.8461
G1 X11.759 Y190.029 E12.93763
G1 X12.088 Y191.052 E13.02341
G1 X12.516 Y192.1 E13.11377
G1 X12.957 Y192.995 E13.19341
G1 X13.49 Y193.904 E13.27753
G1 X14.098 Y194.787 E13.36311
G1 X14.77 Y195.625 E13.44885
G1 X15.508 Y196.42 E13.53544
G1 X21.144 Y202.057 E14.17174
G1 X21.576 Y202.47 E14.21944
G1 X22.348 Y203.135 E14.30078
G1 X23.21 Y203.773 E14.38638
G1 X24.104 Y204.339 E14.47085
G1 X25.117 Y204.878 E14.56244
G1 X26.032 Y205.286 E14.64241
G1 X27.017 Y205.639 E14.72594
G1 X28.117 Y205.942 E14.81701
G1 X29.084 Y206.14 E14.89581
G1 X30.069 Y206.266 E14.97507
G1 X31.209 Y206.334 E15.06624
G1 X32.19 Y206.316 E15.14456
G1 X33.329 Y206.217 E15.23582
G1 X34.303 Y206.056 E15.31462
G1 X35.338 Y205.811 E15.39952
G1 X36.437 Y205.467 E15.49145
G1 X37.494 Y205.034 E15.58263
G1 X38.317 Y204.628 E15.65588
G1 X39.292 Y204.066 E15.74571
G1 X40.181 Y203.454 E15.83187
G1 X41.018 Y202.782 E15.91755
G1 X41.788 Y202.069 E16.00132
G1 X55.952 Y187.907 E17.60016
G1 X56.676 Y187.303 E17.67542
G1 X57.259 Y186.949 E17.72987
G1 X57.896 Y186.669 E17.78541
G1 X58.549 Y186.475 E17.83979
G1 X59.204 Y186.367 E17.89278
G1 X59.923 Y186.342 E17.95021
G1 X60.575 Y186.4 E18.00246
G1 X61.25 Y186.549 E18.05764
G1 X61.887 Y186.777 E18.11165
G1 X62.521 Y187.1 E18.16844
G1 X63.085 Y187.484 E18.22291
G1 X63.561 Y187.907 E18.27374
G1 X69.934 Y194.277 E18.99301
G1 X70.366 Y194.689 E19.04066
G1 X71.197 Y195.398 E19.12786
G1 X72.005 Y196 E19.20829
G1 X72.889 Y196.559 E19.29178
G1 X73.829 Y197.064 E19.37696
G1 X74.802 Y197.499 E19.46204
G1 X75.741 Y197.839 E19.54175
G1 X76.909 Y198.164 E19.63853
G1 X77.872 Y198.362 E19.71701
G1 X78.94 Y198.498 E19.80295
G1 X80.004 Y198.556 E19.88801
G1 X80.98 Y198.538 E19.96593
G1 X82.119 Y198.439 E20.05719
G1 X83.095 Y198.278 E20.13615
G1 X84.211 Y198.015 E20.22768
G1 X85.234 Y197.686 E20.31346
G1 X86.286 Y197.256 E20.40418
G1 X87.177 Y196.817 E20.48347
G1 X88.099 Y196.276 E20.5688
G1 X89.046 Y195.617 E20.66089
G1 X89.869 Y194.948 E20.74556
G1 X90.577 Y194.291 E20.82266
G1 X180.352 Y104.517 E30.95718
G1 X181.135 Y103.674 E31.04902
G1 X182.126 Y102.518 E31.17056
G1 X182.887 Y101.555 E31.26854
G1 X183.514 Y100.616 E31.35867
G1 X184.263 Y99.404 E31.4724
G1 X184.888 Y98.303 E31.57346
G1 X185.303 Y97.409 E31.65213
G1 X185.948 Y95.884 E31.78431
G1 X186.327 Y94.872 E31.87057
G1 X186.649 Y93.767 E31.96244
G1 X187.012 Y92.312 E32.08215
G1 X187.26 Y91.122 E32.17918
G1 X187.395 Y90.056 E32.26495
G1 X187.53 Y88.56 E32.38485
G1 X187.591 Y87.337 E32.4826
G1 X187.562 Y86.262 E32.56844
G1 X187.364 Y83.212 E32.81242
G1 X187.371 Y82.432 E32.87468
G1 X187.466 Y81.767 E32.92831
G1 X187.636 Y81.138 E32.98032
G1 X187.893 Y80.508 E33.03463
G1 X188.242 Y79.896 E33.09087
G1 X188.651 Y79.352 E33.1452
G1 X189.154 Y78.763 E33.20702
G1 X189.429 Y78.467 E33.23928
G1 X198.769 Y69.127 E34.29366
G1 X199.184 Y68.693 E34.34159
G1 X199.849 Y67.921 E34.42292
G1 X200.489 Y67.062 E34.50843
G1 X201.01 Y66.237 E34.58632
G1 X201.549 Y65.246 E34.67637
G1 X201.998 Y64.241 E34.76424
G1 X202.328 Y63.328 E34.84173
G1 X202.643 Y62.221 E34.9336
G1 X202.839 Y61.256 E35.01221
G1 X202.98 Y60.191 E35.09796
G1 X203.047 Y59.058 E35.18856
G1 X203.038 Y58.508 E35.23247
G1 X203.027 Y57.99 E35.27383
G1 X202.929 Y56.931 E35.35872
G1 X202.768 Y55.962 E35.43713
G1 X202.503 Y54.84 E35.52916
G1 X202.184 Y53.851 E35.61211
G1 X201.775 Y52.834 E35.69961
G1 X201.343 Y51.956 E35.77772
G1 X200.775 Y50.976 E35.86814
G1 X200.165 Y50.091 E35.95394
G1 X199.501 Y49.262 E36.03872
G1 X198.722 Y48.426 E36.12994
G1 X197.358 Y47.063 E36.28386
G1 X197.008 Y46.725 E36.3227
G1 X196.164 Y45.993 E36.41188
G1 X195.297 Y45.351 E36.498
G1 X194.403 Y44.785 E36.58246
G1 X193.39 Y44.246 E36.67406
G1 X192.475 Y43.838 E36.75403
G1 X191.49 Y43.485 E36.83755
G1 X190.39 Y43.182 E36.92863
G1 X189.423 Y42.984 E37.00742
G1 X188.438 Y42.858 E37.08669
G1 X187.298 Y42.79 E37.17785
G1 X186.317 Y42.808 E37.25617
G1 X185.178 Y42.907 E37.34743
G1 X184.204 Y43.068 E37.42624
G1 X183.168 Y43.313 E37.51122
G1 X182.07 Y43.657 E37.60306
G1 X181.013 Y44.09 E37.69424
G1 X180.19 Y44.496 E37.7675
G1 X179.215 Y45.058 E37.85733
G1 X178.327 Y45.67 E37.94342
G1 X177.489 Y46.341 E38.02911
G1 X176.727 Y47.047 E38.11203
G1 X171.026 Y52.745 E38.75544
G1 X170.288 Y53.355 E38.83187
G1 X169.731 Y53.691 E38.8838
G1 X169.086 Y53.975 E38.94005
G1 X168.458 Y54.161 E38.99233
G1 X167.757 Y54.276 E39.04904
G1 X167.065 Y54.298 E39.10431
G1 X166.394 Y54.236 E39.1581
G1 X165.729 Y54.088 E39.21248
G1 X165.097 Y53.859 E39.26614
G1 X164.503 Y53.56 E39.31922
G1 X163.924 Y53.169 E39.37499
G1 X163.425 Y52.729 E39.4281
G1 X162.69 Y51.99 E39.5113
G1 X162.107 Y51.293 E39.58383
G1 X161.735 Y50.683 E39.64086
G1 X161.465 Y50.068 E39.69448
G1 X161.274 Y49.434 E39.74733
G1 X161.155 Y48.721 E39.80504
G1 X161.133 Y48.029 E39.8603
G1 X161.19 Y47.384 E39.91199
G1 X161.34 Y46.698 E39.96804
G1 X161.578 Y46.042 E40.02375
G1 X161.873 Y45.459 E40.0759
G1 X162.26 Y44.885 E40.13116
G1 X162.711 Y44.378 E40.18533
G1 X168.364 Y38.723 E40.8236
G1 X168.777 Y38.291 E40.87131
G1 X169.446 Y37.514 E40.95316
G1 X170.127 Y36.585 E41.0451
G1 X170.648 Y35.761 E41.12292
G1 X171.185 Y34.75 E41.2143
G1 X171.593 Y33.835 E41.29427
G1 X171.946 Y32.85 E41.3778
G1 X172.249 Y31.75 E41.46887
G1 X172.447 Y30.783 E41.54767
G1 X172.573 Y29.798 E41.62693
G1 X172.641 Y28.657 E41.71818
G1 X172.623 Y27.677 E41.79642
G1 X172.524 Y26.538 E41.88768
G1 X172.363 Y25.562 E41.96664
G1 X172.118 Y24.529 E42.05139
G1 X171.774 Y23.43 E42.14331
G1 X171.341 Y22.374 E42.23442
G1 X170.86 Y21.41 E42.32041
G1 X170.374 Y20.577 E42.3974
G1 X169.762 Y19.689 E42.48348
G1 X169.094 Y18.856 E42.56872
G1 X168.384 Y18.09 E42.65209
G1 X162.006 Y11.711 E43.37215
G1 X161.576 Y11.3 E43.41963
G1 X160.799 Y10.632 E43.50143
G1 X159.87 Y9.948 E43.59351
G1 X159.053 Y9.431 E43.67069
G1 X158.113 Y8.926 E43.75587
G1 X157.14 Y8.491 E43.84095
G1 X156.201 Y8.151 E43.92066
G1 X155.033 Y7.826 E44.01744
G1 X154.07 Y7.628 E44.09592
G1 X153.002 Y7.492 E44.18186
G1 X151.938 Y7.434 E44.26692
G1 X150.962 Y7.452 E44.34484
G1 X149.823 Y7.551 E44.4361
G1 X148.849 Y7.712 E44.51491
G1 X147.813 Y7.957 E44.59989
G1 X146.719 Y8.299 E44.69138
G1 X145.659 Y8.734 E44.78284
G1 X144.695 Y9.215 E44.86884
G1 X143.862 Y9.701 E44.94583
G1 X142.974 Y10.313 E45.03191
G1 X142.141 Y10.981 E45.11715
G1 X141.374 Y11.691 E45.20058
G1 X103.551 Y49.513 E49.47031
G1 X102.864 Y50.252 E49.55085
G1 X100.838 Y52.599 E49.79835
G1 X100.19 Y53.412 E49.88134
G1 X99.634 Y54.22 E49.95963
G1 X98.062 Y56.704 E50.19428
G1 X97.427 Y57.801 E50.29546
G1 X96.958 Y58.771 E50.38147
G0 F9000 X97.348 Y58.881
G1 F1125 X161.383 Y122.917 E57.61035
G0 F9000 X160.252 Y124.048
G1 F1125 X96.653 Y60.449 E64.78995
G0 F9000 X95.975 Y62.034
G1 F1125 X159.12 Y125.179 E71.91831
G0 F9000 X157.989 Y126.311
G1 F1125 X95.365 Y63.686 E78.9879
G0 F9000 X94.771 Y65.355
G1 F1125 X156.858 Y127.442 E85.99682
G0 F9000 X155.726 Y128.573
G1 F1125 X94.177 Y67.024 E92.945
G0 F9000 X93.583 Y68.693
G1 F1125 X154.595 Y129.705 E99.83256
G0 F9000 X153.464 Y130.836
G1 F1125 X92.989 Y70.362 E106.65945
G0 F9000 X92.395 Y72.03
G1 F1125 X152.332 Y131.968 E113.42571
G0 F9000 X151.201 Y133.099
G1 F1125 X91.801 Y73.699 E120.1313
G0 F9000 X91.207 Y75.368
G1 F1125 X150.069 Y134.23 E126.77615
G0 F9000 X148.938 Y135.362
G1 F1125 X90.613 Y77.037 E133.36038
G0 F9000 X90.019 Y78.705
G1 F1125 X147.807 Y136.493 E139.88399
G0 F9000 X146.675 Y137.624
G1 F1125 X89.425 Y80.374 E146.34686
G0 F9000 X88.831 Y82.043
G1 F1125 X145.544 Y138.756 E152.74911
G0 F9000 X144.413 Y139.887
G1 F1125 X88.237 Y83.712 E159.09069
G0 F9000 X87.643 Y85.381
G1 F1125 X143.281 Y141.019 E165.37159
G0 F9000 X142.15 Y142.15
G1 F1125 X87.049 Y87.049 E171.59187
G0 F9000 X86.455 Y88.718
G1 F1125 X141.019 Y143.281 E177.75146
G0 F9000 X139.887 Y144.413
G1 F1125 X85.861 Y90.387 E183.85039
G0 F9000 X85.267 Y92.056
G1 F1125 X138.756 Y145.544 E189.88863
G0 F9000 X137.624 Y146.675
G1 F1125 X84.673 Y93.724 E195.8662
G0 F9000 X84.07 Y95.384
G1 F1125 X136.493 Y147.807 E201.78416
G0 F9000 X135.362 Y148.938
G1 F1125 X83.321 Y96.897 E207.659
G0 F9000 X82.32 Y98.159
G1 F1125 X134.23 Y150.069 E213.51905
G0 F9000 X133.099 Y151.201
G1 F1125 X81.198 Y99.3 E219.37808
G0 F9000 X80.067 Y100.431
G1 F1125 X131.968 Y152.332 E225.23711
G0 F9000 X130.836 Y153.464
G1 F1125 X78.935 Y101.563 E231.09615
G0 F9000 X77.804 Y102.694
G1 F1125 X129.705 Y154.595 E236.95518
G0 F9000 X128.573 Y155.726
G1 F1125 X76.673 Y103.825 E242.81416
G0 F9000 X75.541 Y104.957
G1 F1125 X127.442 Y156.858 E248.67319
G0 F9000 X126.311 Y157.989
G1 F1125 X74.41 Y106.088 E254.53222
G0 F9000 X73.278 Y107.22
G1 F1125 X125.179 Y159.12 E260.3912
G0 F9000 X124.048 Y160.252
G1 F1125 X72.147 Y108.351 E266.25023
G0 F9000 X71.016 Y109.482
G1 F1125 X122.917 Y161.383 E272.10927
G0 F9000 X121.785 Y162.515
G1 F1125 X69.884 Y110.614 E277.9683
G0 F9000 X68.753 Y111.745
G1 F1125 X120.654 Y163.646 E283.82733
G0 F9000 X119.522 Y164.777
G1 F1125 X67.622 Y112.876 E289.68631
G0 F9000 X66.49 Y114.008
G1 F1125 X118.391 Y165.909 E295.54534
G0 F9000 X117.26 Y167.04
G1 F1125 X65.359 Y115.139 E301.40438
G0 F9000 X64.227 Y116.27
G1 F1125 X116.128 Y168.171 E307.26341
G0 F9000 X114.997 Y169.303
G1 F1125 X63.096 Y117.402 E313.12244
G0 F9000 X61.965 Y118.533
G1 F1125 X113.866 Y170.434 E318.98148
G0 F9000 X112.734 Y171.566
G1 F1125 X60.833 Y119.665 E324.84051
G0 F9000 X59.702 Y120.796
G1 F1125 X111.603 Y172.697 E330.69954
G0 F9000 X110.471 Y173.828
G1 F1125 X58.571 Y121.927 E336.55852
G0 F9000 X57.439 Y123.059
G1 F1125 X109.34 Y174.96 E342.41755
G0 F9000 X108.209 Y176.091
G1 F1125 X56.308 Y124.19 E348.27659
G0 F9000 X55.176 Y125.321
G1 F1125 X107.077 Y177.222 E354.13562
G0 F9000 X105.946 Y178.354
G1 F1125 X54.045 Y126.453 E359.99465
G0 F9000 X52.914 Y127.584
G1 F1125 X104.815 Y179.485 E365.85369
G0 F9000 X103.683 Y180.616
G1 F1125 X51.782 Y128.716 E371.71266
G0 F9000 X50.651 Y129.847
G1 F1125 X102.552 Y181.748 E377.5717
G0 F9000 X101.421 Y182.879
G1 F1125 X49.52 Y130.978 E383.43073
G0 F9000 X48.388 Y132.11
G1 F1125 X100.289 Y184.011 E389.28976
G0 F9000 X99.158 Y185.142
G1 F1125 X47.257 Y133.241 E395.1488
G0 F9000 X46.125 Y134.372
G1 F1125 X98.026 Y186.273 E401.00783
G0 F9000 X96.895 Y187.405
G1 F1125 X44.994 Y135.504 E406.86687
G0 F9000 X43.863 Y136.635
G1 F1125 X95.764 Y188.536 E412.7259
G0 F9000 X94.632 Y189.667
G1 F1125 X42.731 Y137.767 E418.58488
G0 F9000 X41.6 Y138.898
G1 F1125 X93.501 Y190.799 E424.44391
G0 F9000 X92.37 Y191.93
G1 F1125 X40.469 Y140.029 E430.30294
G0 F9000 X39.337 Y141.161
G1 F1125 X91.238 Y193.062 E436.16198
G0 F9000 X90.1 Y194.186
G1 F1125 X38.21 Y142.296 E442.01977
G0 F9000 X37.169 Y143.518
G1 F1125 X88.883 Y195.232 E447.85769
G0 F9000 X87.532 Y196.143
G1 F1125 X36.251 Y144.863 E453.64668
G0 F9000 X35.482 Y146.356
G1 F1125 X86.046 Y196.92 E459.35478
G0 F9000 X84.396 Y197.533
G1 F1125 X34.863 Y148 E464.94649
G0 F9000 X34.431 Y149.83
G1 F1125 X82.56 Y197.96 E470.37976
G0 F9000 X80.483 Y198.146
G1 F1125 X34.245 Y151.907 E475.59957
G0 F9000 X34.412 Y154.338
G1 F1125 X78.056 Y197.981 E480.52642
G0 F9000 X74.928 Y197.116
G1 F1125 X34.25 Y156.438 E485.11851
G0 F9000 X33.569 Y158.019
G1 F1125 X61.912 Y186.362 E488.31811
G0 F9000 X59.249 Y185.963
G1 F1125 X32.548 Y159.261 E491.3324
G0 F9000 X31.416 Y160.393
G1 F1125 X57.45 Y186.426 E494.27129
G0 F9000 X56.057 Y187.296
G1 F1125 X30.285 Y161.524 E497.18066
G0 F9000 X29.154 Y162.655
G1 F1125 X54.894 Y188.396 E500.08647
G0 F9000 X53.763 Y189.527
G1 F1125 X28.022 Y163.787 E502.99228
G0 F9000 X26.891 Y164.919
G1 F1125 X52.632 Y190.659 E505.89809
G0 F9000 X51.5 Y191.79
G1 F1125 X25.76 Y166.05 E508.80384
G0 F9000 X24.629 Y167.181
G1 F1125 X50.369 Y192.922 E511.70965
G0 F9000 X49.237 Y194.053
G1 F1125 X23.497 Y168.313 E514.6154
G0 F9000 X22.366 Y169.444
G1 F1125 X48.106 Y195.184 E517.52116
G0 F9000 X46.975 Y196.316
G1 F1125 X21.235 Y170.576 E520.42691
G0 F9000 X20.104 Y171.708
G1 F1125 X45.843 Y197.447 E523.33255
G0 F9000 X44.712 Y198.578
G1 F1125 X18.973 Y172.839 E526.23819
G0 F9000 X17.841 Y173.97
G1 F1125 X43.581 Y199.71 E529.14395
G0 F9000 X42.449 Y200.841
G1 F1125 X16.71 Y175.102 E532.04959
G0 F9000 X15.583 Y176.238
G1 F1125 X41.31 Y201.965 E534.95387
G0 F9000 X40.092 Y203.01
G1 F1125 X14.543 Y177.46 E537.83812
G0 F9000 X13.625 Y178.805
G1 F1125 X38.74 Y203.92 E540.67332
G0 F9000 X37.255 Y204.698
G1 F1125 X12.855 Y180.298 E543.4278
G0 F9000 X12.241 Y181.947
G1 F1125 X35.602 Y205.307 E546.06494
G0 F9000 X33.769 Y205.737
G1 F1125 X11.803 Y183.772 E548.54459
G0 F9000 X11.618 Y185.849
G1 F1125 X31.693 Y205.924 E550.81083
G0 F9000 X29.264 Y205.758
G1 F1125 X11.798 Y188.291 E552.7826
G0 F9000 X12.674 Y191.431
G1 F1125 X26.136 Y204.893 E554.30231
G1 F1500 E547.80231
G0 F9000 X25.716 Y206.302
G0 X27.71 Y206.94
G0 X29.012 Y207.204
G0 X31.078 Y207.393
G0 X32.432 Y207.368
G0 X34.505 Y207.103
G0 X83.493 Y199.284
G0 X85.484 Y198.723
G0 X86.73 Y198.223
G0 X88.564 Y197.239
G0 X89.698 Y196.457
G0 X91.035 Y195.298
G0 X163.553 Y122.822
G0 X162.515 Y121.785
G1 F1500 E554.30231
G1 F1125 X98.123 Y57.393 E561.57144
G0 F9000 X98.984 Y55.992
G1 F1125 X163.646 Y120.654 E568.87104
G0 F9000 X164.777 Y119.522
G1 F1125 X99.861 Y54.606 E576.19932
G0 F9000 X100.801 Y53.284
G1 F1125 X165.909 Y118.391 E583.54922
G0 F9000 X167.04 Y117.26
G1 F1125 X101.834 Y52.054 E590.91023
G0 F9000 X102.883 Y50.84
G1 F1125 X168.171 Y116.128 E598.28051
G0 F9000 X169.303 Y114.997
G1 F1125 X103.967 Y49.661 E605.6562
G0 F9000 X105.098 Y48.53
G1 F1125 X170.434 Y113.866 E613.03189
G0 F9000 X171.566 Y112.734
G1 F1125 X106.23 Y47.398 E620.40758
G0 F9000 X107.361 Y46.267
G1 F1125 X172.697 Y111.603 E627.78328
G0 F9000 X173.828 Y110.471
G1 F1125 X108.492 Y45.136 E635.15891
G0 F9000 X109.624 Y44.004
G1 F1125 X174.96 Y109.34 E642.5346
G0 F9000 X176.091 Y108.209
