;FLAVOR:Marlin
;TIME:14031
;Filament used: 10.9465m
;Layer height: 0.2
;MINX:60.335
;MINY:55.359
;MINZ:0.24
;MAXX:172.165
;MAXY:169.664
;MAXZ:21.09
;Generated with Cura_SteamEngine main
M82 ;absolute extrusion mode
; Ender 3 Custom Start G-code
G92 E0 ; Reset Extruder
G28 ; Home all axes
M104 S175 ; Start heating up the nozzle most of the way
M190 S60 ; Start heating the bed, wait until target temperature reached
M109 S200 ; Finish heating the nozzle
G1 Z2.0 F3000 ; Move Z Axis up little to prevent scratching of Heat Bed
G1 X0.1 Y20 Z0.3 F5000.0 ; Move to start position
G1 X0.1 Y200.0 Z0.3 F1500.0 E15 ; Draw the first line
G1 X0.4 Y200.0 Z0.3 F5000.0 ; Move to side a little
G1 X0.4 Y20 Z0.3 F1500.0 E30 ; Draw the second line
G92 E0 ; Reset Extruder
G1 Z2.0 F3000 ; Move Z Axis up little to prevent scratching of Heat Bed
G1 X5 Y20 Z0.3 F5000.0 ; Move over to prevent blob squish
G92 E0
G92 E0
G1 F1500 E-6.5
;LAYER_COUNT:100
;LAYER:-6
M107
G0 F9000 X82.784 Y64.438 Z0.24
;TYPE:SUPPORT-INTERFACE
G1 F1500 E0
G1 F1125 X82.232 Y65.429 E0.09055
G1 X81.802 Y66.364 E0.1727
G1 X81.584 Y66.882 E0.21756
G1 X81.335 Y67.535 E0.27335
G1 X81.017 Y68.524 E0.35627
G1 X80.766 Y69.205 E0.41421
G1 X80.436 Y69.83 E0.47063
G1 X80.04 Y70.393 E0.52557
G1 X79.571 Y70.902 E0.58082
G1 X79.065 Y71.329 E0.63367
G1 X78.485 Y71.707 E0.68893
G1 X77.826 Y72.083 E0.7495
G1 X77.007 Y72.626 E0.82794
G1 X76.146 Y73.289 E0.91468
G1 X75.304 Y74.054 E1.00549
G1 X74.677 Y74.705 E1.07764
G1 X73.945 Y75.576 E1.16846
G1 X73.318 Y76.453 E1.25452
G1 X72.733 Y77.425 E1.34508
G1 X72.283 Y78.298 E1.42348
G1 X71.891 Y79.221 E1.50352
G1 X71.523 Y80.286 E1.59347
G1 X71.236 Y81.403 E1.68553
G1 X71.058 Y82.368 E1.76386
G1 X70.948 Y83.36 E1.84353
G1 X70.9 Y84.511 E1.93549
G1 X70.9 Y85.011 E1.9754
G1 X70.849 Y85.725 E2.03254
G1 X70.706 Y86.422 E2.08934
G1 X70.481 Y87.068 E2.14394
G1 X70.175 Y87.683 E2.19877
G1 X69.813 Y88.234 E2.2514
G1 X69.373 Y88.748 E2.30541
G1 X68.851 Y89.218 E2.36148
G1 X68.4 Y89.53 E2.40525
G1 X67.503 Y90.13 E2.4914
G1 X66.645 Y90.792 E2.5779
G1 X65.804 Y91.556 E2.6686
G1 X65.177 Y92.205 E2.74064
G1 X64.447 Y93.074 E2.83123
G1 X63.809 Y93.966 E2.91877
G1 X63.23 Y94.93 E3.00854
G1 X62.778 Y95.81 E3.08751
G1 X62.36 Y96.795 E3.17292
G1 X62.02 Y97.799 E3.25753
G1 X61.736 Y98.903 E3.34853
G1 X61.573 Y99.785 E3.42013
G1 X61.448 Y100.859 E3.50644
G1 X61.4 Y102.009 E3.59831
G1 X61.401 Y118.049 E4.8787
G1 X61.408 Y118.446 E4.91039
G1 X61.489 Y119.605 E5.00313
G1 X61.633 Y120.577 E5.08157
G1 X61.878 Y121.697 E5.17309
G1 X62.216 Y122.801 E5.26525
G1 X62.6 Y123.788 E5.34979
G1 X62.981 Y124.599 E5.42132
G1 X63.539 Y125.606 E5.51321
G1 X64.129 Y126.498 E5.59858
G1 X64.789 Y127.354 E5.68487
G1 X65.554 Y128.196 E5.77568
G1 X66.205 Y128.823 E5.84782
G1 X67.077 Y129.555 E5.93871
G1 X67.956 Y130.184 E6.02499
G1 X68.318 Y130.405 E6.05884
G1 X68.912 Y130.824 E6.11687
G1 X69.407 Y131.282 E6.1707
G1 X69.855 Y131.815 E6.22628
G1 X70.236 Y132.418 E6.28321
G1 X70.518 Y133.016 E6.33599
G1 X70.728 Y133.652 E6.38946
G1 X70.859 Y134.345 E6.44575
G1 X70.9 Y134.985 E6.49695
G1 X70.908 Y135.942 E6.57334
G1 X70.989 Y137.099 E6.66592
G1 X71.133 Y138.078 E6.74491
G1 X71.379 Y139.203 E6.83684
G1 X71.682 Y140.214 E6.92108
G1 X72.1 Y141.288 E7.01308
G1 X72.486 Y142.109 E7.0855
G1 X73.001 Y143.039 E7.17036
G1 X73.62 Y143.983 E7.26047
G1 X74.289 Y144.852 E7.34801
G1 X75.056 Y145.696 E7.43904
G1 X75.705 Y146.323 E7.51108
G1 X76.576 Y147.055 E7.6019
G1 X77.361 Y147.616 E7.67892
G1 X77.856 Y147.928 E7.72562
G1 X78.232 Y148.18 E7.76176
G1 X78.786 Y148.652 E7.81985
G1 X79.237 Y149.149 E7.87342
G1 X79.614 Y149.687 E7.92586
G1 X79.951 Y150.318 E7.98297
G1 X80.182 Y150.933 E8.03541
G1 X80.336 Y151.577 E8.08826
G1 X80.414 Y152.281 E8.1448
G1 X80.457 Y153.243 E8.22167
G1 X80.5 Y153.712 E8.25927
G1 X80.712 Y155.183 E8.3779
G1 X80.951 Y156.192 E8.46067
G1 X81.062 Y156.592 E8.49381
G1 X81.507 Y157.945 E8.6075
G1 X81.921 Y158.907 E8.6911
G1 X82.059 Y159.2 E8.71696
G1 X82.595 Y160.235 E8.81
G1 X83.131 Y161.096 E8.89095
G1 X83.397 Y161.496 E8.9293
G1 X83.748 Y161.992 E8.9778
G1 X84.447 Y162.87 E9.06739
G1 X85.2 Y163.681 E9.15573
G1 X85.803 Y164.261 E9.22251
G1 X86.654 Y164.984 E9.31165
G1 X87.497 Y165.597 E9.39485
G1 X87.866 Y165.846 E9.43039
G1 X88.738 Y166.384 E9.51217
G1 X89.709 Y166.895 E9.59976
G1 X89.987 Y167.03 E9.62443
G1 X91.421 Y167.629 E9.74848
G1 X92.406 Y167.938 E9.83089
G1 X92.67 Y168.012 E9.85278
G1 X94.282 Y168.373 E9.98464
G1 X95.31 Y168.504 E10.06736
G1 X95.637 Y168.535 E10.09358
G1 X96.951 Y168.597 E10.19859
G1 X122.913 Y168.599 E12.27099
G1 X124.248 Y168.543 E12.37765
G1 X124.569 Y168.517 E12.40335
G1 X126.18 Y168.288 E12.53324
G1 X127.192 Y168.049 E12.61625
G1 X127.592 Y167.938 E12.64938
G1 X128.947 Y167.492 E12.76325
G1 X129.907 Y167.079 E12.84668
G1 X130.2 Y166.941 E12.87253
G1 X131.227 Y166.408 E12.96489
G1 X132.096 Y165.869 E13.04652
G1 X132.444 Y165.638 E13.07986
G1 X132.995 Y165.25 E13.13365
G1 X133.809 Y164.601 E13.21676
G1 X134.644 Y163.836 E13.30715
G1 X135.263 Y163.195 E13.37828
G1 X135.985 Y162.345 E13.46731
G1 X136.604 Y161.492 E13.55144
G1 X136.847 Y161.134 E13.58598
G1 X137.386 Y160.26 E13.66794
G1 X137.895 Y159.291 E13.75531
G1 X138.031 Y159.011 E13.78016
G1 X138.625 Y157.589 E13.90318
G1 X138.938 Y156.596 E13.98629
G1 X139.019 Y156.304 E14.01048
G1 X139.374 Y154.716 E14.14037
G1 X139.504 Y153.692 E14.22276
G1 X139.543 Y153.245 E14.25858
G1 X139.599 Y151.913 E14.365
G1 X139.601 Y144.964 E14.9197
G1 X139.682 Y144.059 E14.99223
G1 X139.847 Y143.378 E15.04816
G1 X140.102 Y142.731 E15.10368
G1 X140.421 Y142.137 E15.1575
G1 X140.807 Y141.596 E15.21055
G1 X141.3 Y141.067 E15.26827
G1 X141.795 Y140.652 E15.31983
G1 X142.399 Y140.267 E15.37701
G1 X143.005 Y139.982 E15.43046
G1 X143.647 Y139.771 E15.48441
G1 X144.345 Y139.64 E15.5411
G1 X144.974 Y139.6 E15.59141
G1 X154.415 Y139.6 E16.34503
G1 X155.746 Y139.543 E16.45137
G1 X156.069 Y139.517 E16.47724
G1 X157.684 Y139.287 E16.60746
G1 X158.693 Y139.049 E16.69021
G1 X159.106 Y138.935 E16.72441
G1 X160.442 Y138.493 E16.83674
G1 X161.407 Y138.079 E16.92056
G1 X161.786 Y137.898 E16.95409
G1 X162.732 Y137.407 E17.03917
G1 X163.595 Y136.869 E17.12034
G1 X163.941 Y136.638 E17.15355
G1 X164.493 Y136.25 E17.20741
G1 X165.383 Y135.541 E17.29824
G1 X166.173 Y134.808 E17.38427
G1 X166.763 Y134.197 E17.45207
G1 X167.484 Y133.348 E17.54098
G1 X168.104 Y132.492 E17.62535
G1 X168.344 Y132.136 E17.65962
G1 X168.927 Y131.191 E17.74826
G1 X169.395 Y130.293 E17.82909
G1 X169.531 Y130.013 E17.85394
G1 X170.119 Y128.605 E17.97574
G1 X170.437 Y127.595 E18.06026
G1 X170.555 Y127.158 E18.09639
G1 X170.875 Y125.709 E18.21485
G1 X171.015 Y124.595 E18.30447
G1 X171.043 Y124.246 E18.33242
G1 X171.098 Y123.023 E18.43014
G1 X171.099 Y113.465 E19.1931
G1 X171.093 Y112.994 E19.2307
G1 X171.1 Y112.544 E19.26663
G1 X171.1 Y107.659 E19.65657
G1 X171.093 Y106.981 E19.71069
G1 X171.1 Y106.53 E19.7467
G1 X171.1 Y97.05 E20.50343
G1 X171.036 Y95.661 E20.61443
G1 X170.997 Y95.237 E20.64841
G1 X170.891 Y94.413 E20.71473
G1 X170.694 Y93.391 E20.79781
G1 X170.621 Y93.077 E20.82355
G1 X170.227 Y91.683 E20.93918
G1 X169.865 Y90.737 E21.02004
G1 X169.722 Y90.397 E21.04948
G1 X169.251 Y89.392 E21.13808
G1 X168.642 Y88.315 E21.23684
G1 X167.923 Y87.24 E21.34007
G1 X167.353 Y86.512 E21.41388
G1 X167.115 Y86.223 E21.44376
G1 X166.195 Y85.219 E21.55247
G1 X165.332 Y84.422 E21.64624
G1 X164.237 Y83.557 E21.75763
G1 X163.397 Y82.997 E21.83822
G1 X163.063 Y82.789 E21.86962
G1 X161.895 Y82.138 E21.97636
G1 X160.977 Y81.721 E22.05685
G1 X160.645 Y81.583 E22.08555
G1 X159.504 Y81.17 E22.18241
G1 X158.453 Y80.887 E22.26929
G1 X158.099 Y80.805 E22.2983
G1 X157.115 Y80.609 E22.37839
G1 X156.081 Y80.481 E22.46156
G1 X155.73 Y80.452 E22.48967
G1 X154.456 Y80.401 E22.59145
G1 X144.964 Y80.399 E23.34914
G1 X144.044 Y80.316 E23.42288
G1 X143.359 Y80.147 E23.4792
G1 X142.737 Y79.902 E23.53256
G1 X142.132 Y79.576 E23.58742
G1 X141.562 Y79.165 E23.64351
G1 X141.076 Y78.712 E23.69655
G1 X140.64 Y78.189 E23.7509
G1 X140.272 Y77.611 E23.8056
G1 X139.987 Y77.007 E23.85891
G1 X139.767 Y76.34 E23.91497
G1 X139.642 Y75.672 E23.96922
G1 X139.6 Y75.025 E24.02098
G1 X139.6 Y73.074 E24.17671
G1 X139.578 Y72.254 E24.24219
G1 X139.48 Y71.151 E24.33059
G1 X139.407 Y70.587 E24.37598
G1 X139.324 Y70.038 E24.4203
G1 X139.087 Y68.905 E24.5127
G1 X138.762 Y67.808 E24.60403
G1 X138.387 Y66.814 E24.68884
G1 X138.219 Y66.411 E24.72369
G1 X137.936 Y65.777 E24.77911
G1 X137.518 Y64.958 E24.85251
G1 X136.93 Y63.978 E24.94374
G1 X136.358 Y63.175 E25.02244
G1 X136.032 Y62.745 E25.06551
G1 X135.57 Y62.174 E25.12414
G1 X134.841 Y61.373 E25.2106
G1 X134.062 Y60.633 E25.29636
G1 X133.352 Y60.045 E25.36995
G1 X132.924 Y59.712 E25.41324
G1 X132.328 Y59.279 E25.47204
G1 X131.563 Y58.784 E25.54478
G1 X130.572 Y58.232 E25.63533
G1 X129.637 Y57.802 E25.71748
G1 X129.118 Y57.584 E25.76241
G1 X128.451 Y57.329 E25.81941
G1 X127.496 Y57.022 E25.89949
G1 X126.377 Y56.755 E25.99132
G1 X125.499 Y56.607 E26.06239
G1 X124.965 Y56.534 E26.10542
G1 X123.987 Y56.437 E26.18387
G1 X123.01 Y56.401 E26.26191
G1 X97.075 Y56.401 E28.33215
G1 X96.256 Y56.422 E28.39755
G1 X95.153 Y56.52 E28.48594
G1 X94.603 Y56.591 E28.53021
G1 X94.04 Y56.676 E28.57566
G1 X92.913 Y56.913 E28.66759
G1 X91.813 Y57.237 E28.75913
G1 X90.918 Y57.572 E28.83541
G1 X90.409 Y57.781 E28.87933
G1 X89.895 Y58.008 E28.92419
G1 X88.824 Y58.557 E29.02026
G1 X87.973 Y59.074 E29.09974
G1 X87.175 Y59.641 E29.17788
G1 X86.744 Y59.967 E29.22102
G1 X86.282 Y60.337 E29.26827
G1 X85.373 Y61.159 E29.3661
G1 X84.634 Y61.938 E29.45181
G1 X84.046 Y62.649 E29.52546
G1 X83.727 Y63.058 E29.56686
G1 X83.279 Y63.672 E29.62753
G1 X82.784 Y64.438 E29.70033
G0 F9000 X82.989 Y64.887
G1 F1125 X157.071 Y138.969 E38.06335
G0 F9000 X158.932 Y138.567
G1 F1125 X83.884 Y63.519 E46.53542
G0 F9000 X84.886 Y62.258
G1 F1125 X160.611 Y137.984 E55.08397
G0 F9000 X162.148 Y137.258
G1 F1125 X86.011 Y61.12 E63.67903
G0 F9000 X87.244 Y60.091
G1 F1125 X163.562 Y136.409 E72.29446
G0 F9000 X164.86 Y135.444
G1 F1125 X88.584 Y59.169 E80.9051
G0 F9000 X90.054 Y58.375
G1 F1125 X166.044 Y134.365 E89.48351
G0 F9000 X167.11 Y133.169
G1 F1125 X91.661 Y57.72 E98.00084
G0 F9000 X93.419 Y57.215
G1 F1125 X168.051 Y131.847 E106.42595
G0 F9000 X168.88 Y130.413
G1 F1125 X95.369 Y56.903 E114.72445
G0 F9000 X97.53 Y56.801
G1 F1125 X169.581 Y128.852 E122.85819
G0 F9000 X170.141 Y127.149
G1 F1125 X99.793 Y56.801 E130.79968
G0 F9000 X102.056 Y56.801
G1 F1125 X170.526 Y125.271 E138.52916
G0 F9000 X170.69 Y123.173
G1 F1125 X104.318 Y56.801 E146.02181
G0 F9000 X106.581 Y56.801
G1 F1125 X170.697 Y120.917 E153.25978
G0 F9000 X170.697 Y118.654
G1 F1125 X108.844 Y56.801 E160.24228
G0 F9000 X111.106 Y56.801
G1 F1125 X170.698 Y116.392 E166.96948
G0 F9000 X170.698 Y114.129
G1 F1125 X113.369 Y56.801 E173.44122
G0 F9000 X115.632 Y56.801
G1 F1125 X170.699 Y111.867 E179.6576
G0 F9000 X170.699 Y109.605
G1 F1125 X117.895 Y56.801 E185.61857
G0 F9000 X120.157 Y56.801
G1 F1125 X139.283 Y75.927 E187.77768
G0 F9000 X139.199 Y73.58
G1 F1125 X122.42 Y56.801 E189.67184
G0 F9000 X124.801 Y56.919
G1 F1125 X139.082 Y71.199 E191.28394
G0 F9000 X138.509 Y68.364
G1 F1125 X127.631 Y57.486 E192.51195
G1 F1500 E186.01195
G0 F9000 X128.812 Y56.329
G0 X130.694 Y57.138
G0 X132.12 Y57.876
G0 X131.861 Y59.453
G1 F1500 E192.51195
G1 F1125 X136.57 Y64.162 E193.04354
G1 F1500 E186.54354
G0 F9000 X137.873 Y63.479
G0 X138.892 Y65.31
G0 X139.421 Y66.63
G0 X144.223 Y79.264
G0 X144.073 Y80.716
G1 F1500 E193.04354
G1 F1125 X170.697 Y107.34 E196.04909
G0 F9000 X170.699 Y105.08
G1 F1125 X146.419 Y80.8 E198.79002
G0 F9000 X148.682 Y80.8
G1 F1125 X170.699 Y102.817 E201.27549
G0 F9000 X170.699 Y100.554
G1 F1125 X150.946 Y80.801 E203.50538
G0 F9000 X153.208 Y80.801
G1 F1125 X170.699 Y98.292 E205.47992
G0 F9000 X170.65 Y95.979
G1 F1125 X155.514 Y80.844 E207.18854
G0 F9000 X158.164 Y81.231
G1 F1125 X170.27 Y93.337 E208.55517
G0 F9000 X169.003 Y89.807
G1 F1125 X161.672 Y82.476 E209.38276
G1 F1500 E202.88276
G0 F9000 X162.475 Y81.242
G0 X163.975 Y82.103
G0 X164.934 Y82.752
G0 X166.145 Y83.725
G0 X167.032 Y84.558
G0 X168.121 Y85.767
G0 X169.43 Y87.575
G0 X170.243 Y88.998
G0 X170.856 Y90.343
G0 X171.275 Y91.476
G0 X171.751 Y93.239
G0 X172.091 Y95.483
G0 X172.164 Y97.032
G0 X172.162 Y123.052
G0 X172.062 Y124.813
G0 X171.897 Y126.018
G0 X171.459 Y127.901
G0 X171.079 Y129.069
G0 X170.345 Y130.774
G0 X169.243 Y132.708
G0 X168.263 Y134.075
G0 X166.882 Y135.604
G0 X165.264 Y137.003
G0 X163.343 Y138.279
G0 X161.843 Y139.051
G0 X160.734 Y139.518
G0 X158.953 Y140.082
G0 X157.775 Y140.351
G0 X156.662 Y140.495
G0 X155.078 Y140.638
G0 X155.013 Y139.174
G1 F1500 E209.38276
G1 F1125 X82.228 Y66.389 E217.59936
G0 F9000 X81.598 Y68.021
G1 F1125 X152.776 Y139.2 E225.6346
G0 F9000 X150.514 Y139.2
G1 F1125 X80.975 Y69.661 E233.48477
G0 F9000 X80.036 Y70.985
G1 F1125 X148.251 Y139.2 E241.18546
G0 F9000 X145.988 Y139.2
G1 F1125 X78.78 Y71.991 E248.77254
G0 F9000 X77.382 Y72.857
G1 F1125 X143.85 Y139.325 E256.27602
G0 F9000 X142.187 Y139.925
G1 F1125 X76.117 Y73.855 E263.73458
G0 F9000 X74.973 Y74.973
G1 F1125 X140.903 Y140.903 E271.17732
G0 F9000 X139.935 Y142.197
G1 F1125 X73.967 Y76.23 E278.62431
G0 F9000 X73.087 Y77.612
G1 F1125 X139.319 Y143.845 E286.1012
G0 F9000 X139.201 Y145.989
G1 F1125 X72.357 Y79.145 E293.64713
G0 F9000 X71.792 Y80.843
G1 F1125 X139.2 Y148.251 E301.25673
G0 F9000 X139.199 Y150.513
G1 F1125 X71.419 Y82.732 E308.90838
G0 F9000 X71.299 Y84.876
G1 F1125 X139.164 Y152.74 E316.56951
G0 F9000 X138.948 Y154.787
G1 F1125 X70.987 Y86.826 E324.24153
G0 F9000 X70.226 Y88.328
G1 F1125 X138.512 Y156.614 E331.95025
G0 F9000 X137.907 Y158.271
G1 F1125 X69.134 Y89.499 E339.71388
G0 F9000 X67.791 Y90.418
G1 F1125 X137.174 Y159.801 E347.54643
G0 F9000 X136.315 Y161.205
G1 F1125 X66.538 Y91.428 E355.42346
G0 F9000 X65.403 Y92.556
G1 F1125 X135.336 Y162.489 E363.31811
G0 F9000 X134.243 Y163.659
G1 F1125 X64.403 Y93.819 E371.20225
G0 F9000 X63.534 Y95.212
G1 F1125 X133.03 Y164.709 E379.04761
G0 F9000 X131.7 Y165.641
G1 F1125 X62.811 Y96.752 E386.8244
G0 F9000 X62.261 Y98.465
G1 F1125 X130.256 Y166.46 E394.50026
G0 F9000 X128.688 Y167.155
G1 F1125 X61.906 Y100.373 E402.03919
G0 F9000 X61.799 Y102.529
G1 F1125 X126.961 Y167.69 E409.39519
G0 F9000 X125.051 Y168.043
G1 F1125 X61.799 Y104.791 E416.53562
G0 F9000 X61.799 Y107.054
G1 F1125 X122.941 Y168.195 E423.4378
G0 F9000 X120.679 Y168.197
G1 F1125 X61.799 Y109.317 E430.08468
G0 F9000 X61.799 Y111.58
G1 F1125 X118.417 Y168.197 E436.47615
G0 F9000 X116.154 Y168.197
G1 F1125 X61.799 Y113.842 E442.61222
G0 F9000 X61.799 Y116.105
G1 F1125 X113.891 Y168.197 E448.49281
G0 F9000 X111.628 Y168.197
G1 F1125 X61.806 Y118.374 E454.11721
G0 F9000 X62.124 Y120.956
G1 F1125 X109.365 Y168.196 E459.45012
G0 F9000 X107.102 Y168.196
G1 F1125 X63.353 Y124.447 E464.38889
G1 F1500 E457.88889
G0 F9000 X62.122 Y125.257
G0 X63.201 Y127.023
G0 X63.873 Y127.897
G0 X69.799 Y134.464
G0 X71.277 Y134.633
G1 F1500 E464.38889
G1 F1125 X104.839 Y168.196 E468.17771
G0 F9000 X102.577 Y168.196
G1 F1125 X71.383 Y137.002 E471.69916
G0 F9000 X72.001 Y139.883
G1 F1125 X100.314 Y168.196 E474.89538
G0 F9000 X98.051 Y168.196
G1 F1125 X80.5 Y150.645 E476.87669
G0 F9000 X80.859 Y153.267
G1 F1125 X95.73 Y168.137 E478.5554
G0 F9000 X93.005 Y167.676
G1 F1125 X81.311 Y155.982 E479.87552
G0 F9000 X82.771 Y159.704
M104 S200
G1 F1125 X89.286 Y166.219 E480.61099
G1 F1500 E474.11099
G0 F300 X89.286 Y166.219 Z0.54
G0 F9000 X89.226 Y167.845
G0 X91.176 Y168.667
G0 X92.597 Y169.092
G0 X94.24 Y169.441
G0 X95.69 Y169.606
G0 X97.069 Y169.664
G0 X123.081 Y169.661
G0 X124.846 Y169.557
G0 X126.523 Y169.303
G0 X127.923 Y168.952
G0 X129.434 Y168.442
G0 X131.648 Y167.391
G0 X131.03 Y166.06
;TIME_ELAPSED:340.644324
;LAYER:-5
;TYPE:SUPPORT
G1 F1500 E480.61099
G1 F1125 X131.89 Y165.525 E480.71205
G1 X132.224 Y165.303 E480.75206
G1 X132.76 Y164.924 E480.81756
G1 X133.694 Y164.171 E480.93727
G1 X134.372 Y163.542 E481.02955
G1 X134.556 Y163.36 E481.05538
G1 X134.965 Y162.927 E481.11481
G1 X135.628 Y162.148 E481.21688
