;FLAVOR:Marlin
;TIME:28853
;Filament used: 30.8215m
;Layer height: 0.2
;MINX:59.558
;MINY:59.106
;MINZ:0.24
;MAXX:175.405
;MAXY:164.559
;MAXZ:31.09
;Generated with Cura_SteamEngine main
M82 ;absolute extrusion mode
; Ender 3 Custom Start G-code
G92 E0 ; Reset Extruder
G28 ; Home all axes
M104 S175 ; Start heating up the nozzle most of the way
M190 S60 ; Start heating the bed, wait until target temperature reached
M109 S200 ; Finish heating the nozzle
G1 Z2.0 F3000 ; Move Z Axis up little to prevent scratching of Heat Bed
G1 X0.1 Y20 Z0.3 F5000.0 ; Move to start position
G1 X0.1 Y200.0 Z0.3 F1500.0 E15 ; Draw the first line
G1 X0.4 Y200.0 Z0.3 F5000.0 ; Move to side a little
G1 X0.4 Y20 Z0.3 F1500.0 E30 ; Draw the second line
G92 E0 ; Reset Extruder
G1 Z2.0 F3000 ; Move Z Axis up little to prevent scratching of Heat Bed
G1 X5 Y20 Z0.3 F5000.0 ; Move over to prevent blob squish
G92 E0
G92 E0
G1 F1500 E-6.5
;LAYER_COUNT:150
;LAYER:-6
M107
G0 F9000 X63.668 Y65.829 Z0.24
;TYPE:SUPPORT-INTERFACE
G1 F1500 E0
G1 F1125 X63.039 Y66.707 E0.08621
G1 X62.53 Y67.543 E0.16434
G1 X62.008 Y68.546 E0.2546
G1 X61.586 Y69.537 E0.34058
G1 X61.244 Y70.539 E0.4251
G1 X60.958 Y71.655 E0.51706
G1 X60.78 Y72.621 E0.59547
G1 X60.659 Y73.759 E0.68682
G1 X60.623 Y74.76 E0.76678
G1 X60.623 Y148.947 E6.6887
G1 X60.63 Y149.343 E6.72032
G1 X60.711 Y150.498 E6.81274
G1 X60.855 Y151.473 E6.89141
G1 X61.101 Y152.598 E6.98334
G1 X61.404 Y153.606 E7.06736
G1 X61.822 Y154.683 E7.15958
G1 X62.208 Y155.504 E7.23199
G1 X62.723 Y156.434 E7.31685
G1 X63.345 Y157.382 E7.40736
G1 X64.01 Y158.246 E7.49439
G1 X64.778 Y159.091 E7.58554
G1 X65.427 Y159.718 E7.65757
G1 X66.298 Y160.45 E7.74839
G1 X67.175 Y161.077 E7.83445
G1 X68.152 Y161.665 E7.92547
G1 X69.032 Y162.117 E8.00444
G1 X70.017 Y162.535 E8.08986
G1 X71.021 Y162.875 E8.17447
G1 X72.125 Y163.159 E8.26547
G1 X73.007 Y163.322 E8.33707
G1 X74.081 Y163.447 E8.42338
G1 X75.214 Y163.494 E8.51389
G1 X105.163 Y163.495 E10.90455
G1 X106.596 Y163.43 E11.01906
G1 X107.667 Y163.287 E11.10531
G1 X108.793 Y163.048 E11.19719
G1 X109.738 Y162.781 E11.27558
G1 X110.765 Y162.402 E11.36296
G1 X151.512 Y145.803 E14.87509
G1 X152.541 Y145.339 E14.9652
G1 X155.163 Y144.052 E15.19835
G1 X156.103 Y143.555 E15.28323
G1 X156.968 Y143.013 E15.36471
G1 X159.517 Y141.287 E15.61044
G1 X160.381 Y140.654 E15.69594
G1 X161.093 Y140.056 E15.77016
G1 X163.437 Y137.939 E16.02228
G1 X164.153 Y137.241 E16.1021
G1 X164.816 Y136.503 E16.18129
G1 X166.806 Y134.124 E16.42888
G1 X167.424 Y133.325 E16.50951
G1 X167.986 Y132.492 E16.58972
G1 X169.596 Y129.907 E16.83281
G1 X170.05 Y129.13 E16.90465
G1 X170.541 Y128.136 E16.99315
G1 X171.826 Y125.246 E17.24562
G1 X172.175 Y124.382 E17.32
G1 X172.524 Y123.304 E17.41045
G1 X173.336 Y120.466 E17.64608
G1 X173.564 Y119.563 E17.72042
G1 X173.779 Y118.377 E17.81664
G1 X174.2 Y115.366 E18.05932
G1 X174.302 Y114.368 E18.1394
G1 X174.339 Y113.366 E18.21944
G1 X174.339 Y110.551 E18.44415
G1 X174.339 Y110.259 E18.46746
G1 X174.31 Y109.414 E18.53495
G1 X174.197 Y108.254 E18.62798
G1 X173.773 Y105.228 E18.87189
G1 X173.591 Y104.207 E18.95468
G1 X173.333 Y103.168 E19.04013
G1 X172.485 Y100.211 E19.28569
G1 X172.241 Y99.45 E19.34948
G1 X171.826 Y98.4 E19.4396
G1 X170.59 Y95.616 E19.68275
G1 X170.141 Y94.684 E19.76533
G1 X169.59 Y93.725 E19.85362
G1 X168.01 Y91.19 E20.09206
G1 X167.494 Y90.418 E20.16618
G1 X166.766 Y89.472 E20.26147
G1 X164.851 Y87.182 E20.49976
G1 X164.179 Y86.431 E20.5802
G1 X163.39 Y85.666 E20.66793
G1 X161.144 Y83.635 E20.90965
G1 X160.332 Y82.955 E20.99419
G1 X159.575 Y82.4 E21.06912
G1 X156.977 Y80.638 E21.3197
G1 X156.131 Y80.113 E21.39917
G1 X155.262 Y79.644 E21.478
G1 X152.472 Y78.273 E21.72615
G1 X151.503 Y77.839 E21.8109
G1 X110.792 Y61.256 E25.31989
G1 X109.419 Y60.771 E25.43612
G1 X108.319 Y60.488 E25.52679
G1 X107.437 Y60.325 E25.59839
G1 X106.363 Y60.2 E25.6847
G1 X105.231 Y60.153 E25.77513
G1 X75.172 Y60.153 E28.17457
G1 X74.776 Y60.16 E28.20619
G1 X73.616 Y60.241 E28.29901
G1 X72.647 Y60.385 E28.37721
G1 X71.602 Y60.613 E28.46259
G1 X70.507 Y60.934 E28.55367
G1 X69.434 Y61.352 E28.6456
G1 X68.613 Y61.738 E28.71801
G1 X67.615 Y62.291 E28.80909
G1 X66.723 Y62.881 E28.89446
G1 X65.881 Y63.531 E28.97937
G1 X65.026 Y64.308 E29.07159
G1 X64.399 Y64.959 E29.14374
G1 X63.668 Y65.829 E29.23445
G0 F9000 X63.911 Y66.173
G1 F1125 X145.539 Y147.802 E38.44938
G0 F9000 X143.932 Y148.457
G1 F1125 X63.005 Y67.53 E47.58512
G0 F9000 X62.237 Y69.025
G1 F1125 X142.324 Y149.112 E56.62603
G0 F9000 X140.716 Y149.767
G1 F1125 X61.622 Y70.673 E65.55484
G0 F9000 X61.205 Y72.518
G1 F1125 X139.108 Y150.422 E74.34926
G0 F9000 X137.501 Y151.077
G1 F1125 X61.028 Y74.605 E82.98214
G0 F9000 X61.022 Y76.861
G1 F1125 X135.893 Y151.732 E91.43423
G0 F9000 X134.285 Y152.387
G1 F1125 X61.022 Y79.124 E99.70479
G0 F9000 X61.022 Y81.387
G1 F1125 X132.677 Y153.041 E107.79377
G0 F9000 X131.069 Y153.696
G1 F1125 X61.022 Y83.65 E115.70122
G0 F9000 X61.022 Y85.912
G1 F1125 X129.462 Y154.352 E123.42732
G0 F9000 X127.854 Y155.006
G1 F1125 X61.022 Y88.175 E130.97184
G0 F9000 X61.022 Y90.438
G1 F1125 X126.246 Y155.661 E138.33483
G0 F9000 X124.638 Y156.316
G1 F1125 X61.022 Y92.7 E145.51635
G0 F9000 X61.022 Y94.963
G1 F1125 X123.03 Y156.972 E152.51641
G0 F9000 X121.422 Y157.626
G1 F1125 X61.022 Y97.226 E159.33488
G0 F9000 X61.022 Y99.489
G1 F1125 X119.815 Y158.281 E165.97189
G0 F9000 X118.207 Y158.936
G1 F1125 X61.022 Y101.751 E172.42742
G0 F9000 X61.022 Y104.014
G1 F1125 X116.599 Y159.591 E178.70144
G0 F9000 X114.991 Y160.246
G1 F1125 X61.022 Y106.277 E184.79392
G0 F9000 X61.022 Y108.54
G1 F1125 X113.383 Y160.901 E190.70489
G0 F9000 X111.775 Y161.556
G1 F1125 X61.022 Y110.802 E196.43438
G0 F9000 X61.021 Y113.064
G1 F1125 X110.155 Y162.198 E201.98105
G0 F9000 X108.412 Y162.717
G1 F1125 X61.021 Y115.327 E207.3309
G0 F9000 X61.021 Y117.59
G1 F1125 X106.465 Y163.034 E212.46101
G0 F9000 X104.262 Y163.093
G1 F1125 X61.021 Y119.853 E217.34237
G0 F9000 X61.021 Y122.115
G1 F1125 X101.999 Y163.093 E221.96832
G0 F9000 X99.736 Y163.093
G1 F1125 X61.021 Y124.378 E226.33881
G0 F9000 X61.021 Y126.641
G1 F1125 X97.473 Y163.093 E230.45382
G0 F9000 X95.211 Y163.093
G1 F1125 X61.021 Y128.904 E234.31343
G0 F9000 X61.021 Y131.166
G1 F1125 X92.948 Y163.093 E237.91763
G0 F9000 X90.685 Y163.093
G1 F1125 X61.021 Y133.429 E241.26635
G0 F9000 X61.021 Y135.692
G1 F1125 X88.422 Y163.092 E244.35956
G0 F9000 X86.159 Y163.092
G1 F1125 X61.021 Y137.955 E247.1973
G0 F9000 X61.021 Y140.217
G1 F1125 X83.896 Y163.092 E249.77963
G0 F9000 X81.634 Y163.092
G1 F1125 X61.021 Y142.48 E252.10654
G0 F9000 X61.021 Y144.743
G1 F1125 X79.371 Y163.092 E254.17799
G0 F9000 X77.108 Y163.092
G1 F1125 X61.021 Y147.006 E255.99398
G0 F9000 X61.028 Y149.275
G1 F1125 X74.829 Y163.076 E257.55195
G0 F9000 X72.267 Y162.777
G1 F1125 X61.348 Y151.858 E258.78458
G0 F9000 X62.583 Y155.355
G1 F1125 X68.747 Y161.52 E259.48048
G1 F1500 E252.98048
G0 F9000 X68.473 Y163.027
G0 X69.737 Y163.564
G0 X71.734 Y164.163
G0 X73.05 Y164.404
G0 X75.235 Y164.559
G0 X105.303 Y164.556
G0 X106.819 Y164.474
G0 X108.845 Y164.132
G0 X110.161 Y163.758
G0 X147.701 Y148.506
G0 X147.147 Y147.147
G1 F1500 E259.48048
G1 F1125 X64.956 Y64.956 E268.75892
G0 F9000 X66.118 Y63.855
G1 F1125 X148.755 Y146.492 E278.08769
G0 F9000 X150.363 Y145.837
G1 F1125 X67.423 Y62.897 E287.45068
G0 F9000 X68.854 Y62.066
G1 F1125 X151.952 Y145.164 E296.8315
G0 F9000 X153.481 Y144.43
G1 F1125 X70.44 Y61.389 E306.20588
G0 F9000 X72.204 Y60.891
G1 F1125 X154.999 Y143.685 E315.55244
G0 F9000 X156.444 Y142.868
G1 F1125 X74.179 Y60.603 E324.83923
G0 F9000 X76.392 Y60.553
G1 F1125 X157.802 Y141.963 E334.02949
G0 F9000 X159.152 Y141.05
G1 F1125 X78.655 Y60.553 E343.11669
G0 F9000 X80.917 Y60.553
G1 F1125 X160.442 Y140.077 E352.0941
G0 F9000 X161.643 Y139.016
G1 F1125 X83.18 Y60.553 E360.95168
G0 F9000 X85.443 Y60.553
G1 F1125 X162.833 Y137.943 E369.68813
G0 F9000 X163.983 Y136.83
G1 F1125 X87.705 Y60.553 E378.299
G0 F9000 X89.968 Y60.553
G1 F1125 X165.033 Y135.618 E386.77298
G0 F9000 X166.064 Y134.386
G1 F1125 X92.231 Y60.553 E395.10789
G0 F9000 X94.494 Y60.553
G1 F1125 X167.07 Y133.129 E403.3009
G0 F9000 X167.967 Y131.763
G1 F1125 X96.756 Y60.553 E411.33975
G0 F9000 X99.019 Y60.553
G1 F1125 X168.835 Y130.369 E419.22119
G0 F9000 X169.687 Y128.957
G1 F1125 X101.282 Y60.553 E426.94328
G0 F9000 X103.545 Y60.553
G1 F1125 X170.419 Y127.427 E434.49259
G0 F9000 X171.115 Y125.86
G1 F1125 X105.833 Y60.578 E441.86219
G0 F9000 X108.453 Y60.936
G1 F1125 X171.788 Y124.27 E449.01193
G0 F9000 X172.324 Y122.544
G1 F1125 X111.933 Y62.153 E455.82939
G0 F9000 X115.751 Y63.708
G1 F1125 X172.828 Y120.785 E462.27274
G0 F9000 X173.266 Y118.96
G1 F1125 X119.569 Y65.263 E468.33452
G0 F9000 X123.387 Y66.818
G1 F1125 X173.567 Y116.999 E473.99933
G0 F9000 X173.835 Y115.003
G1 F1125 X127.204 Y68.373 E479.26338
G0 F9000 X131.022 Y69.928
G1 F1125 X173.938 Y112.844 E484.10811
G0 F9000 X173.938 Y110.581
G1 F1125 X134.841 Y71.484 E488.52172
G0 F9000 X138.658 Y73.039
G1 F1125 X173.779 Y108.159 E492.48642
G0 F9000 X173.41 Y105.527
G1 F1125 X142.476 Y74.594 E495.97846
G0 F9000 X146.294 Y76.149
G1 F1125 X172.757 Y102.612 E498.96584
G0 F9000 X171.778 Y99.371
G1 F1125 X150.112 Y77.704 E501.41174
G1 F1500 E494.91174
G0 F9000 X150.664 Y76.347
G0 X152.54 Y77.147
G0 X154.923 Y78.29
G0 X154.277 Y79.606
G1 F1500 E501.41174
G1 F1125 X170.014 Y95.344 E503.18832
G1 F1500 E496.68832
G0 F9000 X171.133 Y94.291
G0 X168.872 Y90.561
G0 X167.836 Y89.136
G0 X166.54 Y87.543
G0 X165.417 Y88.483
M104 S200
G1 F1500 E503.18832
G1 F1125 X160.819 Y83.886 E503.70733
G1 F1500 E497.20733
G0 F300 X160.819 Y83.886 Z0.54
G0 F9000 X161.844 Y82.831
G0 X165.024 Y85.776
G0 X168.261 Y89.66
G0 X170.551 Y93.258
G0 X171.559 Y95.175
G0 X173.245 Y99.102
G0 X174.627 Y103.963
G0 X175.255 Y108.128
G0 X175.405 Y110.322
G0 X175.353 Y114.601
G0 X174.645 Y119.601
G0 X173.504 Y123.745
G0 X172.769 Y125.747
G0 X170.985 Y129.637
G0 X168.292 Y133.944
G0 X165.609 Y137.215
G0 X164.093 Y138.782
G0 X161.218 Y141.319
G0 X160.182 Y142.121
G0 X159.279 Y140.965
;TIME_ELAPSED:356.214732
;LAYER:-5
;TYPE:SUPPORT
G1 F1500 E503.70733
G1 F1125 X160.138 Y140.335 E503.81362
G1 X160.83 Y139.753 E503.90384
G1 X163.153 Y137.655 E504.21617
G1 X163.868 Y136.958 E504.3158
G1 X164.505 Y136.252 E504.41068
G1 X166.438 Y133.94 E504.71138
G1 X167.03 Y133.187 E504.80696
G1 X167.659 Y132.261 E504.91866
G1 X167.836 Y131.976 E504.95213
G1 X157.941 Y141.871 E506.34842
G1 X156.762 Y142.67 E506.49053
G1 X155.893 Y143.213 E506.59278
G1 X154.975 Y143.698 E506.69637
G1 X154.433 Y143.965 E506.75666
G1 X169.929 Y128.469 E508.94331
G1 X170.182 Y127.959 E509.00012
G1 X171.109 Y125.875 E509.22771
G1 X151.707 Y145.277 E511.96554
G1 X151.355 Y145.435 E512.00404
G1 X149.295 Y146.274 E512.22598
G1 X172.024 Y123.545 E515.43329
G1 X172.144 Y123.178 E515.47181
G1 X172.611 Y121.545 E515.64129
G1 X146.909 Y147.247 E519.26812
G1 X144.522 Y148.219 E519.52528
G1 X173.152 Y119.589 E523.56528
G1 X173.385 Y118.304 E523.69559
G1 X173.444 Y117.883 E523.73801
G1 X142.136 Y149.191 E528.15591
G1 X139.75 Y150.163 E528.41298
G1 X173.674 Y116.239 E533.20002
G1 X173.796 Y115.376 E533.28699
G1 X173.872 Y114.626 E533.36221
G1 X137.363 Y151.135 E538.51402
G1 X134.977 Y152.107 E538.7711
G1 X173.938 Y113.146 E544.26891
G1 X173.938 Y111.732 E544.41
G1 X132.591 Y153.08 E550.24458
G1 X130.204 Y154.052 E550.50175
G1 X173.938 Y110.318 E556.67309
G1 X173.909 Y109.414 E556.76334
G1 X173.865 Y108.977 E556.80716
G1 X127.818 Y155.024 E563.30489
G1 X125.432 Y155.996 E563.56196
G1 X173.717 Y107.711 E570.3755
G1 X173.543 Y106.471 E570.50044
G1 X123.045 Y156.968 E577.62618
G1 X120.659 Y157.94 E577.88325
G1 X173.367 Y105.232 E585.32092
G1 X173.153 Y104.032 E585.44255
G1 X118.272 Y158.913 E593.18685
G1 X115.886 Y159.885 E593.44392
G1 X172.846 Y102.925 E601.48159
G1 X172.531 Y101.825 E601.59576
G1 X113.499 Y160.857 E609.92582
G1 X111.114 Y161.829 E610.1828
G1 X172.217 Y100.725 E618.80516
G1 X172.144 Y100.47 E618.83163
G1 X171.881 Y99.647 E618.91784
G1 X108.943 Y162.585 E627.79907
G1 X108.516 Y162.703 E627.84327
G1 X107.512 Y162.904 E627.94544
G1 X107.162 Y162.952 E627.98069
G1 X171.485 Y98.629 E637.05736
G1 X171.052 Y97.647 E637.16445
G1 X105.628 Y163.072 E646.39655
G1 X105.143 Y163.094 E646.44499
G1 X104.192 Y163.094 E646.53988
G1 X170.617 Y96.669 E655.91317
G1 X170.182 Y95.689 E656.02016
G1 X102.777 Y163.094 E665.53173
G1 X101.363 Y163.094 E665.67282
G1 X169.714 Y94.743 E675.31788
G1 X169.198 Y93.845 E675.42122
G1 X99.949 Y163.094 E685.19301
G1 X98.535 Y163.094 E685.3341
G1 X168.651 Y92.978 E695.22822
G1 X168.108 Y92.107 E695.33064
G1 X97.121 Y163.094 E705.34767
G1 X95.706 Y163.094 E705.48886
G1 X167.561 Y91.239 E715.62837
G1 X166.991 Y90.395 E715.72999
G1 X94.292 Y163.094 E725.98861
G1 X92.878 Y163.094 E726.1297
G1 X166.358 Y89.613 E736.49859
G1 X165.715 Y88.843 E736.59869
G1 X91.464 Y163.094 E747.07631
G1 X90.05 Y163.094 E747.2174
G1 X165.071 Y88.072 E757.80374
G1 X164.424 Y87.305 E757.90386
G1 X88.635 Y163.094 E768.59851
G1 X87.221 Y163.094 E768.7396
G1 X163.747 Y86.568 E779.53824
G1 X163.027 Y85.874 E779.63803
G1 X85.807 Y163.094 E790.5346
G1 X84.393 Y163.094 E790.67569
G1 X162.284 Y85.202 E801.66702
G1 X161.541 Y84.531 E801.76692
G1 X82.978 Y163.094 E812.85301
G1 X81.564 Y163.094 E812.9941
G1 X160.794 Y83.864 E824.17431
G1 X160.021 Y83.222 E824.27457
G1 X80.15 Y163.094 E835.5453
G1 X78.736 Y163.094 E835.68639
G1 X159.201 Y82.628 E847.04094
G1 X158.357 Y82.058 E847.14256
G1 X77.322 Y163.094 E858.57755
G1 X75.907 Y163.094 E858.71874
G1 X157.515 Y81.486 E870.23451
G1 X156.669 Y80.918 E870.33618
G1 X74.522 Y163.065 E881.92801
G1 X74.116 Y163.048 E881.96856
G1 X73.227 Y162.945 E882.05785
G1 X155.791 Y80.381 E893.70853
G1 X154.871 Y79.887 E893.81272
G1 X72.035 Y162.724 E905.50185
G1 X70.911 Y162.434 E905.61767
G1 X153.917 Y79.427 E917.33079
G1 X152.969 Y78.961 E917.43619
G1 X69.889 Y162.042 E929.15974
G1 X69.202 Y161.754 E929.23407
G1 X68.911 Y161.605 E929.26669
G1 X152.012 Y78.504 E940.99314
G1 X151.428 Y78.242 E941.05701
G1 X151.024 Y78.078 E941.10052
G1 X67.996 Y161.106 E952.81666
G1 X67.392 Y160.74 E952.88713
G1 X67.134 Y160.554 E952.91887
G1 X150.019 Y77.668 E964.61491
G1 X149.014 Y77.259 E964.72317
G1 X66.324 Y159.949 E976.39163
G1 X65.557 Y159.302 E976.49175
G1 X148.01 Y76.849 E988.12676
G1 X147.005 Y76.44 E988.23502
G1 X64.86 Y158.585 E999.82657
G1 X64.359 Y158.035 E999.90081
G1 X64.2 Y157.831 E999.92661
G1 X146 Y76.03 E1011.46955
G1 X144.995 Y75.621 E1011.57781
G1 X63.592 Y157.024 E1023.06465
G1 X63.024 Y156.178 E1023.16633
G1 X143.99 Y75.212 E1034.59151
G1 X142.986 Y74.802 E1034.69972
G1 X62.532 Y155.255 E1046.05258
G1 X62.08 Y154.293 E1046.15863
G1 X141.981 Y74.393 E1057.43346
G1 X140.976 Y73.983 E1057.54176
G1 X61.714 Y153.245 E1068.72648
G1 X61.463 Y152.397 E1068.81473
G1 X61.406 Y152.139 E1068.84109
G1 X139.971 Y73.574 E1079.92746
G1 X138.966 Y73.165 E1080.03573
G1 X61.183 Y150.948 E1091.01175
G1 X61.108 Y150.463 E1091.06072
G1 X61.053 Y149.664 E1091.14063
G1 X137.962 Y72.755 E1101.99332
G1 X136.957 Y72.346 E1102.10159
G1 X61.022 Y148.28 E1112.81676
G1 X61.022 Y146.866 E1112.95785
G1 X135.952 Y71.936 E1123.53129
G1 X134.947 Y71.528 E1123.63951
G1 X61.022 Y145.452 E1134.07106
G1 X61.022 Y144.038 E1134.21215
G1 X133.942 Y71.118 E1144.50195
G1 X132.937 Y70.709 E1144.61021
G1 X61.022 Y142.624 E1154.7582
G1 X61.022 Y141.209 E1154.89939
G1 X131.932 Y70.299 E1164.90555
G1 X130.927 Y69.89 E1165.01382
G1 X61.022 Y139.795 E1174.87817
G1 X61.022 Y138.381 E1175.01926
G1 X129.923 Y69.481 E1184.74186
G1 X128.918 Y69.071 E1184.85017
G1 X61.022 Y136.967 E1194.43103
G1 X61.022 Y135.553 E1194.57212
G1 X127.913 Y68.662 E1204.01116
G1 X126.908 Y68.252 E1204.11946
G1 X61.022 Y134.138 E1213.41669
G1 X61.022 Y132.724 E1213.55778
G1 X125.903 Y67.843 E1222.71319
G1 X124.899 Y67.433 E1222.8214
G1 X61.022 Y131.31 E1231.83513
G1 X61.022 Y129.896 E1231.97622
G1 X123.894 Y67.024 E1240.84814
G1 X122.889 Y66.615 E1240.95641
G1 X61.022 Y128.482 E1249.68651
G1 X61.022 Y127.067 E1249.8277
G1 X121.884 Y66.205 E1258.41598
