;FLAVOR:Marlin
;TIME:17769
;Filament used: 15.752m
;Layer height: 0.2
;MINX:-0.664
;MINY:81.528
;MINZ:0.24
;MAXX:220.665
;MAXY:138.665
;MAXZ:26.89
;Generated with Cura_SteamEngine main
M82 ;absolute extrusion mode
; Ender 3 Custom Start G-code
G92 E0 ; Reset Extruder
G28 ; Home all axes
M104 S175 ; Start heating up the nozzle most of the way
M190 S60 ; Start heating the bed, wait until target temperature reached
M109 S200 ; Finish heating the nozzle
G1 Z2.0 F3000 ; Move Z Axis up little to prevent scratching of Heat Bed
G1 X0.1 Y20 Z0.3 F5000.0 ; Move to start position
G1 X0.1 Y200.0 Z0.3 F1500.0 E15 ; Draw the first line
G1 X0.4 Y200.0 Z0.3 F5000.0 ; Move to side a little
G1 X0.4 Y20 Z0.3 F1500.0 E30 ; Draw the second line
G92 E0 ; Reset Extruder
G1 Z2.0 F3000 ; Move Z Axis up little to prevent scratching of Heat Bed
G1 X5 Y20 Z0.3 F5000.0 ; Move over to prevent blob squish
G92 E0
G92 E0
G1 F1500 E-6.5
;LAYER_COUNT:130
;LAYER:-6
M107
G0 F9000 X11.38 Y82.861 Z0.24
;TYPE:SUPPORT-INTERFACE
G1 F1500 E0
G1 F1125 X10.285 Y83.182 E0.09109
G1 X9.212 Y83.6 E0.18301
G1 X8.391 Y83.986 E0.25542
G1 X7.393 Y84.539 E0.3465
G1 X6.501 Y85.129 E0.43187
G1 X5.659 Y85.779 E0.51678
G1 X4.804 Y86.556 E0.609
G1 X4.177 Y87.207 E0.68115
G1 X3.441 Y88.083 E0.77248
G1 X2.819 Y88.951 E0.85772
G1 X2.308 Y89.791 E0.93621
G1 X1.786 Y90.794 E1.02647
G1 X1.364 Y91.785 E1.11245
G1 X1.022 Y92.787 E1.19696
G1 X0.736 Y93.903 E1.28892
G1 X0.573 Y94.783 E1.36036
G1 X0.448 Y95.861 E1.44699
G1 X0.401 Y97.009 E1.53871
G1 X0.401 Y103.052 E2.02108
G1 X0.408 Y103.441 E2.05214
G1 X0.489 Y104.601 E2.14496
G1 X0.634 Y105.579 E2.22388
G1 X0.7 Y105.899 E2.24997
G1 X0.818 Y106.812 E2.32345
G1 X0.806 Y107.488 E2.37742
G1 X0.706 Y108.174 E2.43276
G1 X0.609 Y108.709 E2.47616
G1 X0.441 Y110.079 E2.58634
G1 X0.4 Y111.159 E2.67261
G1 X0.4 Y116.755 E3.11931
G1 X0.471 Y118.276 E3.24085
G1 X0.607 Y119.277 E3.32149
G1 X0.659 Y119.593 E3.34706
G1 X0.805 Y120.33 E3.40703
G1 X1.095 Y121.446 E3.49907
G1 X1.408 Y122.356 E3.57589
G1 X1.86 Y123.423 E3.66839
G1 X2.338 Y124.346 E3.75136
G1 X2.508 Y124.649 E3.77909
G1 X2.843 Y125.21 E3.83125
G1 X3.444 Y126.096 E3.91671
G1 X4.146 Y126.986 E4.0072
G1 X4.821 Y127.717 E4.08662
G1 X5.606 Y128.459 E4.17284
G1 X5.912 Y128.727 E4.20531
G1 X6.366 Y129.102 E4.25232
G1 X7.252 Y129.759 E4.34037
G1 X8.018 Y130.247 E4.41287
G1 X8.993 Y130.779 E4.50153
G1 X9.739 Y131.266 E4.57264
G1 X10.226 Y131.698 E4.62461
G1 X10.685 Y132.22 E4.68009
G1 X10.838 Y132.406 E4.69932
G1 X11.556 Y133.196 E4.78453
G1 X12.205 Y133.821 E4.85646
G1 X13.077 Y134.554 E4.94739
G1 X13.964 Y135.19 E5.03451
G1 X14.93 Y135.77 E5.12445
G1 X15.8 Y136.217 E5.20253
G1 X16.785 Y136.637 E5.28801
G1 X17.796 Y136.98 E5.37323
G1 X18.903 Y137.264 E5.46446
G1 X19.869 Y137.442 E5.54286
G1 X21.007 Y137.563 E5.63422
G1 X21.991 Y137.599 E5.71282
G1 X190.413 Y137.593 E19.15699
G1 X190.863 Y137.599 E19.19291
G1 X205.052 Y137.599 E20.32554
G1 X205.446 Y137.592 E20.35699
G1 X206.603 Y137.511 E20.44958
G1 X207.578 Y137.367 E20.52825
G1 X208.703 Y137.121 E20.62017
G1 X209.711 Y136.818 E20.70419
G1 X210.788 Y136.4 E20.79641
G1 X211.609 Y136.014 E20.86883
G1 X212.539 Y135.499 E20.95369
G1 X213.487 Y134.876 E21.04424
G1 X214.356 Y134.208 E21.13174
G1 X215.196 Y133.444 E21.22237
G1 X215.823 Y132.795 E21.29441
G1 X216.553 Y131.926 E21.385
G1 X217.191 Y131.034 E21.47254
G1 X217.77 Y130.07 E21.56231
G1 X218.222 Y129.19 E21.64128
G1 X218.64 Y128.205 E21.72669
G1 X218.98 Y127.2 E21.81138
G1 X219.264 Y126.097 E21.9023
G1 X219.427 Y125.215 E21.9739
G1 X219.552 Y124.141 E22.06021
G1 X219.6 Y122.991 E22.15208
G1 X219.6 Y114.172 E22.85606
G1 X219.592 Y113.554 E22.90539
G1 X219.511 Y112.397 E22.99797
G1 X219.367 Y111.423 E23.07657
G1 X219.121 Y110.3 E23.16834
G1 X218.784 Y109.199 E23.26025
G1 X218.4 Y108.21 E23.34494
G1 X217.983 Y107.324 E23.4231
G1 X217.416 Y106.326 E23.51473
G1 X216.874 Y105.507 E23.59312
G1 X216.215 Y104.651 E23.67935
G1 X215.507 Y103.863 E23.76392
G1 X214.795 Y103.177 E23.84284
G1 X213.923 Y102.444 E23.93377
G1 X213.041 Y101.815 E24.02025
G1 X212.069 Y101.23 E24.1108
G1 X211.202 Y100.783 E24.18867
G1 X210.294 Y100.397 E24.26743
G1 X209.209 Y100.022 E24.35906
G1 X208.097 Y99.736 E24.45072
G1 X206.679 Y99.47 E24.56588
G1 X206.012 Y99.259 E24.62172
G1 X205.382 Y98.967 E24.67715
G1 X204.816 Y98.612 E24.73048
G1 X204.293 Y98.185 E24.78438
G1 X203.831 Y97.698 E24.83796
G1 X203.407 Y97.121 E24.89512
G1 X203.083 Y96.537 E24.94843
G1 X202.938 Y96.246 E24.97438
G1 X202.416 Y95.326 E25.05882
G1 X201.871 Y94.502 E25.13768
G1 X201.222 Y93.66 E25.22254
G1 X200.444 Y92.804 E25.31488
G1 X199.793 Y92.177 E25.38703
G1 X198.923 Y91.446 E25.47773
G1 X198.036 Y90.81 E25.56486
G1 X197.07 Y90.23 E25.6548
G1 X196.2 Y89.783 E25.73288
G1 X195.215 Y89.363 E25.81835
G1 X194.204 Y89.02 E25.90357
G1 X193.097 Y88.736 E25.9948
G1 X192.131 Y88.558 E26.07321
G1 X190.993 Y88.437 E26.16456
G1 X190.009 Y88.402 E26.24316
G1 X43.241 Y88.399 E37.95881
G1 X42.283 Y88.309 E38.03562
G1 X41.599 Y88.132 E38.09202
G1 X40.966 Y87.881 E38.14638
G1 X40.373 Y87.551 E38.20055
G1 X39.833 Y87.158 E38.25386
G1 X39.519 Y86.865 E38.28814
G1 X39.519 Y86.853 E38.2891
G1 X38.797 Y86.179 E38.36794
G1 X37.926 Y85.447 E38.45876
G1 X37.048 Y84.818 E38.54498
G1 X36.07 Y84.23 E38.63607
G1 X35.19 Y83.778 E38.71504
G1 X34.205 Y83.36 E38.80045
G1 X33.201 Y83.02 E38.88507
G1 X32.097 Y82.736 E38.97606
G1 X31.215 Y82.573 E39.04766
G1 X30.141 Y82.448 E39.13397
G1 X29.009 Y82.402 E39.22441
G1 X14.95 Y82.401 E40.34666
G1 X14.554 Y82.408 E40.37827
G1 X13.394 Y82.489 E40.47109
G1 X12.425 Y82.633 E40.54929
G1 X11.38 Y82.861 E40.63467
G0 F9000 X10.985 Y83.393
G1 F1125 X64.788 Y137.196 E46.70842
G0 F9000 X62.526 Y137.197
G1 F1125 X9.32 Y83.99 E52.71483
G0 F9000 X7.824 Y84.757
G1 F1125 X60.263 Y137.197 E58.63465
G0 F9000 X58.001 Y137.197
G1 F1125 X6.465 Y85.661 E64.45248
G0 F9000 X5.241 Y86.699
G1 F1125 X55.738 Y137.197 E70.15308
G0 F9000 X53.475 Y137.197
G1 F1125 X4.144 Y87.865 E75.72204
G0 F9000 X3.167 Y89.151
G1 F1125 X51.212 Y137.197 E81.14583
G0 F9000 X48.95 Y137.197
G1 F1125 X2.342 Y90.589 E86.40735
G0 F9000 X1.656 Y92.165
G1 F1125 X46.687 Y137.197 E91.49089
G0 F9000 X44.424 Y137.197
G1 F1125 X1.144 Y93.917 E96.37671
G0 F9000 X0.847 Y95.882
G1 F1125 X42.162 Y137.197 E101.04071
G0 F9000 X39.899 Y137.197
G1 F1125 X0.8 Y98.098 E105.45454
G0 F9000 X0.799 Y100.36
G1 F1125 X37.637 Y137.197 E109.61308
G0 F9000 X35.374 Y137.197
G1 F1125 X0.799 Y102.623 E113.51614
G0 F9000 X0.958 Y105.044
G1 F1125 X33.111 Y137.197 E117.14585
G0 F9000 X30.848 Y137.197
G1 F1125 X1.199 Y107.548 E120.49289
G0 F9000 X0.911 Y109.523
G1 F1125 X28.586 Y137.197 E123.61702
G0 F9000 X26.323 Y137.197
G1 F1125 X0.799 Y111.674 E126.49834
G0 F9000 X0.799 Y113.936
G1 F1125 X24.06 Y137.197 E129.12424
G0 F9000 X21.79 Y137.19
G1 F1125 X0.799 Y116.199 E131.49389
G0 F9000 X0.915 Y118.578
G1 F1125 X19.259 Y136.922 E133.56471
G0 F9000 X15.885 Y135.81
G1 F1125 X1.516 Y121.441 E135.18681
G1 F1500 E128.68681
G0 F9000 X0.411 Y122.728
G0 X0.946 Y123.972
G0 X1.828 Y125.554
G0 X2.702 Y126.883
G0 X4.123 Y126.311
G1 F1500 E135.18681
G1 F1125 X6.53 Y128.718 E135.45853
G1 F1500 E128.95853
G0 F9000 X5.592 Y129.847
G0 X4.057 Y128.459
G0 X2.702 Y126.883
G0 X1.585 Y125.179
G0 X0.853 Y123.777
G0 X0.105 Y121.841
G0 X-.389 Y119.783
G0 X-.596 Y118.256
G0 X-.664 Y116.774
G0 X-.625 Y95.936
G0 X-.479 Y94.616
G0 X-0.027 Y92.59
G0 X0.413 Y91.3
G0 X1.295 Y89.42
G0 X2.005 Y88.259
G0 X3.275 Y86.617
G0 X4.198 Y85.66
G0 X5.799 Y84.327
G0 X6.918 Y83.585
G0 X8.783 Y82.625
G0 X10.042 Y82.144
G0 X11.188 Y81.845
G0 X12.618 Y81.528
G0 X12.831 Y82.976
G1 F1500 E135.45853
G1 F1125 X67.051 Y137.196 E141.57936
G0 F9000 X69.314 Y137.196
G1 F1125 X14.918 Y82.8 E147.72005
G0 F9000 X17.181 Y82.8
G1 F1125 X71.576 Y137.196 E153.86068
G0 F9000 X73.839 Y137.196
G1 F1125 X19.444 Y82.8 E160.00132
G0 F9000 X21.706 Y82.8
G1 F1125 X76.102 Y137.196 E166.14201
G0 F9000 X78.365 Y137.196
G1 F1125 X23.97 Y82.801 E172.28258
G0 F9000 X26.232 Y82.801
G1 F1125 X80.627 Y137.196 E178.42316
G0 F9000 X82.89 Y137.196
G1 F1125 X28.495 Y82.801 E184.56374
G0 F9000 X30.895 Y82.938
G1 F1125 X85.152 Y137.195 E190.68874
G0 F9000 X87.415 Y137.195
G1 F1125 X33.897 Y83.677 E196.73031
G1 F1500 E190.23031
G0 F9000 X34.7 Y82.413
G0 X36.58 Y83.295
G0 X37.739 Y84.004
G0 X39.07 Y85.032
G0 X40.949 Y86.655
G0 X40.638 Y88.155
G1 F1500 E196.73031
G1 F1125 X89.678 Y137.195 E202.26637
G0 F9000 X91.94 Y137.195
G1 F1125 X43.543 Y88.798 E207.72984
G0 F9000 X45.806 Y88.798
G1 F1125 X94.203 Y137.195 E213.19331
G0 F9000 X96.466 Y137.195
G1 F1125 X48.069 Y88.798 E218.65679
G0 F9000 X50.331 Y88.798
G1 F1125 X98.729 Y137.195 E224.12031
G0 F9000 X100.991 Y137.195
G1 F1125 X52.594 Y88.798 E229.58379
G0 F9000 X54.857 Y88.798
G1 F1125 X103.254 Y137.195 E235.04726
G0 F9000 X105.517 Y137.195
G1 F1125 X57.12 Y88.798 E240.51073
G0 F9000 X59.382 Y88.798
G1 F1125 X107.779 Y137.194 E245.97414
G0 F9000 X110.042 Y137.194
G1 F1125 X61.645 Y88.798 E251.43756
G0 F9000 X63.908 Y88.798
G1 F1125 X112.304 Y137.194 E256.90092
G0 F9000 X114.567 Y137.194
G1 F1125 X66.171 Y88.798 E262.36428
G0 F9000 X68.434 Y88.799
G1 F1125 X116.83 Y137.194 E267.82758
G0 F9000 X119.093 Y137.194
G1 F1125 X70.697 Y88.799 E273.29088
G0 F9000 X72.959 Y88.799
G1 F1125 X121.355 Y137.194 E278.75418
G0 F9000 X123.618 Y137.194
G1 F1125 X75.222 Y88.799 E284.21749
G0 F9000 X77.485 Y88.799
G1 F1125 X125.881 Y137.194 E289.68079
G0 F9000 X128.143 Y137.194
G1 F1125 X79.748 Y88.799 E295.14403
G0 F9000 X82.01 Y88.799
G1 F1125 X130.406 Y137.194 E300.60734
G0 F9000 X132.668 Y137.194
G1 F1125 X84.273 Y88.799 E306.07058
G0 F9000 X86.536 Y88.799
G1 F1125 X134.931 Y137.194 E311.53383
G0 F9000 X137.194 Y137.194
G1 F1125 X88.799 Y88.799 E316.99707
G0 F9000 X91.061 Y88.799
G1 F1125 X139.457 Y137.194 E322.46038
G0 F9000 X141.719 Y137.194
G1 F1125 X93.325 Y88.799 E327.92357
G0 F9000 X95.588 Y88.799
G1 F1125 X143.982 Y137.194 E333.38675
G0 F9000 X146.245 Y137.194
G1 F1125 X97.85 Y88.799 E338.85
G0 F9000 X100.113 Y88.799
G1 F1125 X148.507 Y137.193 E344.31313
G0 F9000 X150.77 Y137.193
G1 F1125 X102.376 Y88.799 E349.77627
G0 F9000 X104.639 Y88.799
G1 F1125 X153.032 Y137.193 E355.23934
G0 F9000 X155.295 Y137.193
G1 F1125 X106.901 Y88.799 E360.70248
G0 F9000 X109.164 Y88.799
G1 F1125 X157.558 Y137.193 E366.16561
G0 F9000 X159.82 Y137.193
G1 F1125 X111.427 Y88.799 E371.62869
G0 F9000 X113.69 Y88.799
G1 F1125 X162.083 Y137.193 E377.09176
G0 F9000 X164.346 Y137.193
G1 F1125 X115.952 Y88.799 E382.55489
G0 F9000 X118.216 Y88.8
G1 F1125 X166.609 Y137.193 E388.01791
G0 F9000 X168.871 Y137.193
G1 F1125 X120.478 Y88.8 E393.48093
G0 F9000 X122.741 Y88.8
G1 F1125 X171.133 Y137.192 E398.94384
G0 F9000 X173.396 Y137.192
G1 F1125 X125.004 Y88.8 E404.40675
G0 F9000 X127.267 Y88.8
G1 F1125 X175.659 Y137.192 E409.86966
G0 F9000 X177.922 Y137.192
G1 F1125 X129.529 Y88.8 E415.33262
G0 F9000 X131.792 Y88.8
G1 F1125 X180.184 Y137.192 E420.79553
G0 F9000 X182.447 Y137.192
G1 F1125 X134.055 Y88.8 E426.25843
G0 F9000 X136.318 Y88.8
G1 F1125 X184.71 Y137.192 E431.72134
G0 F9000 X186.973 Y137.192
G1 F1125 X138.58 Y88.8 E437.1843
G0 F9000 X140.843 Y88.8
G1 F1125 X189.235 Y137.192 E442.64721
G0 F9000 X191.504 Y137.198
G1 F1125 X143.107 Y88.801 E448.11068
G0 F9000 X145.369 Y88.801
G1 F1125 X193.767 Y137.198 E453.57421
G0 F9000 X196.03 Y137.199
G1 F1125 X147.632 Y88.801 E459.0378
G0 F9000 X149.895 Y88.801
G1 F1125 X198.293 Y137.199 E464.50138
G0 F9000 X200.556 Y137.199
G1 F1125 X152.158 Y88.801 E469.96496
G0 F9000 X154.42 Y88.801
G1 F1125 X202.819 Y137.199 E475.42861
G0 F9000 X205.08 Y137.197
G1 F1125 X156.683 Y88.801 E480.89202
G0 F9000 X158.946 Y88.801
G1 F1125 X207.167 Y137.022 E486.33562
G0 F9000 X209.015 Y136.608
G1 F1125 X161.209 Y88.801 E491.73244
G0 F9000 X163.471 Y88.801
G1 F1125 X210.678 Y136.008 E497.06157
G0 F9000 X212.175 Y135.242
G1 F1125 X165.735 Y88.802 E502.30412
G0 F9000 X167.997 Y88.802
G1 F1125 X213.532 Y134.336 E507.44445
G0 F9000 X214.758 Y133.299
G1 F1125 X170.26 Y88.802 E512.46771
G0 F9000 X172.523 Y88.802
G1 F1125 X215.855 Y132.134 E517.3594
G0 F9000 X216.831 Y130.847
G1 F1125 X174.786 Y88.802 E522.1058
G0 F9000 X177.048 Y88.802
G1 F1125 X217.658 Y129.411 E526.69015
G0 F9000 X218.343 Y127.833
G1 F1125 X179.311 Y88.802 E531.09637
G0 F9000 X181.574 Y88.802
G1 F1125 X218.854 Y126.082 E535.30485
G0 F9000 X219.151 Y124.116
G1 F1125 X183.837 Y88.802 E539.2914
G0 F9000 X186.099 Y88.802
G1 F1125 X219.198 Y121.9 E543.02785
G0 F9000 X219.198 Y119.638
G1 F1125 X188.362 Y88.802 E546.50888
G0 F9000 X190.648 Y88.825
G1 F1125 X219.198 Y117.375 E549.73185
G0 F9000 X219.198 Y115.112
G1 F1125 X193.282 Y89.196 E552.65748
G0 F9000 X197.012 Y90.663
G1 F1125 X202.325 Y95.976 E553.25725
G1 F1500 E546.75725
G0 F9000 X203.878 Y95.744
G0 X206.39 Y98.262
G0 X206.032 Y99.683
G1 F1500 E553.25725
G1 F1125 X219.137 Y112.788 E554.73666
G0 F9000 X218.609 Y109.998
G1 F1125 X208.99 Y100.378 E555.82259
G1 F1500 E549.32259
G0 F9000 X209.62 Y99.036
G0 X211.538 Y99.769
G0 X212.22 Y100.119
G0 X213.739 Y101.004
G0 X213.529 Y102.655
M104 S200
G1 F1500 E555.82259
G1 F1125 X216.324 Y105.45 E556.13811
G1 F1500 E549.63811
G0 F300 X216.324 Y105.45 Z0.54
G0 F9000 X217.673 Y104.799
G0 X218.415 Y105.918
G0 X219.375 Y107.783
G0 X219.856 Y109.042
G0 X220.385 Y111.065
G0 X220.576 Y112.379
G0 X220.665 Y114.053
G0 X220.626 Y124.057
G0 X220.479 Y125.383
G0 X220.027 Y127.409
G0 X219.587 Y128.7
G0 X218.705 Y130.58
G0 X217.996 Y131.739
G0 X216.725 Y133.383
G0 X216.464 Y133.653
G0 X215.119 Y134.952
G0 X214.14 Y133.863
;TIME_ELAPSED:396.181733
;LAYER:-5
;TYPE:SUPPORT
G1 F1500 E556.13811
G1 F1125 X214.922 Y133.152 E556.24357
G1 X215.518 Y132.535 E556.32917
G1 X216.183 Y131.743 E556.43236
G1 X216.265 Y131.631 E556.44621
G1 X213.649 Y134.247 E556.81535
G1 X213.275 Y134.539 E556.8627
G1 X212.469 Y135.073 E556.95917
G1 X211.499 Y135.623 E557.07043
G1 X210.637 Y136.03 E557.16555
G1 X210.333 Y136.148 E557.19809
G1 X218.144 Y128.337 E558.30031
G1 X218.29 Y127.987 E558.33815
G1 X218.616 Y127.014 E558.44054
G1 X218.811 Y126.256 E558.51863
G1 X208.254 Y136.813 E560.00834
G1 X207.646 Y136.948 E560.07048
G1 X206.538 Y137.115 E560.18229
G1 X219.1 Y124.553 E561.95492
G1 X219.163 Y123.964 E562.01403
G1 X219.196 Y123.042 E562.10608
G1 X205.041 Y137.198 E564.10358
G1 X203.625 Y137.199 E564.24487
G1 X219.199 Y121.625 E566.44253
G1 X219.199 Y120.211 E566.58362
G1 X202.211 Y137.199 E568.98081
G1 X200.797 Y137.199 E569.1219
G1 X219.199 Y118.797 E571.71862
G1 X219.199 Y117.383 E571.85971
G1 X199.382 Y137.199 E574.65603
G1 X197.968 Y137.199 E574.79712
G1 X219.199 Y115.969 E577.79297
G1 X219.199 Y114.554 E577.93416
G1 X196.554 Y137.199 E581.12961
G1 X195.14 Y137.199 E581.2707
G1 X219.163 Y113.176 E584.66061
G1 X219.111 Y112.427 E584.73552
G1 X219.029 Y111.896 E584.78914
G1 X193.726 Y137.199 E588.35966
G1 X192.311 Y137.199 E588.50085
G1 X218.817 Y110.694 E592.24106
G1 X218.493 Y109.603 E592.35462
G1 X190.897 Y137.199 E596.24872
G1 X190.403 Y137.193 E596.29801
G1 X189.482 Y137.2 E596.38991
G1 X218.122 Y108.56 E600.43133
G1 X217.67 Y107.599 E600.53729
G1 X188.068 Y137.2 E604.71438
G1 X186.654 Y137.2 E604.85547
G1 X217.174 Y106.68 E609.16217
G1 X216.609 Y105.831 E609.26393
G1 X185.24 Y137.2 E613.69044
G1 X183.825 Y137.2 E613.83163
G1 X216.006 Y105.019 E618.37271
G1 X215.338 Y104.274 E618.47256
G1 X182.411 Y137.2 E623.11884
G1 X180.997 Y137.2 E623.25993
G1 X214.634 Y103.563 E628.00647
G1 X213.865 Y102.918 E628.10662
G1 X179.583 Y137.2 E632.94418
G1 X178.168 Y137.2 E633.08537
G1 X213.053 Y102.316 E638.00795
G1 X212.829 Y102.154 E638.03554
G1 X212.189 Y101.766 E638.11021
G1 X176.754 Y137.2 E643.1104
G1 X175.34 Y137.2 E643.25149
G1 X211.272 Y101.269 E648.32182
G1 X211.019 Y101.14 E648.35015
G1 X210.292 Y100.834 E648.42886
G1 X173.926 Y137.2 E653.56049
G1 X172.512 Y137.2 E653.70158
G1 X209.265 Y100.447 E658.88783
G1 X208.14 Y100.158 E659.00373
G1 X171.097 Y137.2 E664.23082
G1 X169.683 Y137.2 E664.37191
G1 X206.956 Y99.927 E669.63154
G1 X206.556 Y99.852 E669.67214
G1 X205.846 Y99.623 E669.74658
G1 X168.269 Y137.2 E675.0491
G1 X166.855 Y137.2 E675.19019
