;FLAVOR:Marlin
;TIME:19255
;Filament used: 16.6397m
;Layer height: 0.2
;MINX:45.076
;MINY:80.401
;MINZ:0.24
;MAXX:172.164
;MAXY:172.164
;MAXZ:34.09
;Generated with Cura_SteamEngine main
M82 ;absolute extrusion mode
; Ender 3 Custom Start G-code
G92 E0 ; Reset Extruder
G28 ; Home all axes
M104 S175 ; Start heating up the nozzle most of the way
M190 S60 ; Start heating the bed, wait until target temperature reached
M109 S200 ; Finish heating the nozzle
G1 Z2.0 F3000 ; Move Z Axis up little to prevent scratching of Heat Bed
G1 X0.1 Y20 Z0.3 F5000.0 ; Move to start position
G1 X0.1 Y200.0 Z0.3 F1500.0 E15 ; Draw the first line
G1 X0.4 Y200.0 Z0.3 F5000.0 ; Move to side a little
G1 X0.4 Y20 Z0.3 F1500.0 E30 ; Draw the second line
G92 E0 ; Reset Extruder
G1 Z2.0 F3000 ; Move Z Axis up little to prevent scratching of Heat Bed
G1 X5 Y20 Z0.3 F5000.0 ; Move over to prevent blob squish
G92 E0
G92 E0
G1 F1500 E-6.5
;LAYER_COUNT:165
;LAYER:-6
M107
G0 F9000 X52.878 Y83.647 Z0.24
;TYPE:SUPPORT-INTERFACE
G1 F1500 E0
G1 F1125 X52.055 Y84.305 E0.08411
G1 X51.249 Y85.051 E0.17178
G1 X50.806 Y85.495 E0.22184
G1 X49.866 Y86.527 E0.33327
G1 X49.181 Y87.428 E0.42362
G1 X48.633 Y88.262 E0.50328
G1 X48.076 Y89.269 E0.59514
G1 X47.866 Y89.681 E0.63205
G1 X47.258 Y91.02 E0.74944
G1 X46.925 Y91.963 E0.82927
G1 X46.607 Y93.134 E0.92613
G1 X46.434 Y94.012 E0.99756
G1 X46.337 Y94.608 E1.04577
G1 X46.18 Y95.929 E1.15196
G1 X46.14 Y97.006 E1.23799
G1 X46.14 Y122.947 E3.30871
G1 X46.191 Y124.205 E3.40921
G1 X46.32 Y125.277 E3.4954
G1 X46.405 Y125.821 E3.53935
G1 X46.695 Y127.235 E3.65457
G1 X47.019 Y128.323 E3.74519
G1 X47.342 Y129.177 E3.81807
G1 X47.832 Y130.249 E3.91216
G1 X48.119 Y130.811 E3.96253
G1 X48.796 Y131.999 E4.07168
G1 X49.398 Y132.876 E4.15659
G1 X50.012 Y133.643 E4.23502
G1 X50.781 Y134.48 E4.32575
G1 X51.194 Y134.894 E4.37243
G1 X52.26 Y135.867 E4.48764
G1 X53.169 Y136.558 E4.57878
G1 X53.927 Y137.058 E4.65127
G1 X54.913 Y137.613 E4.74159
G1 X55.419 Y137.872 E4.78696
G1 X56.75 Y138.478 E4.9037
G1 X57.826 Y138.854 E4.99469
G1 X58.859 Y139.128 E5.08
G1 X59.892 Y139.33 E5.16402
G1 X60.46 Y139.419 E5.20991
G1 X61.683 Y139.561 E5.30819
G1 X62.731 Y139.599 E5.3919
G1 X75.036 Y139.601 E6.37414
G1 X75.949 Y139.683 E6.44731
G1 X76.645 Y139.854 E6.50452
G1 X77.261 Y140.097 E6.55738
G1 X77.87 Y140.425 E6.6126
G1 X78.407 Y140.809 E6.6653
G1 X78.922 Y141.287 E6.72138
G1 X79.36 Y141.812 E6.77596
G1 X79.733 Y142.399 E6.83148
G1 X80.018 Y143.005 E6.88493
G1 X80.229 Y143.647 E6.93888
G1 X80.36 Y144.344 E6.99549
G1 X80.4 Y144.973 E7.0458
G1 X80.4 Y154.41 E7.7991
G1 X80.454 Y155.734 E7.90488
G1 X80.582 Y156.79 E7.98979
G1 X80.665 Y157.322 E8.03277
G1 X80.957 Y158.741 E8.14841
G1 X81.28 Y159.822 E8.23847
G1 X81.603 Y160.677 E8.31143
G1 X82.093 Y161.749 E8.40552
G1 X82.392 Y162.334 E8.45796
G1 X83.044 Y163.479 E8.56314
G1 X83.648 Y164.363 E8.6486
G1 X84.272 Y165.144 E8.7284
G1 X85.077 Y166.017 E8.82319
G1 X85.447 Y166.387 E8.86496
G1 X86.535 Y167.379 E8.98249
G1 X87.453 Y168.075 E9.07445
G1 X88.201 Y168.566 E9.14587
G1 X89.182 Y169.118 E9.23573
G1 X89.699 Y169.382 E9.28206
G1 X91 Y169.972 E9.3961
G1 X91.93 Y170.304 E9.47492
G1 X93.033 Y170.611 E9.56631
G1 X94.122 Y170.824 E9.65489
G1 X94.757 Y170.923 E9.70619
G1 X95.938 Y171.061 E9.8011
G1 X96.988 Y171.099 E9.88497
G1 X122.914 Y171.1 E11.9545
G1 X124.234 Y171.046 E12.05996
G1 X125.29 Y170.918 E12.14487
G1 X125.826 Y170.834 E12.18818
G1 X127.241 Y170.543 E12.30349
G1 X128.322 Y170.22 E12.39355
G1 X129.177 Y169.897 E12.46651
G1 X130.271 Y169.397 E12.56252
G1 X130.836 Y169.106 E12.61326
G1 X131.986 Y168.451 E12.7189
G1 X132.869 Y167.847 E12.8043
G1 X133.644 Y167.228 E12.88347
G1 X134.526 Y166.414 E12.97928
G1 X134.887 Y166.053 E13.02003
G1 X135.879 Y164.965 E13.13756
G1 X136.575 Y164.047 E13.22952
G1 X137.112 Y163.229 E13.30763
G1 X137.617 Y162.319 E13.3907
G1 X137.882 Y161.801 E13.43715
G1 X138.47 Y160.504 E13.55082
G1 X138.797 Y159.584 E13.62876
G1 X139.111 Y158.472 E13.721
G1 X139.325 Y157.378 E13.80998
G1 X139.404 Y156.885 E13.84984
G1 X139.56 Y155.562 E13.95618
G1 X139.6 Y154.492 E14.04165
G1 X139.601 Y144.964 E14.80221
G1 X139.684 Y144.043 E14.87603
G1 X139.853 Y143.359 E14.93227
G1 X140.098 Y142.737 E14.98564
G1 X140.417 Y142.143 E15.03946
G1 X140.812 Y141.589 E15.09377
G1 X141.293 Y141.072 E15.15014
G1 X141.826 Y140.63 E15.20541
G1 X142.382 Y140.276 E15.25802
G1 X142.985 Y139.99 E15.3113
G1 X143.65 Y139.77 E15.36721
G1 X144.307 Y139.644 E15.42061
G1 X144.973 Y139.6 E15.47389
G1 X154.414 Y139.6 E16.22751
G1 X155.734 Y139.546 E16.33297
G1 X156.79 Y139.418 E16.41788
G1 X157.326 Y139.334 E16.46119
G1 X158.741 Y139.043 E16.5765
G1 X159.822 Y138.72 E16.66656
G1 X160.677 Y138.397 E16.73952
G1 X161.771 Y137.897 E16.83554
G1 X162.336 Y137.606 E16.88627
G1 X163.486 Y136.951 E16.99191
G1 X164.369 Y136.347 E17.07731
G1 X165.144 Y135.728 E17.15648
G1 X166.026 Y134.914 E17.25229
G1 X166.387 Y134.553 E17.29304
G1 X167.379 Y133.465 E17.41057
G1 X168.075 Y132.547 E17.50253
G1 X168.612 Y131.729 E17.58064
G1 X169.117 Y130.819 E17.66371
G1 X169.382 Y130.301 E17.71016
G1 X169.972 Y129 E17.82419
G1 X170.304 Y128.07 E17.90302
G1 X170.611 Y126.968 E17.99433
G1 X170.807 Y125.977 E18.07497
G1 X170.906 Y125.368 E18.12422
G1 X171.06 Y124.065 E18.22896
G1 X171.1 Y122.994 E18.31451
G1 X171.1 Y97.426 E20.35546
G1 X171.1 Y97.086 E20.3826
G1 X171.046 Y95.763 E20.48829
G1 X170.917 Y94.7 E20.57377
G1 X170.834 Y94.174 E20.61628
G1 X170.543 Y92.757 E20.73175
G1 X170.22 Y91.678 E20.82165
G1 X169.868 Y90.743 E20.9014
G1 X169.397 Y89.73 E20.99058
G1 X169.106 Y89.164 E21.04138
G1 X168.451 Y88.014 E21.14703
G1 X167.847 Y87.131 E21.23242
G1 X167.228 Y86.356 E21.3116
G1 X166.409 Y85.47 E21.40791
G1 X166.053 Y85.113 E21.44815
G1 X164.965 Y84.121 E21.56568
G1 X164.047 Y83.425 E21.65764
G1 X163.299 Y82.934 E21.72907
G1 X162.318 Y82.382 E21.81892
G1 X161.801 Y82.118 E21.86526
G1 X160.504 Y81.53 E21.97893
G1 X159.584 Y81.203 E22.05687
G1 X158.472 Y80.889 E22.14911
G1 X157.377 Y80.675 E22.23817
G1 X156.882 Y80.596 E22.27818
G1 X155.562 Y80.44 E22.38428
G1 X154.512 Y80.402 E22.46815
G1 X128.584 Y80.401 E24.53784
G1 X127.265 Y80.454 E24.64321
G1 X126.21 Y80.582 E24.72804
G1 X125.819 Y80.643 E24.75963
G1 X124.789 Y80.703 E24.84199
G1 X124.138 Y80.64 E24.8942
G1 X123.721 Y80.577 E24.92786
G1 X122.535 Y80.439 E25.02317
G1 X121.488 Y80.402 E25.1068
G1 X95.56 Y80.401 E27.17649
G1 X94.241 Y80.454 E27.28186
G1 X93.185 Y80.582 E27.36677
G1 X92.914 Y80.622 E27.38864
G1 X91.908 Y80.68 E27.46908
G1 X91.267 Y80.619 E27.52047
G1 X90.984 Y80.577 E27.54331
G1 X89.802 Y80.439 E27.6383
G1 X88.752 Y80.402 E27.72217
G1 X62.794 Y80.401 E29.79425
G1 X61.507 Y80.453 E29.89707
G1 X60.389 Y80.591 E29.98699
G1 X59.771 Y80.693 E30.03699
G1 X58.484 Y80.961 E30.14193
G1 X57.379 Y81.294 E30.23405
G1 X56.491 Y81.629 E30.30981
G1 X55.517 Y82.08 E30.39549
G1 X55.014 Y82.334 E30.44047
G1 X53.771 Y83.036 E30.55442
G1 X52.878 Y83.647 E30.6408
G0 F9000 X52.656 Y84.335
G1 F1125 X134.347 Y166.025 E39.86272
G0 F9000 X135.439 Y164.854
G1 F1125 X53.969 Y83.384 E49.05976
G0 F9000 X55.422 Y82.575
G1 F1125 X136.412 Y163.565 E58.20261
G0 F9000 X137.255 Y162.145
G1 F1125 X56.981 Y81.871 E67.26464
G0 F9000 X58.696 Y81.324
G1 F1125 X137.983 Y160.61 E76.21518
G0 F9000 X138.566 Y158.931
G1 F1125 X60.602 Y80.967 E85.01643
G0 F9000 X62.702 Y80.804
G1 F1125 X138.969 Y157.071 E93.62611
G0 F9000 X139.179 Y155.019
G1 F1125 X64.961 Y80.801 E102.00448
G0 F9000 X67.224 Y80.801
G1 F1125 X139.2 Y152.776 E110.1297
G0 F9000 X139.2 Y150.514
G1 F1125 X69.487 Y80.801 E117.9995
G0 F9000 X71.75 Y80.801
G1 F1125 X139.201 Y148.252 E125.61395
G0 F9000 X139.201 Y145.989
G1 F1125 X74.012 Y80.801 E132.97299
G0 F9000 X76.276 Y80.801
G1 F1125 X139.321 Y143.847 E140.09012
G0 F9000 X139.935 Y142.198
G1 F1125 X78.539 Y80.801 E147.02108
G0 F9000 X80.801 Y80.801
G1 F1125 X140.903 Y140.903 E153.80592
G0 F9000 X142.187 Y139.925
G1 F1125 X83.064 Y80.801 E160.48029
G0 F9000 X85.327 Y80.801
G1 F1125 X143.849 Y139.324 E167.08681
G0 F9000 X145.988 Y139.2
G1 F1125 X87.59 Y80.801 E173.67934
G0 F9000 X89.905 Y80.854
G1 F1125 X148.251 Y139.2 E180.26594
G0 F9000 X150.513 Y139.199
G1 F1125 X92.368 Y81.054 E186.82985
G0 F9000 X94.423 Y80.847
G1 F1125 X152.776 Y139.199 E193.41719
G0 F9000 X155.013 Y139.174
G1 F1125 X96.64 Y80.801 E200.00683
G0 F9000 X98.903 Y80.801
G1 F1125 X157.07 Y138.968 E206.57323
G0 F9000 X158.932 Y138.568
G1 F1125 X101.166 Y80.801 E213.09441
G0 F9000 X103.429 Y80.801
G1 F1125 X160.612 Y137.985 E219.54978
G0 F9000 X162.144 Y137.254
G1 F1125 X105.691 Y80.801 E225.92268
G0 F9000 X107.954 Y80.801
G1 F1125 X163.565 Y136.412 E232.20053
G0 F9000 X164.858 Y135.442
G1 F1125 X110.217 Y80.801 E238.36888
G0 F9000 X112.48 Y80.801
G1 F1125 X166.025 Y134.347 E244.41356
G0 F9000 X167.105 Y133.164
G1 F1125 X114.742 Y80.801 E250.32474
G0 F9000 X117.005 Y80.801
G1 F1125 X168.053 Y131.849 E256.08748
G0 F9000 X168.876 Y130.41
G1 F1125 X119.268 Y80.801 E261.68772
G0 F9000 X121.533 Y80.803
G1 F1125 X169.593 Y128.864 E267.11321
G0 F9000 X170.144 Y127.151
G1 F1125 X124.018 Y81.026 E272.32025
G0 F9000 X126.236 Y80.982
G1 F1125 X170.515 Y125.26 E277.31879
G0 F9000 X170.692 Y123.175
G1 F1125 X128.329 Y80.811 E282.10115
G0 F9000 X130.582 Y80.801
G1 F1125 X170.699 Y120.919 E286.62996
G0 F9000 X170.699 Y118.656
G1 F1125 X132.844 Y80.801 E290.90336
G0 F9000 X135.107 Y80.801
G1 F1125 X170.699 Y116.394 E294.92135
G0 F9000 X170.699 Y114.131
G1 F1125 X137.37 Y80.801 E298.68387
G0 F9000 X139.633 Y80.801
G1 F1125 X170.699 Y111.868 E302.19092
G0 F9000 X170.699 Y109.605
G1 F1125 X141.896 Y80.802 E305.44245
G0 F9000 X144.159 Y80.802
G1 F1125 X170.699 Y107.343 E308.43858
G0 F9000 X170.699 Y105.08
G1 F1125 X146.422 Y80.802 E311.17923
G0 F9000 X148.684 Y80.802
G1 F1125 X170.699 Y102.817 E313.66447
G0 F9000 X170.699 Y100.554
G1 F1125 X150.947 Y80.802 E315.89425
G0 F9000 X153.21 Y80.802
G1 F1125 X170.699 Y98.292 E317.86862
G0 F9000 X170.653 Y95.983
G1 F1125 X155.508 Y80.837 E319.57837
G0 F9000 X158.171 Y81.238
G1 F1125 X170.249 Y93.316 E320.94184
G0 F9000 X168.968 Y89.772
G1 F1125 X161.725 Y82.529 E321.75949
G1 F1500 E315.25949
G0 F9000 X162.389 Y81.222
G0 X163.863 Y82.031
G0 X165.547 Y83.225
G0 X167.274 Y84.831
G0 X168.634 Y86.411
G0 X169.412 Y87.55
G0 X170.416 Y89.39
G0 X171.226 Y91.328
G0 X171.604 Y92.625
G0 X171.972 Y94.551
G0 X172.113 Y95.785
G0 X172.164 Y97.069
G0 X172.127 Y124.034
G0 X171.854 Y126.17
G0 X171.371 Y128.222
G0 X170.913 Y129.504
G0 X170.055 Y131.325
G0 X168.951 Y133.153
G0 X168.115 Y134.24
G0 X166.672 Y135.77
G0 X157.742 Y144.7
G0 X134.466 Y167.924
G0 X133.16 Y167.101
G1 F1500 E321.75949
G1 F1125 X51.461 Y85.402 E330.98238
G0 F9000 X50.366 Y86.57
G1 F1125 X131.852 Y168.056 E340.18123
G0 F9000 X130.408 Y168.874
G1 F1125 X49.382 Y87.848 E349.32814
G0 F9000 X48.535 Y89.264
G1 F1125 X128.859 Y169.588 E358.39581
G0 F9000 X127.157 Y170.149
G1 F1125 X47.799 Y90.791 E367.35442
G0 F9000 X47.203 Y92.458
G1 F1125 X125.261 Y170.516 E376.16629
G0 F9000 X123.17 Y170.687
G1 F1125 X46.79 Y94.308 E384.78866
G0 F9000 X46.564 Y96.344
G1 F1125 X120.918 Y170.698 E393.18239
G0 F9000 X118.655 Y170.698
G1 F1125 X46.539 Y98.582 E401.32346
G0 F9000 X46.539 Y100.845
G1 F1125 X116.392 Y170.698 E409.20907
G0 F9000 X114.129 Y170.698
G1 F1125 X46.539 Y103.108 E416.83922
G0 F9000 X46.539 Y105.37
G1 F1125 X111.867 Y170.698 E424.21401
G0 F9000 X109.604 Y170.698
G1 F1125 X46.539 Y107.633 E431.33333
G0 F9000 X46.539 Y109.896
G1 F1125 X75.922 Y139.278 E434.65028
G0 F9000 X73.58 Y139.199
G1 F1125 X46.539 Y112.159 E437.70284
G0 F9000 X46.539 Y114.421
G1 F1125 X71.317 Y139.199 E440.5
G0 F9000 X69.054 Y139.199
G1 F1125 X46.539 Y116.684 E443.04169
G0 F9000 X46.539 Y118.947
G1 F1125 X66.791 Y139.198 E445.32785
G0 F9000 X64.528 Y139.198
G1 F1125 X46.539 Y121.21 E447.35855
G0 F9000 X46.562 Y123.495
G1 F1125 X62.247 Y139.18 E449.12921
G0 F9000 X59.684 Y138.88
G1 F1125 X46.862 Y126.058 E450.57666
G0 F9000 X47.834 Y129.293
G1 F1125 X56.436 Y137.895 E451.54773
G1 F1500 E445.04773
G0 F9000 X56.229 Y139.411
G0 X57.507 Y139.869
G0 X58.659 Y140.14
G0 X79.279 Y144.347
G0 X80.715 Y144.072
G1 F1500 E451.54773
G1 F1125 X107.341 Y170.698 E454.55351
G0 F9000 X105.078 Y170.698
G1 F1125 X80.798 Y146.418 E457.29444
G0 F9000 X80.798 Y148.681
G1 F1125 X102.816 Y170.698 E459.77997
G0 F9000 X100.553 Y170.698
G1 F1125 X80.798 Y150.943 E462.01008
G0 F9000 X80.798 Y153.206
G1 F1125 X98.29 Y170.698 E463.98473
G0 F9000 X95.991 Y170.661
G1 F1125 X80.844 Y155.515 E465.6946
G0 F9000 X81.25 Y158.184
G1 F1125 X93.326 Y170.259 E467.05779
G0 F9000 X89.774 Y168.97
M104 S200
G1 F1125 X82.53 Y161.726 E467.87555
G1 F1500 E461.37555
G0 F300 X82.53 Y161.726 Z0.54
G0 F9000 X81.383 Y162.705
G0 X82.219 Y164.159
G0 X83.458 Y165.83
G0 X84.78 Y167.225
G0 X85.953 Y168.275
G0 X87.637 Y169.469
G0 X89.343 Y170.393
G0 X90.705 Y170.998
G0 X92.674 Y171.618
G0 X94.616 Y171.979
G0 X95.966 Y172.127
G0 X123.116 Y172.16
G0 X124.418 Y172.097
G0 X126.192 Y171.849
G0 X127.614 Y171.544
G0 X129.577 Y170.885
G0 X130.58 Y170.407
G0 X132.45 Y169.412
G0 X131.772 Y168.112
;TIME_ELAPSED:331.741562
;LAYER:-5
;TYPE:SUPPORT
G1 F1500 E467.87555
G1 F1125 X132.634 Y167.522 E467.97978
G1 X133.382 Y166.924 E468.07533
G1 X134.256 Y166.119 E468.1939
G1 X134.589 Y165.787 E468.24082
G1 X135.57 Y164.711 E468.3861
G1 X136.205 Y163.88 E468.49046
G1 X136.728 Y163.084 E468.58549
G1 X131.605 Y168.207 E469.3084
G1 X130.652 Y168.75 E469.41785
G1 X130.09 Y169.039 E469.4809
G1 X129.097 Y169.499 E469.5901
G1 X128.778 Y169.62 E469.62414
G1 X138.129 Y160.269 E470.94367
G1 X138.423 Y159.445 E471.03097
G1 X138.722 Y158.381 E471.14124
G1 X138.75 Y158.234 E471.15618
G1 X126.747 Y170.237 E472.84993
G1 X125.761 Y170.439 E472.95036
G1 X125.013 Y170.557 E473.02591
G1 X139.047 Y156.523 E475.00626
G1 X139.161 Y155.532 E475.1058
G1 X139.181 Y154.975 E475.16141
G1 X123.48 Y170.675 E477.37692
G1 X122.898 Y170.699 E477.43504
G1 X122.043 Y170.699 E477.52036
G1 X139.199 Y153.542 E479.94132
G1 X139.199 Y152.128 E480.08241
G1 X120.628 Y170.699 E482.70298
G1 X119.214 Y170.699 E482.84407
G1 X139.199 Y150.714 E485.66417
G1 X139.199 Y149.299 E485.80536
G1 X117.8 Y170.699 E488.82506
G1 X116.386 Y170.699 E488.96615
G1 X139.199 Y147.885 E492.18538
G1 X139.199 Y146.471 E492.32647
G1 X114.972 Y170.699 E495.74523
G1 X113.557 Y170.699 E495.88642
G1 X139.191 Y145.065 E499.50366
G1 X139.288 Y143.976 E499.61275
G1 X139.467 Y143.252 E499.68716
G1 X139.732 Y142.568 E499.76036
G1 X140.079 Y141.925 E499.83326
G1 X140.508 Y141.327 E499.9067
G1 X141.006 Y140.791 E499.9797
G1 X141.569 Y140.321 E500.05288
G1 X142.187 Y139.925 E500.12612
G1 X142.85 Y139.611 E500.19931
G1 X143.417 Y139.425 E500.25886
G1 X170.699 Y112.143 E504.10864
G1 X170.699 Y113.557 E504.24973
G1 X145.056 Y139.2 E507.86824
G1 X146.47 Y139.2 E508.00932
G1 X170.699 Y114.972 E511.42823
G1 X170.699 Y116.386 E511.56932
G1 X147.885 Y139.2 E514.78862
G1 X149.299 Y139.2 E514.92971
G1 X170.699 Y117.8 E517.94948
G1 X170.699 Y119.214 E518.09057
G1 X150.713 Y139.2 E520.91081
G1 X152.127 Y139.2 E521.0519
G1 X170.699 Y120.628 E523.67261
G1 X170.699 Y122.043 E523.8138
G1 X153.541 Y139.2 E526.23491
G1 X154.398 Y139.199 E526.32042
G1 X154.98 Y139.176 E526.37854
G1 X170.68 Y123.475 E528.59405
G1 X170.661 Y124.035 E528.64996
G1 X170.544 Y125.026 E528.74952
G1 X156.509 Y139.06 E530.72994
G1 X157.4 Y138.915 E530.82002
G1 X158.245 Y138.739 E530.90614
G1 X170.266 Y126.718 E532.60244
G1 X169.922 Y127.946 E532.72968
G1 X169.629 Y128.769 E532.81685
G1 X160.277 Y138.121 E534.13652
G1 X160.595 Y138.001 E534.17043
G1 X161.59 Y137.54 E534.27985
G1 X162.152 Y137.25 E534.34296
G1 X163.104 Y136.708 E534.45226
G1 X168.228 Y131.584 E535.17531
G1 X167.705 Y132.38 E535.27035
G1 X167.069 Y133.211 E535.37476
G1 X166.089 Y134.288 E535.52006
G1 X165.756 Y134.619 E535.56691
G1 X164.881 Y135.425 E535.68561
G1 X164.133 Y136.023 E535.78117
G1 X163.272 Y136.613 E535.88531
G1 F1500 E529.38531
G0 F9000 X163.95 Y137.912
G0 X162.126 Y138.907
G0 X160.172 Y139.726
G0 X159.115 Y140.033
G0 X140.867 Y143.696
G0 X139.426 Y143.416
G1 F1500 E535.88531
