;FLAVOR:Marlin
;TIME:16882
;Filament used: 14.8769m
;Layer height: 0.2
;MINX:2.855
;MINY:82.565
;MINZ:0.24
;MAXX:217.181
;MAXY:138.032
;MAXZ:26.89
;Generated with Cura_SteamEngine main
M82 ;absolute extrusion mode
; Ender 3 Custom Start G-code
G92 E0 ; Reset Extruder
G28 ; Home all axes
M104 S175 ; Start heating up the nozzle most of the way
M190 S60 ; Start heating the bed, wait until target temperature reached
M109 S200 ; Finish heating the nozzle
G1 Z2.0 F3000 ; Move Z Axis up little to prevent scratching of Heat Bed
G1 X0.1 Y20 Z0.3 F5000.0 ; Move to start position
G1 X0.1 Y200.0 Z0.3 F1500.0 E15 ; Draw the first line
G1 X0.4 Y200.0 Z0.3 F5000.0 ; Move to side a little
G1 X0.4 Y20 Z0.3 F1500.0 E30 ; Draw the second line
G92 E0 ; Reset Extruder
G1 Z2.0 F3000 ; Move Z Axis up little to prevent scratching of Heat Bed
G1 X5 Y20 Z0.3 F5000.0 ; Move over to prevent blob squish
G92 E0
G92 E0
G1 F1500 E-6.5
;LAYER_COUNT:130
;LAYER:-6
M107
G0 F9000 X14.824 Y83.204 Z0.24
;TYPE:SUPPORT-INTERFACE
G1 F1500 E0
G1 F1125 X13.897 Y83.525 E0.07831
G1 X12.833 Y83.978 E0.17062
G1 X11.816 Y84.515 E0.26242
G1 X10.975 Y85.035 E0.34135
G1 X10.122 Y85.653 E0.42543
G1 X9.298 Y86.349 E0.51153
G1 X8.536 Y87.092 E0.59649
G1 X7.837 Y87.881 E0.68063
G1 X7.18 Y88.74 E0.76696
G1 X6.603 Y89.623 E0.85116
G1 X6.086 Y90.556 E0.9363
G1 X5.604 Y91.613 E1.02903
G1 X5.254 Y92.546 E1.10858
G1 X4.942 Y93.633 E1.19885
G1 X4.75 Y94.52 E1.27129
G1 X4.587 Y95.639 E1.36156
G1 X4.512 Y96.741 E1.44973
G1 X4.362 Y101.547 E1.83355
G1 X4.359 Y102.166 E1.88296
G1 X4.403 Y103.179 E1.9639
G1 X4.515 Y104.13 E2.04034
G1 X4.58 Y104.518 E2.07174
G1 X4.665 Y105.255 E2.13096
G1 X4.65 Y105.982 E2.18901
G1 X4.551 Y106.639 E2.24205
G1 X4.342 Y107.602 E2.32071
G1 X4.178 Y108.725 E2.4113
G1 X4.104 Y109.802 E2.49747
G1 X3.922 Y115.696 E2.96818
G1 X3.939 Y117.093 E3.0797
G1 X4.037 Y118.091 E3.15975
G1 X4.225 Y119.214 E3.25064
G1 X4.504 Y120.318 E3.34154
G1 X5.024 Y121.848 E3.47053
G1 X5.429 Y122.755 E3.54982
G1 X5.961 Y123.756 E3.64031
G1 X6.54 Y124.667 E3.72647
G1 X7.125 Y125.453 E3.80469
G1 X7.609 Y126.048 E3.86591
G1 X8.335 Y126.835 E3.95138
G1 X9.108 Y127.56 E4.03598
G1 X9.994 Y128.277 E4.12696
G1 X10.877 Y128.885 E4.21254
G1 X11.827 Y129.439 E4.30032
G1 X12.75 Y129.89 E4.38233
G1 X13.723 Y130.284 E4.46612
G1 X14.084 Y130.413 E4.49672
G1 X15.393 Y130.814 E4.60601
G1 X16.427 Y131.039 E4.69048
G1 X17.481 Y131.188 E4.77545
G1 X18.522 Y131.259 E4.85874
G1 X20.139 Y131.311 E4.98788
G1 X20.614 Y131.348 E5.02591
G1 X21.291 Y131.476 E5.08091
G1 X21.467 Y131.521 E5.09541
G1 X22.41 Y131.725 E5.17243
G1 X23.463 Y131.874 E5.25732
G1 X24.507 Y131.945 E5.34085
G1 X185.442 Y136.964 E18.19362
G1 X186.053 Y136.967 E18.24239
G1 X187.052 Y136.925 E18.32221
G1 X188.1 Y136.804 E18.40642
G1 X189.086 Y136.615 E18.48656
G1 X190.183 Y136.329 E18.57706
G1 X191.191 Y135.978 E18.66226
G1 X192.183 Y135.549 E18.74853
G1 X193.198 Y135.014 E18.84012
G1 X194.101 Y134.447 E18.92523
G1 X194.885 Y133.88 E19.00246
G1 X195.767 Y133.127 E19.09504
G1 X196.468 Y132.443 E19.17322
G1 X197.178 Y131.642 E19.25866
G1 X197.864 Y130.733 E19.34957
G1 X198.36 Y129.976 E19.42181
G1 X198.872 Y129.064 E19.5053
G1 X199.048 Y128.772 E19.53251
G1 X199.46 Y128.214 E19.58788
G1 X199.909 Y127.742 E19.63988
G1 X200.441 Y127.307 E19.69474
G1 X201.036 Y126.935 E19.75075
G1 X201.654 Y126.653 E19.80497
G1 X202.305 Y126.448 E19.85946
G1 X202.965 Y126.331 E19.91296
G1 X203.528 Y126.259 E19.95827
G1 X204.496 Y126.074 E20.03694
G1 X205.446 Y125.82 E20.11543
G1 X206.536 Y125.448 E20.20737
G1 X207.591 Y124.984 E20.29937
G1 X208.527 Y124.49 E20.38385
G1 X209.44 Y123.918 E20.46985
G1 X210.158 Y123.398 E20.54062
G1 X211.038 Y122.665 E20.63204
G1 X211.805 Y121.918 E20.71751
G1 X212.509 Y121.122 E20.80233
G1 X213.151 Y120.283 E20.88666
G1 X213.738 Y119.383 E20.97243
G1 X214.26 Y118.442 E21.05833
G1 X214.714 Y117.461 E21.14462
G1 X215.077 Y116.488 E21.22752
G1 X215.399 Y115.378 E21.31978
G1 X215.608 Y114.412 E21.39867
G1 X215.757 Y113.361 E21.4834
G1 X215.83 Y112.29 E21.56909
G1 X216.11 Y103.307 E22.2865
G1 X216.111 Y103.057 E22.30646
G1 X216.113 Y102.696 E22.33528
G1 X216.071 Y101.692 E22.41549
G1 X215.948 Y100.637 E22.50028
G1 X215.746 Y99.585 E22.58579
G1 X215.441 Y98.47 E22.67806
G1 X215.123 Y97.553 E22.75554
G1 X214.658 Y96.497 E22.84764
G1 X214.16 Y95.551 E22.93298
G1 X213.591 Y94.645 E23.01838
G1 X213.026 Y93.864 E23.09533
G1 X212.273 Y92.982 E23.1879
G1 X211.589 Y92.281 E23.26608
G1 X210.788 Y91.571 E23.35152
G1 X209.879 Y90.885 E23.44243
G1 X209.122 Y90.389 E23.51467
G1 X208.121 Y89.828 E23.60627
G1 X207.069 Y89.347 E23.6986
G1 X206.133 Y88.996 E23.7784
G1 X205.046 Y88.684 E23.86867
G1 X204.159 Y88.492 E23.94112
G1 X203.04 Y88.329 E24.03138
G1 X201.938 Y88.254 E24.11955
G1 X187.784 Y87.812 E25.24994
G1 X187.371 Y87.807 E25.28291
G1 X19.565 Y82.568 E38.68443
G1 X18.954 Y82.565 E38.73321
G1 X17.959 Y82.608 E38.81271
G1 X16.981 Y82.72 E38.89128
G1 X15.919 Y82.917 E38.9775
G1 X14.824 Y83.204 E39.06786
G0 F9000 X15.545 Y83.427
G1 F1125 X64.922 Y132.804 E44.64197
G0 F9000 X67.257 Y132.877
G1 F1125 X17.449 Y83.068 E50.26478
G0 F9000 X19.613 Y82.969
G1 F1125 X69.593 Y132.95 E55.90701
G0 F9000 X71.929 Y133.023
G1 F1125 X21.948 Y83.042 E61.5493
G0 F9000 X24.284 Y83.115
G1 F1125 X74.264 Y133.095 E67.19147
G0 F9000 X76.6 Y133.168
G1 F1125 X26.619 Y83.188 E72.8337
G0 F9000 X28.955 Y83.261
G1 F1125 X78.935 Y133.241 E78.47588
G0 F9000 X81.271 Y133.314
G1 F1125 X31.291 Y83.334 E84.11805
G0 F9000 X33.627 Y83.407
G1 F1125 X83.606 Y133.387 E89.76017
G0 F9000 X85.942 Y133.46
G1 F1125 X35.962 Y83.48 E95.40234
G0 F9000 X38.298 Y83.553
G1 F1125 X88.278 Y133.532 E101.04446
G0 F9000 X90.613 Y133.605
G1 F1125 X40.633 Y83.625 E106.68664
G0 F9000 X42.969 Y83.698
G1 F1125 X92.949 Y133.678 E112.32881
G0 F9000 X95.284 Y133.751
G1 F1125 X45.305 Y83.771 E117.97093
G0 F9000 X47.641 Y83.845
G1 F1125 X97.62 Y133.824 E123.61299
G0 F9000 X99.955 Y133.897
G1 F1125 X49.976 Y83.918 E129.25505
G0 F9000 X52.312 Y83.99
G1 F1125 X102.291 Y133.969 E134.89711
G0 F9000 X104.627 Y134.042
G1 F1125 X54.648 Y84.063 E140.53917
G0 F9000 X56.983 Y84.136
G1 F1125 X106.962 Y134.115 E146.18123
G0 F9000 X109.298 Y134.188
G1 F1125 X59.319 Y84.209 E151.8233
G0 F9000 X61.654 Y84.282
G1 F1125 X111.633 Y134.261 E157.46536
G0 F9000 X113.969 Y134.334
G1 F1125 X63.99 Y84.355 E163.10742
G0 F9000 X66.326 Y84.428
G1 F1125 X116.304 Y134.406 E168.74937
G0 F9000 X118.64 Y134.479
G1 F1125 X68.662 Y84.501 E174.39132
G0 F9000 X70.997 Y84.574
G1 F1125 X120.976 Y134.552 E180.03332
G0 F9000 X123.311 Y134.625
G1 F1125 X73.333 Y84.647 E185.67527
G0 F9000 X75.668 Y84.719
G1 F1125 X125.647 Y134.698 E191.31733
G0 F9000 X127.982 Y134.771
G1 F1125 X78.004 Y84.792 E196.95934
G0 F9000 X80.34 Y84.865
G1 F1125 X130.318 Y134.843 E202.60128
G0 F9000 X132.653 Y134.916
G1 F1125 X82.676 Y84.939 E208.24312
G0 F9000 X85.011 Y85.011
G1 F1125 X134.99 Y134.99 E213.88518
G0 F9000 X137.325 Y135.063
G1 F1125 X87.347 Y85.084 E219.52719
G0 F9000 X89.683 Y85.157
G1 F1125 X139.661 Y135.135 E225.16914
G0 F9000 X141.996 Y135.208
G1 F1125 X92.018 Y85.23 E230.81108
G0 F9000 X94.354 Y85.303
G1 F1125 X144.332 Y135.281 E236.45303
G0 F9000 X146.668 Y135.354
G1 F1125 X96.689 Y85.376 E242.09504
G0 F9000 X99.025 Y85.448
G1 F1125 X149.003 Y135.427 E247.73704
G0 F9000 X151.339 Y135.5
G1 F1125 X101.361 Y85.522 E253.37899
G0 F9000 X103.697 Y85.595
G1 F1125 X153.674 Y135.572 E259.02083
G0 F9000 X156.01 Y135.645
G1 F1125 X106.032 Y85.668 E264.66272
G0 F9000 X108.368 Y85.74
G1 F1125 X158.345 Y135.718 E270.30461
G0 F9000 X160.681 Y135.791
G1 F1125 X110.703 Y85.813 E275.94656
G0 F9000 X113.039 Y85.886
G1 F1125 X163.017 Y135.864 E281.58851
G0 F9000 X165.352 Y135.937
G1 F1125 X115.375 Y85.959 E287.2304
G0 F9000 X117.711 Y86.032
G1 F1125 X167.688 Y136.009 E292.87224
G0 F9000 X170.023 Y136.082
G1 F1125 X120.046 Y86.105 E298.51407
G0 F9000 X122.382 Y86.178
G1 F1125 X172.359 Y136.155 E304.15591
G0 F9000 X174.694 Y136.228
G1 F1125 X124.718 Y86.251 E309.79769
G0 F9000 X127.053 Y86.324
G1 F1125 X177.03 Y136.301 E315.43952
G0 F9000 X179.366 Y136.374
G1 F1125 X129.389 Y86.397 E321.08136
G0 F9000 X131.724 Y86.469
G1 F1125 X181.701 Y136.446 E326.72319
G0 F9000 X184.037 Y136.519
G1 F1125 X134.06 Y86.542 E332.36503
G0 F9000 X136.396 Y86.616
G1 F1125 X186.334 Y136.554 E338.00246
G0 F9000 X188.384 Y136.341
G1 F1125 X138.732 Y86.689 E343.60761
G0 F9000 X141.067 Y86.762
G1 F1125 X190.203 Y135.897 E349.15445
G0 F9000 X191.832 Y135.263
G1 F1125 X143.403 Y86.834 E354.62153
G0 F9000 X145.738 Y86.907
G1 F1125 X193.304 Y134.473 E359.99119
G0 F9000 X194.648 Y133.554
G1 F1125 X148.074 Y86.98 E365.24887
G0 F9000 X150.41 Y87.053
G1 F1125 X195.845 Y132.489 E370.37802
G0 F9000 X196.928 Y131.309
G1 F1125 X152.745 Y87.126 E375.36578
G0 F9000 X155.081 Y87.199
G1 F1125 X197.872 Y129.99 E380.1964
G0 F9000 X198.707 Y128.562
G1 F1125 X157.417 Y87.272 E384.85757
G0 F9000 X159.753 Y87.345
G1 F1125 X199.757 Y127.349 E389.37357
G0 F9000 X201.125 Y126.454
G1 F1125 X162.088 Y87.418 E393.78034
G0 F9000 X164.424 Y87.491
G1 F1125 X202.873 Y125.939 E398.12074
G0 F9000 X204.779 Y125.583
G1 F1125 X166.759 Y87.563 E402.41277
G0 F9000 X169.095 Y87.636
G1 F1125 X206.489 Y125.03 E406.63413
G0 F9000 X208.023 Y124.302
G1 F1125 X171.431 Y87.71 E410.76495
G0 F9000 X173.767 Y87.783
G1 F1125 X209.42 Y123.436 E414.78977
G0 F9000 X210.684 Y122.437
G1 F1125 X176.102 Y87.855 E418.69368
G0 F9000 X178.438 Y87.928
G1 F1125 X211.813 Y121.304 E422.4614
G0 F9000 X212.823 Y120.051
G1 F1125 X180.773 Y88.001 E426.07948
G0 F9000 X183.109 Y88.074
G1 F1125 X213.686 Y118.651 E429.53127
G0 F9000 X214.415 Y117.117
G1 F1125 X185.445 Y88.147 E432.80166
G0 F9000 X187.772 Y88.212
G1 F1125 X214.973 Y115.412 E435.87229
G0 F9000 X215.332 Y113.509
G1 F1125 X190.109 Y88.285 E438.71973
G0 F9000 X192.444 Y88.358
G1 F1125 X215.457 Y111.371 E441.31764
G0 F9000 X215.526 Y109.177
G1 F1125 X194.78 Y88.431 E443.65963
G0 F9000 X197.115 Y88.504
G1 F1125 X215.594 Y106.983 E445.7457
G0 F9000 X215.663 Y104.788
G1 F1125 X199.452 Y88.577 E447.57573
G0 F9000 X201.787 Y88.65
G1 F1125 X215.707 Y102.57 E449.14714
G0 F9000 X215.422 Y100.022
G1 F1125 X204.34 Y88.94 E450.39818
G0 F9000 X207.77 Y90.108
G1 F1125 X214.256 Y96.594 E451.13037
G1 F1500 E444.63037
G0 F9000 X215.556 Y95.916
G0 X216.15 Y97.266
G0 X216.757 Y99.242
G0 X217.012 Y100.571
G0 X217.181 Y102.816
G0 X216.824 Y113.368
G0 X216.632 Y114.717
G0 X216.119 Y116.725
G0 X215.647 Y117.98
G0 X214.703 Y119.838
G0 X213.95 Y120.99
G0 X212.644 Y122.576
G0 X211.682 Y123.514
G0 X210.041 Y124.796
G0 X194.53 Y135.44
G0 X192.722 Y136.468
G0 X191.483 Y137.004
G0 X189.484 Y137.618
G0 X188.169 Y137.867
G0 X186.157 Y138.018
G0 X62.541 Y134.197
G0 X62.586 Y132.731
G1 F1500 E451.13037
G1 F1125 X13.838 Y83.983 E456.63347
G0 F9000 X12.302 Y84.709
G1 F1125 X60.25 Y132.658 E462.04631
G0 F9000 X57.914 Y132.585
G1 F1125 X10.907 Y85.578 E467.35286
G0 F9000 X9.645 Y86.578
G1 F1125 X55.579 Y132.512 E472.53829
G0 F9000 X53.243 Y132.439
G1 F1125 X8.517 Y87.713 E477.58735
G0 F9000 X7.508 Y88.967
G1 F1125 X50.908 Y132.366 E482.48666
G0 F9000 X48.572 Y132.294
G1 F1125 X6.646 Y90.367 E487.21968
G0 F9000 X5.92 Y91.904
G1 F1125 X46.237 Y132.221 E491.77102
G0 F9000 X43.901 Y132.148
G1 F1125 X5.363 Y93.61 E496.12152
G0 F9000 X5.008 Y95.518
G1 F1125 X41.565 Y132.075 E500.24839
G0 F9000 X39.23 Y132.002
G1 F1125 X4.883 Y97.655 E504.12577
G0 F9000 X4.814 Y99.849
G1 F1125 X36.894 Y131.929 E507.74724
G0 F9000 X34.559 Y131.857
G1 F1125 X4.758 Y102.056 E511.11144
G0 F9000 X4.983 Y104.544
G1 F1125 X32.223 Y131.784 E514.18652
G0 F9000 X29.887 Y131.711
G1 F1125 X4.934 Y106.757 E517.00349
G0 F9000 X4.589 Y108.675
G1 F1125 X27.552 Y131.638 E519.59575
G0 F9000 X25.216 Y131.565
G1 F1125 X4.472 Y110.821 E521.93751
G0 F9000 X4.404 Y113.016
G1 F1125 X22.757 Y131.369 E524.00936
G0 F9000 X20.031 Y130.905
G1 F1125 X4.336 Y115.211 E525.78109
G0 F9000 X4.382 Y117.519
G1 F1125 X17.661 Y130.798 E527.28014
G0 F9000 X14.818 Y130.218
G1 F1125 X4.931 Y120.331 E528.39627
G1 F1500 E521.89627
G0 F9000 X3.541 Y120.812
G0 X4.089 Y122.367
G0 X4.826 Y123.861
G0 X5.725 Y125.354
G0 X7.141 Y124.803
M104 S200
G1 F1500 E528.39627
G1 F1125 X10.424 Y128.086 E528.76688
G1 F1500 E522.26688
G0 F300 X10.424 Y128.086 Z0.54
G0 F9000 X9.281 Y129.07
G0 X7.716 Y127.719
G0 X6.281 Y126.1
G0 X5.106 Y124.395
G0 X4.467 Y123.212
G0 X3.989 Y122.112
G0 X3.442 Y120.48
G0 X3.006 Y118.412
G0 X2.874 Y117.058
G0 X2.857 Y115.681
G0 X3.519 Y95.637
G0 X3.704 Y94.321
G0 X4.12 Y92.682
G0 X4.618 Y91.214
G0 X6.107 Y91.473
;TIME_ELAPSED:376.470634
;LAYER:-5
;TYPE:SUPPORT
G1 F1500 E528.76688
G1 F1125 X13.423 Y84.157 E529.79925
G1 X13.012 Y84.335 E529.84394
G1 X12.001 Y84.869 E529.95802
G1 X11.211 Y85.357 E530.05068
G1 X10.369 Y85.966 E530.15436
G1 X9.572 Y86.636 E530.25826
G1 X8.778 Y87.418 E530.36945
G1 X8.138 Y88.143 E530.46595
G1 X7.511 Y88.963 E530.56895
G1 X6.988 Y89.765 E530.66448
G1 X6.436 Y90.745 E530.77671
G1 X5.973 Y91.768 E530.88876
G1 X5.642 Y92.645 E530.98229
G1 X5.354 Y93.64 E531.08565
G1 X15.576 Y83.418 E532.52808
G1 X16.01 Y83.304 E532.57285
G1 X17.037 Y83.114 E532.67707
G1 X17.328 Y83.08 E532.7063
G1 X5.028 Y95.38 E534.44196
G1 X4.984 Y95.684 E534.47261
G1 X4.898 Y96.925 E534.59674
G1 X18.866 Y82.956 E536.56784
G1 X20.248 Y82.988 E536.70578
G1 X4.862 Y98.375 E538.87698
G1 X4.816 Y99.835 E539.02273
G1 X21.619 Y83.032 E541.39382
G1 X22.991 Y83.074 E541.53078
G1 X4.77 Y101.295 E544.10196
G1 X4.756 Y102.032 E544.17551
G1 X4.783 Y102.696 E544.24182
G1 X24.362 Y83.117 E547.00463
G1 X25.734 Y83.16 E547.14159
G1 X4.899 Y103.994 E550.08157
G1 X4.973 Y104.443 E550.12697
G1 X5.067 Y105.241 E550.20715
G1 X27.105 Y83.203 E553.31695
G1 X28.477 Y83.245 E553.45391
G1 X4.926 Y106.796 E556.77721
G1 X4.732 Y107.684 E556.8679
G1 X4.611 Y108.526 E556.95278
G1 X29.848 Y83.288 E560.51407
G1 X31.22 Y83.331 E560.65103
G1 X4.497 Y110.054 E564.42194
G1 X4.451 Y111.513 E564.56759
G1 X32.591 Y83.374 E568.53838
G1 X33.963 Y83.416 E568.67534
G1 X4.406 Y112.973 E572.84615
G1 X4.361 Y114.432 E572.9918
G1 X35.334 Y83.459 E577.36242
G1 X36.705 Y83.502 E577.49929
G1 X4.323 Y115.884 E582.06874
G1 X4.341 Y117.28 E582.20805
G1 X38.077 Y83.544 E586.96856
G1 X39.448 Y83.587 E587.10543
G1 X4.514 Y118.522 E592.03506
G1 X4.616 Y119.134 E592.09697
G1 X4.758 Y119.692 E592.15442
G1 X40.82 Y83.63 E597.24316
G1 X42.191 Y83.673 E597.38003
G1 X5.083 Y120.781 E602.61636
G1 X5.442 Y121.837 E602.72766
G1 X43.563 Y83.715 E608.10701
G1 X44.934 Y83.758 E608.24388
G1 X5.898 Y122.794 E613.75228
G1 X6.264 Y123.475 E613.82942
G1 X6.406 Y123.701 E613.85605
G1 X46.306 Y83.801 E619.48637
G1 X47.677 Y83.844 E619.62324
G1 X6.962 Y124.559 E625.36857
G1 X7.568 Y125.367 E625.46934
G1 X49.049 Y83.886 E631.32276
G1 X50.42 Y83.93 E631.45963
G1 X8.224 Y126.125 E637.41387
G1 X8.628 Y126.56 E637.47311
G1 X8.924 Y126.84 E637.51376
G1 X51.792 Y83.972 E643.5629
G1 X53.163 Y84.015 E643.69977
G1 X9.671 Y127.506 E649.83689
G1 X10.231 Y127.955 E649.90851
G1 X10.471 Y128.121 E649.93763
G1 X54.534 Y84.058 E656.15539
G1 X55.905 Y84.101 E656.29226
G1 X11.323 Y128.683 E662.58326
G1 X12.002 Y129.078 E662.66164
G1 X12.23 Y129.19 E662.68699
G1 X57.277 Y84.143 E669.04361
G1 X58.649 Y84.186 E669.18057
G1 X13.195 Y129.64 E675.59462
G1 X13.867 Y129.91 E675.66688
G1 X14.214 Y130.035 E675.70369
G1 X60.02 Y84.229 E682.16741
G1 X61.392 Y84.271 E682.30437
G1 X15.281 Y130.382 E688.81113
G1 X16.445 Y130.633 E688.92994
G1 X62.763 Y84.314 E695.46598
G1 X64.135 Y84.357 E695.60295
G1 X17.69 Y130.802 E702.15684
G1 X18.532 Y130.859 E702.24105
G1 X19.031 Y130.874 E702.29086
G1 X65.506 Y84.4 E708.84892
G1 X66.878 Y84.442 E708.98588
G1 X20.391 Y130.929 E715.5457
G1 X20.676 Y130.951 E715.57422
G1 X21.608 Y131.127 E715.66886
G1 X68.249 Y84.485 E722.25048
G1 X69.621 Y84.528 E722.38744
G1 X22.776 Y131.372 E728.99771
G1 X23.505 Y131.476 E729.07118
G1 X24.05 Y131.513 E729.12569
G1 X70.992 Y84.571 E735.74971
G1 X72.363 Y84.613 E735.88658
G1 X25.404 Y131.572 E742.513
G1 X26.776 Y131.615 E742.64996
G1 X73.734 Y84.656 E749.27632
G1 X75.106 Y84.699 E749.41328
G1 X28.147 Y131.658 E756.0397
