;FLAVOR:Marlin
;TIME:3917
;Filament used: 2.87502m
;Layer height: 0.2
;MINX:79.336
;MINY:79.356
;MINZ:0.24
;MAXX:140.646
;MAXY:140.665
;MAXZ:26.09
;Generated with Cura_SteamEngine main
M82 ;absolute extrusion mode
; Ender 3 Custom Start G-code
G92 E0 ; Reset Extruder
G28 ; Home all axes
M104 S175 ; Start heating up the nozzle most of the way
M190 S60 ; Start heating the bed, wait until target temperature reached
M109 S200 ; Finish heating the nozzle
G1 Z2.0 F3000 ; Move Z Axis up little to prevent scratching of Heat Bed
G1 X0.1 Y20 Z0.3 F5000.0 ; Move to start position
G1 X0.1 Y200.0 Z0.3 F1500.0 E15 ; Draw the first line
G1 X0.4 Y200.0 Z0.3 F5000.0 ; Move to side a little
G1 X0.4 Y20 Z0.3 F1500.0 E30 ; Draw the second line
G92 E0 ; Reset Extruder
G1 Z2.0 F3000 ; Move Z Axis up little to prevent scratching of Heat Bed
G1 X5 Y20 Z0.3 F5000.0 ; Move over to prevent blob squish
G92 E0
G92 E0
G1 F1500 E-6.5
;LAYER_COUNT:125
;LAYER:-6
M107
G0 F9000 X84.423 Y85.547 Z0.24
;TYPE:SUPPORT-INTERFACE
G1 F1500 E0
G1 F1125 X83.775 Y86.311 E0.07997
G1 X83.099 Y87.243 E0.17187
G1 X82.627 Y87.999 E0.24302
G1 X82.415 Y88.362 E0.27657
G1 X82.092 Y88.958 E0.33069
G1 X81.622 Y89.957 E0.41881
G1 X81.268 Y90.87 E0.49698
G1 X80.958 Y91.885 E0.5817
G1 X80.766 Y92.645 E0.64427
G1 X80.573 Y93.668 E0.72737
G1 X80.448 Y94.741 E0.8136
G1 X80.401 Y95.891 E0.90548
G1 X80.401 Y125.049 E3.23299
G1 X80.408 Y125.446 E3.26469
G1 X80.489 Y126.605 E3.35743
G1 X80.633 Y127.577 E3.43587
G1 X80.878 Y128.697 E3.52738
G1 X81.216 Y129.801 E3.61955
G1 X81.6 Y130.788 E3.70409
G1 X81.986 Y131.609 E3.7765
G1 X82.539 Y132.607 E3.86758
G1 X83.13 Y133.499 E3.953
G1 X83.789 Y134.354 E4.03917
G1 X84.554 Y135.196 E4.12998
G1 X85.205 Y135.823 E4.20212
G1 X86.077 Y136.556 E4.29306
G1 X86.959 Y137.185 E4.37953
G1 X87.931 Y137.77 E4.47009
G1 X88.798 Y138.217 E4.54795
G1 X89.782 Y138.635 E4.63329
G1 X90.798 Y138.98 E4.71894
G1 X91.903 Y139.264 E4.81002
G1 X92.785 Y139.427 E4.88161
G1 X93.86 Y139.552 E4.968
G1 X94.991 Y139.599 E5.05836
G1 X97.995 Y139.599 E5.29815
G1 X98.88 Y139.57 E5.36884
G1 X99.862 Y139.48 E5.44755
G1 X100.831 Y139.319 E5.52596
G1 X101.866 Y139.074 E5.61086
G1 X102.965 Y138.73 E5.70279
G1 X104.022 Y138.297 E5.79397
G1 X104.845 Y137.891 E5.86722
G1 X105.82 Y137.329 E5.95705
G1 X106.709 Y136.717 E6.04321
G1 X107.469 Y136.108 E6.12095
G1 X108.307 Y135.34 E6.21168
G1 X135.298 Y108.348 E9.25872
G1 X135.92 Y107.684 E9.33134
G1 X136.557 Y106.919 E9.41081
G1 X137.183 Y106.046 E9.49656
G1 X137.692 Y105.209 E9.57476
G1 X138.214 Y104.206 E9.66501
G1 X138.636 Y103.215 E9.75099
G1 X138.978 Y102.213 E9.83551
G1 X139.264 Y101.097 E9.92747
G1 X139.442 Y100.131 E10.00588
G1 X139.563 Y98.993 E10.09723
G1 X139.6 Y97.992 E10.17719
G1 X139.6 Y95.169 E10.40253
G1 X139.592 Y94.552 E10.45179
G1 X139.511 Y93.392 E10.54461
G1 X139.367 Y92.423 E10.62281
G1 X139.121 Y91.297 E10.71481
G1 X138.816 Y90.279 E10.79964
G1 X138.4 Y89.212 E10.89106
G1 X138.014 Y88.391 E10.96348
G1 X137.499 Y87.461 E11.04834
G1 X136.876 Y86.513 E11.13889
G1 X136.208 Y85.644 E11.22638
G1 X135.444 Y84.804 E11.31702
G1 X134.795 Y84.177 E11.38905
G1 X133.926 Y83.447 E11.47965
G1 X133.048 Y82.818 E11.56586
G1 X132.07 Y82.23 E11.65696
G1 X131.19 Y81.778 E11.73593
G1 X130.205 Y81.36 E11.82134
G1 X129.201 Y81.02 E11.90595
G1 X128.097 Y80.736 E11.99695
G1 X127.215 Y80.573 E12.06855
G1 X126.141 Y80.448 E12.15486
G1 X125.009 Y80.401 E12.2453
G1 X95.934 Y80.401 E14.56619
G1 X95.203 Y80.419 E14.62456
G1 X94.199 Y80.498 E14.70495
G1 X93.144 Y80.661 E14.79016
G1 X92.154 Y80.886 E14.8712
G1 X91.883 Y80.956 E14.89355
G1 X91.341 Y81.113 E14.93859
G1 X90.267 Y81.493 E15.02953
G1 X89.374 Y81.886 E15.10741
G1 X88.391 Y82.401 E15.19599
G1 X88.055 Y82.592 E15.22684
G1 X87.445 Y82.968 E15.28404
G1 X86.648 Y83.517 E15.3613
G1 X85.81 Y84.189 E15.44704
G1 X85.018 Y84.924 E15.53329
G1 X84.423 Y85.547 E15.60206
G0 F9000 X85.254 Y85.254
G1 F1125 X121.54 Y121.54 E19.69834
G0 F9000 X120.408 Y122.671
G1 F1125 X84.183 Y86.446 E23.78773
G0 F9000 X83.242 Y87.768
G1 F1125 X119.277 Y123.803 E27.85567
G0 F9000 X118.146 Y124.934
G1 F1125 X82.417 Y89.205 E31.88907
G0 F9000 X81.73 Y90.781
G1 F1125 X117.014 Y126.065 E35.87223
G0 F9000 X115.883 Y127.197
G1 F1125 X81.209 Y92.522 E39.78659
G0 F9000 X80.883 Y94.459
G1 F1125 X114.752 Y128.328 E43.61001
G0 F9000 X113.62 Y129.459
G1 F1125 X80.8 Y96.639 E47.31502
G0 F9000 X80.8 Y98.902
G1 F1125 X112.489 Y130.591 E50.89235
G0 F9000 X111.358 Y131.722
G1 F1125 X80.8 Y101.165 E54.34194
G0 F9000 X80.8 Y103.427
G1 F1125 X110.226 Y132.854 E57.66386
G0 F9000 X109.095 Y133.985
G1 F1125 X80.8 Y105.69 E60.85804
G0 F9000 X80.8 Y107.953
G1 F1125 X107.96 Y135.113 E63.9241
G0 F9000 X106.752 Y136.168
G1 F1125 X80.8 Y110.216 E66.85379
G0 F9000 X80.799 Y112.478
G1 F1125 X105.419 Y137.097 E69.63305
G0 F9000 X103.946 Y137.887
G1 F1125 X80.799 Y114.74 E72.24608
G0 F9000 X80.799 Y117.003
G1 F1125 X102.31 Y138.514 E74.67443
G0 F9000 X100.5 Y138.966
G1 F1125 X80.799 Y119.266 E76.89839
G0 F9000 X80.799 Y121.529
G1 F1125 X98.453 Y139.182 E78.89127
G0 F9000 X96.206 Y139.198
G1 F1125 X80.799 Y123.791 E80.63055
G0 F9000 X80.854 Y126.109
G1 F1125 X93.897 Y139.152 E82.10295
G0 F9000 X91.134 Y138.652
G1 F1125 X81.346 Y128.864 E83.20791
G1 F1500 E76.70791
G0 F9000 X80.144 Y129.958
G0 X80.625 Y131.217
G0 X81.402 Y132.727
G0 X82.176 Y133.987
G0 X83.396 Y133.176
G1 F1500 E83.20791
G1 F1125 X86.796 Y136.576 E83.59173
G1 F1500 E77.09173
G0 F9000 X86.261 Y137.996
G0 X87.42 Y138.705
G0 X89.3 Y139.587
G0 X90.59 Y140.027
G0 X92.617 Y140.479
G0 X93.943 Y140.626
G0 X98.956 Y140.632
G0 X101.033 Y140.366
G0 X102.342 Y140.047
G0 X104.307 Y139.335
G0 X105.502 Y138.747
G0 X107.254 Y137.634
G0 X108.311 Y136.788
G0 X123.709 Y121.445
G0 X122.671 Y120.408
G1 F1500 E83.59173
G1 F1125 X86.45 Y84.188 E87.68061
G0 F9000 X87.765 Y83.239
G1 F1125 X123.803 Y119.277 E91.74889
G0 F9000 X124.934 Y118.146
G1 F1125 X89.211 Y82.423 E95.78161
G0 F9000 X90.784 Y81.733
G1 F1125 X126.065 Y117.014 E99.76444
G0 F9000 X127.197 Y115.883
G1 F1125 X92.525 Y81.211 E103.67851
G0 F9000 X94.456 Y80.879
G1 F1125 X128.328 Y114.752 E107.50233
G0 F9000 X129.459 Y113.62
G1 F1125 X96.64 Y80.801 E111.20722
G0 F9000 X98.903 Y80.801
G1 F1125 X130.591 Y112.489 E114.78444
G0 F9000 X131.722 Y111.358
G1 F1125 X101.165 Y80.801 E118.23398
G0 F9000 X103.428 Y80.801
G1 F1125 X132.854 Y110.226 E121.55578
G0 F9000 X133.985 Y109.095
G1 F1125 X105.691 Y80.801 E124.74985
G0 F9000 X107.953 Y80.801
G1 F1125 X135.113 Y107.96 E127.81585
G0 F9000 X136.171 Y106.756
G1 F1125 X110.216 Y80.801 E130.74588
G0 F9000 X112.479 Y80.801
G1 F1125 X137.095 Y105.417 E133.52474
G0 F9000 X137.888 Y103.947
G1 F1125 X114.742 Y80.801 E136.13767
G0 F9000 X117.004 Y80.801
G1 F1125 X138.519 Y102.315 E138.56641
G0 F9000 X138.966 Y100.5
G1 F1125 X119.267 Y80.801 E140.7902
G0 F9000 X121.53 Y80.801
G1 F1125 X139.182 Y98.453 E142.78291
G0 F9000 X139.199 Y96.207
G1 F1125 X123.793 Y80.801 E144.52207
G0 F9000 X126.101 Y80.847
G1 F1125 X139.144 Y93.889 E145.99442
G0 F9000 X138.654 Y91.136
G1 F1125 X128.865 Y81.347 E147.09949
G1 F1500 E140.59949
G0 F9000 X129.62 Y80.036
G0 X131.538 Y80.769
G0 X132.22 Y81.119
G0 X133.739 Y82.004
G0 X133.199 Y83.419
M104 S200
G1 F1500 E147.09949
G1 F1125 X136.596 Y86.815 E147.48292
G1 F1500 E140.98292
G0 F300 X136.596 Y86.815 Z0.54
G0 F9000 X137.817 Y86.003
G0 X138.878 Y87.743
G0 X139.45 Y88.961
G0 X140.121 Y90.927
G0 X140.417 Y92.242
G0 X140.646 Y94.31
G0 X140.626 Y99.057
G0 X140.479 Y100.383
G0 X140.027 Y102.41
G0 X139.903 Y102.775
G0 X139.244 Y104.508
G0 X137.894 Y103.936
;TIME_ELAPSED:112.562044
;LAYER:-5
;TYPE:SUPPORT
G1 F1500 E147.48292
G1 F1125 X103.939 Y137.891 E152.27433
G1 X104.657 Y137.539 E152.35412
G1 X105.604 Y136.99 E152.46335
G1 X106.474 Y136.391 E152.56874
G1 X107.352 Y135.68 E152.68147
G1 X108.021 Y135.058 E152.77262
G1 X135.051 Y108.029 E156.58677
G1 X135.629 Y107.41 E156.67128
G1 X136.178 Y106.751 E156.75686
G1 X136.844 Y105.829 E156.87035
G1 X137.411 Y104.894 E156.97946
G1 X137.86 Y104.018 E157.07768
G1 X138.288 Y102.995 E157.18833
G1 X138.604 Y102.063 E157.28652
G1 X138.691 Y101.725 E157.32135
G1 X101.718 Y138.698 E162.53864
G1 X100.845 Y138.91 E162.62828
G1 X99.942 Y139.059 E162.7196
G1 X139.059 Y99.942 E168.23943
G1 X139.162 Y98.963 E168.33765
G1 X139.182 Y98.405 E168.39337
G1 X98.401 Y139.186 E174.148
G1 X97.978 Y139.198 E174.19023
G1 X96.974 Y139.198 E174.29041
G1 X139.198 Y96.974 E180.24867
G1 X139.198 Y95.56 E180.38976
G1 X95.56 Y139.198 E186.54755
G1 X95.012 Y139.198 E186.60223
G1 X94.18 Y139.164 E186.68532
G1 X139.163 Y94.181 E193.03291
G1 X139.111 Y93.426 E193.10842
G1 X139.03 Y92.9 E193.16152
G1 X92.894 Y139.036 E199.67181
G1 X91.977 Y138.871 E199.76478
G1 X91.713 Y138.803 E199.79198
G1 X138.817 Y91.699 E206.43886
G1 X138.494 Y90.607 E206.55249
G1 X90.608 Y138.493 E213.30972
G1 X90.005 Y138.288 E213.37327
G1 X89.578 Y138.109 E213.41947
G1 X138.124 Y89.564 E220.26977
G1 X137.671 Y88.602 E220.37586
G1 X88.606 Y137.668 E227.29954
G1 X88.106 Y137.411 E227.35563
G1 X87.696 Y137.163 E227.40344
G1 X137.175 Y87.683 E234.38553
G1 X136.61 Y86.834 E234.48729
G1 X86.839 Y136.606 E241.51059
G1 X86.255 Y136.183 E241.58254
G1 X86.034 Y135.997 E241.61136
G1 X136.009 Y86.021 E248.66344
G1 X135.336 Y85.28 E248.76333
G1 X85.278 Y135.338 E255.82705
G1 X84.846 Y134.922 E255.88689
G1 X84.577 Y134.625 E255.92687
G1 X134.636 Y84.566 E262.99074
G1 X133.868 Y83.92 E263.09088
G1 X83.922 Y133.865 E270.13873
G1 X83.503 Y133.329 E270.20661
G1 X83.319 Y133.054 E270.23963
G1 X133.056 Y83.317 E277.25805
G1 X132.829 Y83.153 E277.286
G1 X132.192 Y82.768 E277.36026
G1 X82.768 Y132.191 E284.33445
G1 X82.257 Y131.289 E284.43789
G1 X131.275 Y82.27 E291.35493
G1 X131.019 Y82.139 E291.38363
G1 X130.295 Y81.837 E291.4619
G1 X81.834 Y130.297 E298.3002
G1 X81.537 Y129.504 E298.3847
G1 X81.463 Y129.254 E298.41071
G1 X129.268 Y81.449 E305.15651
G1 X128.144 Y81.158 E305.27236
G1 X81.161 Y128.141 E311.90217
G1 X81.049 Y127.641 E311.9533
G1 X80.944 Y126.944 E312.02363
G1 X126.945 Y80.943 E318.51487
G1 X126.104 Y80.846 E318.59934
G1 X125.647 Y80.827 E318.64498
G1 X80.812 Y125.662 E324.97168
G1 X80.799 Y124.942 E325.04354
G1 X80.799 Y124.261 E325.11149
G1 X124.26 Y80.8 E331.2443
G1 X122.846 Y80.8 E331.38539
G1 X80.799 Y122.847 E337.31868
G1 X80.799 Y121.432 E337.45987
G1 X121.432 Y80.8 E343.19355
G1 X120.017 Y80.8 E343.33474
G1 X80.799 Y120.018 E348.86882
G1 X80.799 Y118.604 E349.00991
G1 X118.603 Y80.8 E354.34447
G1 X117.189 Y80.8 E354.48556
G1 X80.799 Y117.19 E359.62058
G1 X80.799 Y115.776 E359.76167
G1 X115.775 Y80.8 E364.69716
G1 X114.361 Y80.8 E364.83825
G1 X80.799 Y114.361 E369.57414
G1 X80.799 Y112.947 E369.71523
G1 X112.946 Y80.8 E374.25152
G1 X111.532 Y80.8 E374.39261
G1 X80.799 Y111.533 E378.72937
G1 X80.799 Y110.119 E378.87045
G1 X110.119 Y80.799 E383.00782
G1 X108.704 Y80.799 E383.14901
G1 X80.799 Y108.704 E387.08671
G1 X80.799 Y107.29 E387.2278
G1 X107.29 Y80.799 E390.96597
G1 X105.876 Y80.799 E391.10706
G1 X80.799 Y105.876 E394.64569
G1 X80.799 Y104.462 E394.78678
G1 X104.462 Y80.799 E398.12589
G1 X103.048 Y80.799 E398.26697
G1 X80.799 Y103.048 E401.40655
G1 X80.799 Y101.633 E401.54774
G1 X101.633 Y80.799 E404.48764
G1 X100.219 Y80.799 E404.62873
G1 X80.799 Y100.219 E407.3691
G1 X80.799 Y98.805 E407.51019
G1 X98.805 Y80.799 E410.05103
G1 X97.391 Y80.799 E410.19212
G1 X80.799 Y97.391 E412.53343
G1 X80.799 Y95.977 E412.67452
G1 X95.977 Y80.799 E414.8163
G1 X95.222 Y80.818 E414.89166
G1 X94.485 Y80.876 E414.96543
G1 X80.882 Y94.48 E416.88503
G1 X80.954 Y93.794 E416.95385
G1 X81.139 Y92.808 E417.05395
G1 X92.799 Y81.148 E418.6993
G1 X92.242 Y81.276 E418.75633
G1 X91.992 Y81.342 E418.78213
G1 X91.342 Y81.533 E418.84973
G1 X90.812 Y81.721 E418.90584
G1 X81.717 Y90.816 E420.18924
G1 X82.027 Y90.021 E420.27439
G1 X82.444 Y89.143 E420.37137
G1 X82.758 Y88.565 E420.43701
G1 X82.963 Y88.214 E420.47757
G1 X83.47 Y87.403 E420.573
G1 X84.097 Y86.547 E420.67887
G1 X84.729 Y85.803 E420.77628
G1 X85.261 Y85.243 E420.85335
G1 X86.003 Y84.553 E420.95445
G1 X86.889 Y83.833 E421.06837
G1 X87.653 Y83.309 E421.16081
G1 X88.063 Y83.056 E421.20888
G1 X83.06 Y88.059 E421.91486
G1 F1500 E415.41486
G0 F300 X83.06 Y88.059 Z0.74
G0 F9000 X81.62 Y87.607
G0 X80.641 Y89.546
G0 X79.932 Y91.593
G0 X79.491 Y93.71
G0 X79.336 Y95.871
G0 X79.354 Y125.687
G0 X79.583 Y127.758
G0 X79.879 Y129.073
G0 X80.55 Y131.039
G0 X81.122 Y132.257
G0 X82.201 Y134.023
G0 X83.503 Y133.329
;TIME_ELAPSED:261.936469
;LAYER:-4
;TYPE:SUPPORT-INTERFACE
G1 F1500 E421.91486
G1 X84.136 Y134.14 E421.94907
G1 X84.846 Y134.922 E421.9842
G1 X85.463 Y135.516 E422.01269
G1 X86.255 Y136.183 E422.04713
G1 X86.789 Y136.569 E422.06904
G1 X83.411 Y133.191 E422.22794
G1 X82.92 Y132.46 E422.25722
G1 X82.496 Y131.71 E422.28588
G1 X88.291 Y137.506 E422.55848
G1 X88.98 Y137.859 E422.58423
G1 X89.376 Y138.025 E422.59851
G1 X81.953 Y130.602 E422.94767
G1 X81.606 Y129.689 E422.98015
G1 X90.307 Y138.39 E423.38942
G1 X90.92 Y138.599 E423.41096
G1 X91.137 Y138.655 E423.41842
G1 X81.348 Y128.865 E423.87888
G1 X81.241 Y128.503 E423.89144
G1 X81.152 Y128.104 E423.90504
G1 X91.899 Y138.851 E424.41054
G1 X92.599 Y138.986 E424.43425
G1 X81.012 Y127.398 E424.97929
G1 X80.911 Y126.731 E425.00173
G1 X93.258 Y139.078 E425.5825
G1 X93.898 Y139.152 E425.60392
G1 X80.854 Y126.109 E426.21745
G1 X80.813 Y125.502 E426.23769
G1 X94.487 Y139.176 E426.88087
G1 X95.074 Y139.198 E426.90041
G1 X80.799 Y124.923 E427.57186
G1 X80.799 Y124.357 E427.59068
G1 X95.64 Y139.198 E428.28876
G1 X96.206 Y139.198 E428.30758
G1 X80.799 Y123.791 E429.03228
G1 X80.799 Y123.226 E429.05107
G1 X96.771 Y139.198 E429.80235
G1 X97.337 Y139.198 E429.82117
G1 X80.799 Y122.66 E430.59907
G1 X80.799 Y122.094 E430.6179
G1 X97.903 Y139.198 E431.42242
G1 X98.454 Y139.183 E431.44075
G1 X80.799 Y121.529 E432.27116
G1 X80.799 Y120.963 E432.28999
G1 X98.994 Y139.157 E433.1458
G1 X99.511 Y139.109 E433.16307
G1 X80.799 Y120.397 E434.04322
G1 X80.799 Y119.831 E434.06205
G1 X100.014 Y139.046 E434.96586
G1 X100.5 Y138.966 E434.98225
G1 X80.799 Y119.266 E435.9089
G1 X80.799 Y118.7 E435.92772
G1 X100.976 Y138.877 E436.87679
G1 X101.432 Y138.767 E436.89239
G1 X80.799 Y118.134 E437.8629
G1 X80.799 Y117.569 E437.88169
G1 X101.885 Y138.655 E438.87351
G1 X102.311 Y138.515 E438.88843
G1 X80.799 Y117.003 E439.90029
G1 X80.799 Y116.437 E439.91911
G1 X102.747 Y138.385 E440.95148
G1 X103.148 Y138.22 E440.9659
G1 X80.799 Y115.872 E442.01711
G1 X80.799 Y115.306 E442.03593
G1 X103.55 Y138.056 E443.10605
G1 X103.952 Y137.893 E443.12047
G1 X80.799 Y114.74 E444.20952
G1 X80.799 Y114.175 E444.22831
G1 X104.325 Y137.701 E445.3349
G1 X104.702 Y137.512 E445.34893
G1 X80.799 Y113.609 E446.47325
G1 X80.799 Y113.043 E446.49208
G1 X105.061 Y137.305 E447.63329
G1 X105.419 Y137.097 E447.64706
G1 X80.799 Y112.478 E448.80509
G1 X80.799 Y111.912 E448.82391
G1 X105.766 Y136.878 E449.99826
G1 X106.101 Y136.648 E450.01177
G1 X80.799 Y111.346 E451.2019
G1 X80.799 Y110.781 E451.22069
G1 X106.435 Y136.417 E452.42653
G1 X106.751 Y136.166 E452.43996
G1 X80.799 Y110.215 E453.66063
G1 X80.799 Y109.649 E453.67946
G1 X107.063 Y135.913 E454.91484
G1 X107.374 Y135.659 E454.92819
G1 X80.799 Y109.083 E456.17822
G1 X80.799 Y108.518 E456.19701
G1 X107.668 Y135.386 E457.46083
G1 X107.961 Y135.113 E457.47415
G1 X80.799 Y107.952 E458.75174
G1 X80.799 Y107.386 E458.77057
G1 X108.246 Y134.833 E460.06159
G1 X108.529 Y134.551 E460.07488
G1 X80.799 Y106.821 E461.37921
G1 X80.799 Y106.255 E461.39804
G1 X108.812 Y134.268 E462.71568
G1 X109.095 Y133.985 E462.72899
